(** This GCode was generated by ReplicatorG 0040 **)
(*  using Skeinforge (50)  *)
(*  for a Single headed CNC Machine  *)
(*  on 2014/12/18 14:11:18 (-0800) *)
(**** start.gcode for The MigceTurbine, single head -mk ****)
M103 (disable RPM)
M73 P0 (顯示列印進度)
G21 (set units to mm)
G90 (set positioning to absolute)
M109 S110 T0 (set HBP temperature)
G4 P500 (Create Anchor)
M104 S225 T0 (set extruder temperature) (temp updated by printOMatic)
(**** begin homing ****)
G162 X Y F2500 (home XY axes maximum)
G161 Z F1100 (home Z axis minimum)
G92 Z-5 (set Z to -5)
G1 Z0.0 (move Z to "0")
G161 Z F100 (home Z axis minimum)
M132 X Y Z A B (Recall stored home offsets for XYZAB axis)
(**** end homing ****)
G1 X-70.5 Y-65 Z150 F3300.0 (move to waiting position)
G130 X20 Y20 Z20 A20 B20 (Lower stepper Vrefs while heating)
M6 T0 (wait for toolhead, and HBP to reach temperature)
G130 X127 Y127 Z40 A127 B127 (Set Stepper motor Vref to defaults)
M108 R3.0 T0
G0 X-70.5 Y-65 (Position Nozzle)
G0 Z0.15 (Position Height)
M108 R4.0 (Set Extruder Speed)
M101 (Start Extruder)
G4 P2500 (Create Anchor)
G1 X-70.5 Y-64 F1500.0 (Create Pre-Anchor extrude)
G4 P500
G1 X-40.5 Y-52 F1500.0 (Create Pre-Anchor extrude)
G1 X-45.5 Y-55 F1500.0 (Create Pre-Anchor extrude)
G1 X-50.5 Y-52 F1500.0 (Create Pre-Anchor extrude)
G1 X-55.5 Y-55 F1500.0 (Create Pre-Anchor extrude)
G1 X-60.5 Y-52 F1500.0 (Create Pre-Anchor extrude)
G0 Z0.6 (Position Height)
G4 P500 (Create Anchor)
(**** end of start.gcode ****)
(<format> skeinforge gcode </format>)
(<version> 12.03.14 </version>)
(<created> 14.12.18|14:7 </created>)
(<extruderInitialization>)
(<craftTypeName> extrusion </craftTypeName>)
M105
(<decimalPlacesCarried> 3 </decimalPlacesCarried>)
(<layerThickness> 0.27 </layerThickness>)
(<infillWidth> 0.4 </infillWidth>)
(<volumeFraction> 0.82 </volumeFraction>)
(<infillPerimeterOverlap> 0.3 </infillPerimeterOverlap>)
(<sharpestProduct> 0.866 </sharpestProduct>)
(<layerHeight> 0.27 </layerHeight>)
(<threadSequenceString> loops edge infill </threadSequenceString>)
(<maximumZFeedRatePerSecond> 999.0 </maximumZFeedRatePerSecond>)
(<objectFirstLayerFeedRateInfillMultiplier> 0.9 </objectFirstLayerFeedRateInfillMultiplier>)
(<operatingFeedRatePerSecond> 40.0 </operatingFeedRatePerSecond>)
(<objectFirstLayerFlowRateInfillMultiplier> 0.8 </objectFirstLayerFlowRateInfillMultiplier>)
(<operatingFlowRate> 40.0 </operatingFlowRate>)
(<orbitalFeedRatePerSecond> 0.0 </orbitalFeedRatePerSecond>)
(<travelFeedRatePerSecond> 60.0 </travelFeedRatePerSecond>)
(<coolingRate> 3.0 </coolingRate>)
(<heatingRate> 10.0 </heatingRate>)
(<baseTemperature> 225.0 </baseTemperature>)
(<interfaceTemperature> 225.0 </interfaceTemperature>)
(<objectFirstLayerInfillTemperature> 220.0 </objectFirstLayerInfillTemperature>)
(<objectFirstLayerPerimeterTemperature> 220.0 </objectFirstLayerPerimeterTemperature>)
(<objectNextLayersTemperature> 220.0 </objectNextLayersTemperature>)
(<supportLayersTemperature> 220.0 </supportLayersTemperature>)
(<supportedLayersTemperature> 220.0 </supportedLayersTemperature>)
(<skirtOutset> 1.4 </skirtOutset>)
(<edgeWidth> 0.4 </edgeWidth>)
(<perimeterWidth> 0.4 </perimeterWidth>)
(<profileName> ABS </profileName>)
(<settings>)
(<setting> alteration Activate_Alteration True </setting>)
(<setting> alteration Name_of_End_File:  </setting>)
(<setting> alteration Name_of_Start_File:  </setting>)
(<setting> alteration Remove_Redundant_Mcode True </setting>)
(<setting> alteration Replace_Variable_with_Setting True </setting>)
(<setting> bottom Activate_Bottom True </setting>)
(<setting> bottom Additional_Height_over_Layer_Thickness_(ratio): 0.3 </setting>)
(<setting> bottom Altitude_(mm): 0.0 </setting>)
(<setting> bottom SVG_Viewer: webbrowser </setting>)
(<setting> comb Activate_Comb True </setting>)
(<setting> comb Running_Jump_Space_(mm): 2.0 </setting>)
(<setting> cool Activate_Cool True </setting>)
(<setting> cool Bridge_Cool_(Celcius): 1.0 </setting>)
(<setting> cool Orbit False </setting>)
(<setting> cool Slow_Down True </setting>)
(<setting> cool Maximum_Cool_(Celcius): 1.0 </setting>)
(<setting> cool Minimum_Layer_Time_(seconds): 5.0 </setting>)
(<setting> cool Minimum_Orbital_Radius_(millimeters): 10.0 </setting>)
(<setting> cool Name_of_Cool_End_File: cool_end.gcode </setting>)
(<setting> cool Name_of_Cool_Start_File: cool_start.gcode </setting>)
(<setting> cool Orbital_Outset_(millimeters): 2.0 </setting>)
(<setting> cool Turn_Fan_On_at_Beginning False </setting>)
(<setting> cool Turn_Fan_Off_at_Ending False </setting>)
(<setting> dimension Activate_Dimension True </setting>)
(<setting> dimension Absolute_Extrusion_Distance True </setting>)
(<setting> dimension Relative_Extrusion_Distance False </setting>)
(<setting> dimension Extruder_Retraction_Speed_(mm/s): 20.0 </setting>)
(<setting> dimension Filament_Diameter_(mm): 1.75 </setting>)
(<setting> dimension Filament_Packing_Density_(ratio): 0.85 </setting>)
(<setting> dimension Maximum_E_Value_before_Reset_(float): 91234.0 </setting>)
(<setting> dimension Minimum_Travel_for_Retraction_(millimeters): 1.0 </setting>)
(<setting> dimension Retract_Within_Island False </setting>)
(<setting> dimension Retraction_Distance_(millimeters): 1.0 </setting>)
(<setting> dimension Restart_Extra_Distance_(millimeters): 0.0 </setting>)
(<setting> export Activate_Export True </setting>)
(<setting> export Add_Descriptive_Extension False </setting>)
(<setting> export Add_Export_Suffix False </setting>)
(<setting> export Add_Profile_Extension False </setting>)
(<setting> export Add_Timestamp_Extension False </setting>)
(<setting> export Also_Send_Output_To:  </setting>)
(<setting> export Analyze_Gcode True </setting>)
(<setting> export Do_Not_Delete_Comments True </setting>)
(<setting> export Delete_Crafting_Comments False </setting>)
(<setting> export Delete_All_Comments False </setting>)
(<setting> export Do_Not_Change_Output True </setting>)
(<setting> export binary_16_byte False </setting>)
(<setting> export gcode_step False </setting>)
(<setting> export gcode_time_segment False </setting>)
(<setting> export gcode_small False </setting>)
(<setting> export File_Extension: gcode </setting>)
(<setting> export Name_of_Replace_File: replace.csv </setting>)
(<setting> export Save_Penultimate_Gcode False </setting>)
(<setting> fill Activate_Fill True </setting>)
(<setting> fill Diaphragm_Period_(layers): 100 </setting>)
(<setting> fill Diaphragm_Thickness_(layers): 0 </setting>)
(<setting> fill Extra_Shells_on_Alternating_Solid_Layer_(layers): 2 </setting>)
(<setting> fill Extra_Shells_on_Base_(layers): 2 </setting>)
(<setting> fill Extra_Shells_on_Sparse_Layer_(layers): 2 </setting>)
(<setting> fill Grid_Circle_Separation_over_Perimeter_Width_(ratio): 0.2 </setting>)
(<setting> fill Grid_Extra_Overlap_(ratio): 0.1 </setting>)
(<setting> fill Grid_Junction_Separation_Band_Height_(layers): 10 </setting>)
(<setting> fill Grid_Junction_Separation_over_Octogon_Radius_At_End_(ratio): 0.0 </setting>)
(<setting> fill Grid_Junction_Separation_over_Octogon_Radius_At_Middle_(ratio): 0.0 </setting>)
(<setting> fill Infill_Begin_Rotation_(degrees): 90.0 </setting>)
(<setting> fill Infill_Begin_Rotation_Repeat_(layers): 1 </setting>)
(<setting> fill Infill_Odd_Layer_Extra_Rotation_(degrees): 90.0 </setting>)
(<setting> fill Grid_Circular False </setting>)
(<setting> fill Grid_Hexagonal False </setting>)
(<setting> fill Grid_Rectangular True </setting>)
(<setting> fill Line False </setting>)
(<setting> fill Infill_Perimeter_Overlap_(ratio): 0.3 </setting>)
(<setting> fill Infill_Solidity_(ratio): 0.25 </setting>)
(<setting> fill Sharpest_Angle_(degrees): 60.0 </setting>)
(<setting> fill Solid_Surface_Thickness_(layers): 3 </setting>)
(<setting> fill Lower_Left True </setting>)
(<setting> fill Nearest False </setting>)
(<setting> fill Surrounding_Angle_(degrees): 60.0 </setting>)
(<setting> fill Infill_>_Loops_>_Perimeter False </setting>)
(<setting> fill Infill_>_Perimeter_>_Loops False </setting>)
(<setting> fill Loops_>_Infill_>_Perimeter False </setting>)
(<setting> fill Loops_>_Perimeter_>_Infill True </setting>)
(<setting> fill Perimeter_>_Infill_>_Loops False </setting>)
(<setting> fill Perimeter_>_Loops_>_Infill False </setting>)
(<setting> home Activate_Home True </setting>)
(<setting> home Name_of_Home_File: home.gcode </setting>)
(<setting> jitter Activate_Jitter True </setting>)
(<setting> jitter Jitter_Over_Perimeter_Width_(ratio): 2.0 </setting>)
(<setting> multiply Activate_Multiply True </setting>)
(<setting> multiply Center_X_(mm): 0.0 </setting>)
(<setting> multiply Center_Y_(mm): 0.0 </setting>)
(<setting> multiply Number_of_Columns_(integer): 1 </setting>)
(<setting> multiply Number_of_Rows_(integer): 1 </setting>)
(<setting> multiply Reverse_Sequence_every_Odd_Layer False </setting>)
(<setting> multiply Separation_over_Perimeter_Width_(ratio): 15.0 </setting>)
(<setting> raft Activate_Raft True </setting>)
(<setting> raft Add_Raft,_Elevate_Nozzle,_Orbit: False </setting>)
(<setting> raft Base_Feed_Rate_Multiplier_(ratio): 0.75 </setting>)
(<setting> raft Base_Flow_Rate_Multiplier_(ratio): 0.6 </setting>)
(<setting> raft Base_Infill_Density_(ratio): 0.3 </setting>)
(<setting> raft Base_Layer_Thickness_over_Layer_Thickness: 2.2 </setting>)
(<setting> raft Base_Layers_(integer): 1 </setting>)
(<setting> raft Base_Nozzle_Lift_over_Base_Layer_Thickness_(ratio): 0.3 </setting>)
(<setting> raft Initial_Circling: False </setting>)
(<setting> raft Infill_Overhang_over_Extrusion_Width_(ratio): 0.1 </setting>)
(<setting> raft Interface_Feed_Rate_Multiplier_(ratio): 1.5 </setting>)
(<setting> raft Interface_Flow_Rate_Multiplier_(ratio): 0.7 </setting>)
(<setting> raft Interface_Infill_Density_(ratio): 0.4 </setting>)
(<setting> raft Interface_Layer_Thickness_over_Layer_Thickness: 1.8 </setting>)
(<setting> raft Interface_Layers_(integer): 2 </setting>)
(<setting> raft Interface_Nozzle_Lift_over_Interface_Layer_Thickness_(ratio): 0.3 </setting>)
(<setting> raft Name_of_Support_End_File: support_end.gcode </setting>)
(<setting> raft Name_of_Support_Start_File: support_start.gcode </setting>)
(<setting> raft Operating_Nozzle_Lift_over_Layer_Thickness_(ratio): 0.0 </setting>)
(<setting> raft Raft_Additional_Margin_over_Length_(%): 2.5 </setting>)
(<setting> raft Raft_Margin_(mm): 2.5 </setting>)
(<setting> raft Support_Cross_Hatch False </setting>)
(<setting> raft Support_Flow_Rate_over_Operating_Flow_Rate_(ratio): 0.7 </setting>)
(<setting> raft Support_Gap_over_Perimeter_Extrusion_Width_(ratio): 0.005 </setting>)
(<setting> raft None False </setting>)
(<setting> raft Empty_Layers_Only False </setting>)
(<setting> raft Everywhere True </setting>)
(<setting> raft Exterior_Only False </setting>)
(<setting> raft Support_Minimum_Angle_(degrees): 45.0 </setting>)
(<setting> skirt Activate_Skirt True </setting>)
(<setting> skirt Convex: True </setting>)
(<setting> skirt Gap_over_Perimeter_Width_(ratio): 3.0 </setting>)
(<setting> skirt Layers_To_(index): 1 </setting>)
(<setting> speed Activate_Speed True </setting>)
(<setting> speed Add_Flow_Rate: True </setting>)
(<setting> speed Bridge_Feed_Rate_Multiplier_(ratio): 1.0 </setting>)
(<setting> speed Bridge_Flow_Rate_Multiplier_(ratio): 1.0 </setting>)
(<setting> speed Duty_Cyle_at_Beginning_(portion): 1.0 </setting>)
(<setting> speed Duty_Cyle_at_Ending_(portion): 0.0 </setting>)
(<setting> speed Feed_Rate_(mm/s): 40.0 </setting>)
(<setting> speed Flow_Rate_Setting_(float): 40.0 </setting>)
(<setting> speed Object_First_Layer_Feed_Rate_Infill_Multiplier_(ratio): 0.9 </setting>)
(<setting> speed Object_First_Layer_Feed_Rate_Perimeter_Multiplier_(ratio): 0.9 </setting>)
(<setting> speed Object_First_Layer_Flow_Rate_Infill_Multiplier_(ratio): 0.8 </setting>)
(<setting> speed Object_First_Layer_Flow_Rate_Perimeter_Multiplier_(ratio): 0.9 </setting>)
(<setting> speed Orbital_Feed_Rate_over_Operating_Feed_Rate_(ratio): 0.0 </setting>)
(<setting> speed Maximum_Z_Feed_Rate_(mm/s): 999.0 </setting>)
(<setting> speed Perimeter_Feed_Rate_Multiplier_(ratio): 0.5 </setting>)
(<setting> speed Perimeter_Flow_Rate_Multiplier_(ratio): 0.5 </setting>)
(<setting> speed Travel_Feed_Rate_(mm/s): 60.0 </setting>)
(<setting> temperature Activate_Temperature True </setting>)
(<setting> temperature Cooling_Rate_(Celcius/second): 3.0 </setting>)
(<setting> temperature Heating_Rate_(Celcius/second): 10.0 </setting>)
(<setting> temperature Base_Temperature_(Celcius): 225.0 </setting>)
(<setting> temperature Interface_Temperature_(Celcius): 225.0 </setting>)
(<setting> temperature Object_First_Layer_Infill_Temperature_(Celcius): 220.0 </setting>)
(<setting> temperature Object_First_Layer_Perimeter_Temperature_(Celcius): 220.0 </setting>)
(<setting> temperature Object_Next_Layers_Temperature_(Celcius): 220.0 </setting>)
(<setting> temperature Support_Layers_Temperature_(Celcius): 220.0 </setting>)
(<setting> temperature Supported_Layers_Temperature_(Celcius): 220.0 </setting>)
(</settings>)
(<timeStampPreface> 20141218_140720 </timeStampPreface>)
(<procedureName> carve </procedureName>)
(<procedureName> bottom </procedureName>)
(<procedureName> preface </procedureName>)
(<procedureName> inset </procedureName>)
(<procedureName> fill </procedureName>)
(<procedureName> multiply </procedureName>)
(<procedureName> speed </procedureName>)
(<procedureName> temperature </procedureName>)
(<procedureName> raft </procedureName>)
(<procedureName> skirt </procedureName>)
(<procedureName> jitter </procedureName>)
(<procedureName> comb </procedureName>)
(<procedureName> cool </procedureName>)
(<procedureName> dimension </procedureName>)
(<procedureName> alteration </procedureName>)
(<procedureName> export </procedureName>)
(</extruderInitialization>)
(<crafting>)
;M113 S1.0
;M108 R18.0
M104 S220.0
(<layer> 0.081 )
(<skirt>)
G1 X-35.39 Y-49.34 Z0.08 F3600.0
G1 F1200.0
G1 E1.0
G1 F3600.0
M101
G1 X-35.33 Y49.78 Z0.08 F1080.0 E6.236
G1 X-35.14 Y50.51 Z0.08 F1080.0 E6.276
G1 X-34.55 Y51.62 Z0.08 F1080.0 E6.342
G1 X-33.95 Y52.26 Z0.08 F1080.0 E6.389
G1 X-33.06 Y52.89 Z0.08 F1080.0 E6.446
G1 X-31.85 Y53.34 Z0.08 F1080.0 E6.514
G1 X31.35 Y53.39 Z0.08 F1080.0 E9.853
G1 X32.45 Y53.15 Z0.08 F1080.0 E9.913
G1 X33.19 Y52.8 Z0.08 F1080.0 E9.956
G1 X34.22 Y52.0 Z0.08 F1080.0 E10.024
G1 X34.85 Y51.13 Z0.08 F1080.0 E10.081
G1 X35.31 Y49.84 Z0.08 F1080.0 E10.153
G1 X35.31 Y-49.84 Z0.08 F1080.0 E15.419
G1 X34.85 Y-51.13 Z0.08 F1080.0 E15.492
G1 X34.22 Y-52.0 Z0.08 F1080.0 E15.549
G1 X33.19 Y-52.8 Z0.08 F1080.0 E15.617
G1 X32.45 Y-53.15 Z0.08 F1080.0 E15.66
G1 X31.35 Y-53.39 Z0.08 F1080.0 E15.72
G1 X-31.85 Y-53.34 Z0.08 F1080.0 E19.059
G1 X-33.06 Y-52.89 Z0.08 F1080.0 E19.126
G1 X-33.95 Y-52.26 Z0.08 F1080.0 E19.184
G1 X-34.55 Y-51.62 Z0.08 F1080.0 E19.231
G1 X-35.16 Y-50.48 Z0.08 F1080.0 E19.299
G1 X-35.39 Y-49.34 Z0.08 F1080.0 E19.361
G1 F1200.0
G1 E18.361
G1 F1080.0
M103
;M108 R18.0
(</skirt>)
(<rotation> (6.12323399574e-17+1j) )
(<nestedRing>)
(<boundaryPerimeter>)
(<boundaryPoint> X-33.988 Y-49.376 Z0.081 </boundaryPoint>)
(<boundaryPoint> X-33.801 Y-50.104 Z0.081 </boundaryPoint>)
(<boundaryPoint> X-33.439 Y-50.763 Z0.081 </boundaryPoint>)
(<boundaryPoint> X-32.924 Y-51.312 Z0.081 </boundaryPoint>)
(<boundaryPoint> X-32.289 Y-51.714 Z0.081 </boundaryPoint>)
(<boundaryPoint> X-31.574 Y-51.947 Z0.081 </boundaryPoint>)
(<boundaryPoint> X31.177 Y-51.994 Z0.081 </boundaryPoint>)
(<boundaryPoint> X31.915 Y-51.853 Z0.081 </boundaryPoint>)
(<boundaryPoint> X32.596 Y-51.533 Z0.081 </boundaryPoint>)
(<boundaryPoint> X33.175 Y-51.054 Z0.081 </boundaryPoint>)
(<boundaryPoint> X33.617 Y-50.445 Z0.081 </boundaryPoint>)
(<boundaryPoint> X33.894 Y-49.746 Z0.081 </boundaryPoint>)
(<boundaryPoint> X33.988 Y-49.0 Z0.081 </boundaryPoint>)
(<boundaryPoint> X33.988 Y49.0 Z0.081 </boundaryPoint>)
(<boundaryPoint> X33.894 Y49.746 Z0.081 </boundaryPoint>)
(<boundaryPoint> X33.617 Y50.445 Z0.081 </boundaryPoint>)
(<boundaryPoint> X33.175 Y51.054 Z0.081 </boundaryPoint>)
(<boundaryPoint> X32.596 Y51.533 Z0.081 </boundaryPoint>)
(<boundaryPoint> X31.915 Y51.853 Z0.081 </boundaryPoint>)
(<boundaryPoint> X31.177 Y51.994 Z0.081 </boundaryPoint>)
(<boundaryPoint> X-31.574 Y51.947 Z0.081 </boundaryPoint>)
(<boundaryPoint> X-32.289 Y51.714 Z0.081 </boundaryPoint>)
(<boundaryPoint> X-32.924 Y51.312 Z0.081 </boundaryPoint>)
(<boundaryPoint> X-33.439 Y50.763 Z0.081 </boundaryPoint>)
(<boundaryPoint> X-33.801 Y50.104 Z0.081 </boundaryPoint>)
(<boundaryPoint> X-33.988 Y49.376 Z0.081 </boundaryPoint>)
(<edge> outer )
G1 X-32.8 Y-51.15 Z0.08 F3600.0
G1 F1200.0
G1 E19.361
G1 F3600.0
M101
G1 X-32.8 Y-51.16 Z0.08 F1080.0 E19.361
G1 X-32.2 Y-51.53 Z0.08 F1080.0 E19.398
G1 X-31.54 Y-51.75 Z0.08 F1080.0 E19.435
G1 X31.16 Y-51.79 Z0.08 F1080.0 E22.747
G1 X31.85 Y-51.66 Z0.08 F1080.0 E22.784
G1 X32.49 Y-51.36 Z0.08 F1080.0 E22.821
G1 X33.03 Y-50.92 Z0.08 F1080.0 E22.858
G1 X33.44 Y-50.35 Z0.08 F1080.0 E22.895
G1 X33.7 Y-49.7 Z0.08 F1080.0 E22.932
G1 X33.79 Y-48.99 Z0.08 F1080.0 E22.97
G1 X33.79 Y48.99 Z0.08 F1080.0 E28.146
G1 X33.7 Y49.7 Z0.08 F1080.0 E28.183
G1 X33.44 Y50.35 Z0.08 F1080.0 E28.22
G1 X33.03 Y50.92 Z0.08 F1080.0 E28.257
G1 X32.49 Y51.36 Z0.08 F1080.0 E28.294
G1 X31.85 Y51.66 Z0.08 F1080.0 E28.331
G1 X31.16 Y51.79 Z0.08 F1080.0 E28.369
G1 X-31.54 Y51.75 Z0.08 F1080.0 E31.681
G1 X-32.2 Y51.53 Z0.08 F1080.0 E31.718
G1 X-32.8 Y51.16 Z0.08 F1080.0 E31.755
G1 X-33.28 Y50.65 Z0.08 F1080.0 E31.792
G1 X-33.61 Y50.03 Z0.08 F1080.0 E31.829
G1 X-33.79 Y49.35 Z0.08 F1080.0 E31.866
G1 X-33.79 Y-49.35 Z0.08 F1080.0 E37.08
G1 X-33.61 Y-50.03 Z0.08 F1080.0 E37.117
G1 X-33.28 Y-50.65 Z0.08 F1080.0 E37.154
G1 X-32.8 Y-51.15 Z0.08 F1080.0 E37.191
G1 F1200.0
G1 E36.191
G1 F1080.0
M103
(</edge>)
(</boundaryPerimeter>)
(<nestedRing>)
(<boundaryPerimeter>)
(<boundaryPoint> X0.747 Y-41.827 Z0.081 </boundaryPoint>)
(<boundaryPoint> X0.204 Y-41.965 Z0.081 </boundaryPoint>)
(<boundaryPoint> X-0.212 Y-42.159 Z0.081 </boundaryPoint>)
(<boundaryPoint> X-0.517 Y-42.426 Z0.081 </boundaryPoint>)
(<boundaryPoint> X-0.735 Y-42.775 Z0.081 </boundaryPoint>)
(<boundaryPoint> X-0.866 Y-43.206 Z0.081 </boundaryPoint>)
(<boundaryPoint> X-0.909 Y-43.72 Z0.081 </boundaryPoint>)
(<boundaryPoint> X-0.878 Y-44.123 Z0.081 </boundaryPoint>)
(<boundaryPoint> X-0.784 Y-44.466 Z0.081 </boundaryPoint>)
(<boundaryPoint> X-0.627 Y-44.75 Z0.081 </boundaryPoint>)
(<boundaryPoint> X-0.408 Y-44.975 Z0.081 </boundaryPoint>)
(<boundaryPoint> X-0.119 Y-45.145 Z0.081 </boundaryPoint>)
(<boundaryPoint> X0.247 Y-45.267 Z0.081 </boundaryPoint>)
(<boundaryPoint> X0.69 Y-45.34 Z0.081 </boundaryPoint>)
(<boundaryPoint> X6.707 Y-45.365 Z0.081 </boundaryPoint>)
(<boundaryPoint> X6.707 Y-47.541 Z0.081 </boundaryPoint>)
(<boundaryPoint> X0.114 Y-47.491 Z0.081 </boundaryPoint>)
(<boundaryPoint> X-0.66 Y-47.341 Z0.081 </boundaryPoint>)
(<boundaryPoint> X-1.301 Y-47.092 Z0.081 </boundaryPoint>)
(<boundaryPoint> X-1.81 Y-46.743 Z0.081 </boundaryPoint>)
(<boundaryPoint> X-2.256 Y-46.233 Z0.081 </boundaryPoint>)
(<boundaryPoint> X-2.574 Y-45.645 Z0.081 </boundaryPoint>)
(<boundaryPoint> X-2.765 Y-44.979 Z0.081 </boundaryPoint>)
(<boundaryPoint> X-2.829 Y-44.235 Z0.081 </boundaryPoint>)
(<boundaryPoint> X-2.765 Y-43.561 Z0.081 </boundaryPoint>)
(<boundaryPoint> X-2.573 Y-42.916 Z0.081 </boundaryPoint>)
(<boundaryPoint> X-2.252 Y-42.302 Z0.081 </boundaryPoint>)
(<boundaryPoint> X-2.033 Y-42.016 Z0.081 </boundaryPoint>)
(<boundaryPoint> X-2.163 Y-41.717 Z0.081 </boundaryPoint>)
(<boundaryPoint> X-9.357 Y-41.717 Z0.081 </boundaryPoint>)
(<boundaryPoint> X-9.357 Y-39.541 Z0.081 </boundaryPoint>)
(<boundaryPoint> X6.707 Y-39.541 Z0.081 </boundaryPoint>)
(<boundaryPoint> X6.707 Y-41.717 Z0.081 </boundaryPoint>)
(<boundaryPoint> X1.416 Y-41.744 Z0.081 </boundaryPoint>)
(<edge> inner )
G1 X-9.55 Y-41.92 Z0.08 F3600.0
G1 F1200.0
G1 E37.191
G1 F3600.0
M101
G1 X-9.56 Y-41.92 Z0.08 F1080.0 E37.191
G1 X-9.56 Y-39.34 Z0.08 F1080.0 E37.327
G1 X6.91 Y-39.34 Z0.08 F1080.0 E38.197
G1 X6.91 Y-41.92 Z0.08 F1080.0 E38.333
G1 X1.43 Y-41.94 Z0.08 F1080.0 E38.622
G1 X0.78 Y-42.02 Z0.08 F1080.0 E38.657
G1 X0.27 Y-42.15 Z0.08 F1080.0 E38.685
G1 X-0.1 Y-42.33 Z0.08 F1080.0 E38.706
G1 X-0.36 Y-42.56 Z0.08 F1080.0 E38.725
G1 X-0.55 Y-42.86 Z0.08 F1080.0 E38.743
G1 X-0.67 Y-43.24 Z0.08 F1080.0 E38.765
G1 X-0.71 Y-43.72 Z0.08 F1080.0 E38.79
G1 X-0.68 Y-44.09 Z0.08 F1080.0 E38.809
G1 X-0.6 Y-44.39 Z0.08 F1080.0 E38.826
G1 X-0.47 Y-44.63 Z0.08 F1080.0 E38.84
G1 X-0.28 Y-44.82 Z0.08 F1080.0 E38.854
G1 X-0.04 Y-44.96 Z0.08 F1080.0 E38.869
G1 X0.29 Y-45.07 Z0.08 F1080.0 E38.888
G1 X0.71 Y-45.14 Z0.08 F1080.0 E38.91
G1 X6.91 Y-45.17 Z0.08 F1080.0 E39.237
G1 X6.91 Y-47.74 Z0.08 F1080.0 E39.373
G1 X0.09 Y-47.69 Z0.08 F1080.0 E39.733
G1 X-0.72 Y-47.53 Z0.08 F1080.0 E39.777
G1 X-1.4 Y-47.27 Z0.08 F1080.0 E39.815
G1 X-1.94 Y-46.89 Z0.08 F1080.0 E39.851
G1 X-2.42 Y-46.35 Z0.08 F1080.0 E39.889
G1 X-2.76 Y-45.72 Z0.08 F1080.0 E39.927
G1 X-2.96 Y-45.02 Z0.08 F1080.0 E39.965
G1 X-3.03 Y-44.23 Z0.08 F1080.0 E40.007
G1 X-2.96 Y-43.52 Z0.08 F1080.0 E40.044
G1 X-2.76 Y-42.84 Z0.08 F1080.0 E40.082
G1 X-2.42 Y-42.19 Z0.08 F1080.0 E40.121
G1 X-2.26 Y-41.99 Z0.08 F1080.0 E40.134
G1 X-2.29 Y-41.92 Z0.08 F1080.0 E40.138
G1 X-9.55 Y-41.92 Z0.08 F1080.0 E40.522
G1 F1200.0
G1 E39.522
G1 F1080.0
M103
(</edge>)
(</boundaryPerimeter>)
(</nestedRing>)
(<nestedRing>)
(<boundaryPerimeter>)
(<boundaryPoint> X6.582 Y-36.525 Z0.081 </boundaryPoint>)
(<boundaryPoint> X6.285 Y-37.176 Z0.081 </boundaryPoint>)
(<boundaryPoint> X3.842 Y-37.176 Z0.081 </boundaryPoint>)
(<boundaryPoint> X3.701 Y-37.14 Z0.081 </boundaryPoint>)
(<boundaryPoint> X3.66 Y-37.037 Z0.081 </boundaryPoint>)
(<boundaryPoint> X3.74 Y-36.915 Z0.081 </boundaryPoint>)
(<boundaryPoint> X4.236 Y-36.457 Z0.081 </boundaryPoint>)
(<boundaryPoint> X4.511 Y-36.134 Z0.081 </boundaryPoint>)
(<boundaryPoint> X4.711 Y-35.837 Z0.081 </boundaryPoint>)
(<boundaryPoint> X4.856 Y-35.531 Z0.081 </boundaryPoint>)
(<boundaryPoint> X4.96 Y-35.203 Z0.081 </boundaryPoint>)
(<boundaryPoint> X5.022 Y-34.852 Z0.081 </boundaryPoint>)
(<boundaryPoint> X5.043 Y-34.478 Z0.081 </boundaryPoint>)
(<boundaryPoint> X4.991 Y-33.902 Z0.081 </boundaryPoint>)
(<boundaryPoint> X4.833 Y-33.379 Z0.081 </boundaryPoint>)
(<boundaryPoint> X4.572 Y-32.909 Z0.081 </boundaryPoint>)
(<boundaryPoint> X4.205 Y-32.493 Z0.081 </boundaryPoint>)
(<boundaryPoint> X3.757 Y-32.156 Z0.081 </boundaryPoint>)
(<boundaryPoint> X3.25 Y-31.915 Z0.081 </boundaryPoint>)
(<boundaryPoint> X2.685 Y-31.771 Z0.081 </boundaryPoint>)
(<boundaryPoint> X2.062 Y-31.723 Z0.081 </boundaryPoint>)
(<boundaryPoint> X1.451 Y-31.773 Z0.081 </boundaryPoint>)
(<boundaryPoint> X0.893 Y-31.922 Z0.081 </boundaryPoint>)
(<boundaryPoint> X0.389 Y-32.172 Z0.081 </boundaryPoint>)
(<boundaryPoint> X-0.061 Y-32.521 Z0.081 </boundaryPoint>)
(<boundaryPoint> X-0.432 Y-32.945 Z0.081 </boundaryPoint>)
(<boundaryPoint> X-0.697 Y-33.421 Z0.081 </boundaryPoint>)
(<boundaryPoint> X-0.856 Y-33.948 Z0.081 </boundaryPoint>)
(<boundaryPoint> X-0.909 Y-34.526 Z0.081 </boundaryPoint>)
(<boundaryPoint> X-0.888 Y-34.898 Z0.081 </boundaryPoint>)
(<boundaryPoint> X-0.824 Y-35.245 Z0.081 </boundaryPoint>)
(<boundaryPoint> X-0.717 Y-35.567 Z0.081 </boundaryPoint>)
(<boundaryPoint> X-0.567 Y-35.865 Z0.081 </boundaryPoint>)
(<boundaryPoint> X-0.366 Y-36.164 Z0.081 </boundaryPoint>)
(<boundaryPoint> X-0.095 Y-36.483 Z0.081 </boundaryPoint>)
(<boundaryPoint> X0.375 Y-36.915 Z0.081 </boundaryPoint>)
(<boundaryPoint> X0.454 Y-37.037 Z0.081 </boundaryPoint>)
(<boundaryPoint> X0.414 Y-37.14 Z0.081 </boundaryPoint>)
(<boundaryPoint> X0.273 Y-37.176 Z0.081 </boundaryPoint>)
(<boundaryPoint> X-2.176 Y-37.176 Z0.081 </boundaryPoint>)
(<boundaryPoint> X-2.462 Y-36.558 Z0.081 </boundaryPoint>)
(<boundaryPoint> X-2.666 Y-35.922 Z0.081 </boundaryPoint>)
(<boundaryPoint> X-2.788 Y-35.266 Z0.081 </boundaryPoint>)
(<boundaryPoint> X-2.829 Y-34.592 Z0.081 </boundaryPoint>)
(<boundaryPoint> X-2.74 Y-33.57 Z0.081 </boundaryPoint>)
(<boundaryPoint> X-2.472 Y-32.631 Z0.081 </boundaryPoint>)
(<boundaryPoint> X-2.026 Y-31.776 Z0.081 </boundaryPoint>)
(<boundaryPoint> X-1.401 Y-31.005 Z0.081 </boundaryPoint>)
(<boundaryPoint> X-0.647 Y-30.367 Z0.081 </boundaryPoint>)
(<boundaryPoint> X0.188 Y-29.911 Z0.081 </boundaryPoint>)
(<boundaryPoint> X1.103 Y-29.638 Z0.081 </boundaryPoint>)
(<boundaryPoint> X2.1 Y-29.547 Z0.081 </boundaryPoint>)
(<boundaryPoint> X3.095 Y-29.637 Z0.081 </boundaryPoint>)
(<boundaryPoint> X4.006 Y-29.906 Z0.081 </boundaryPoint>)
(<boundaryPoint> X4.832 Y-30.356 Z0.081 </boundaryPoint>)
(<boundaryPoint> X5.574 Y-30.985 Z0.081 </boundaryPoint>)
(<boundaryPoint> X6.182 Y-31.75 Z0.081 </boundaryPoint>)
(<boundaryPoint> X6.616 Y-32.602 Z0.081 </boundaryPoint>)
(<boundaryPoint> X6.876 Y-33.544 Z0.081 </boundaryPoint>)
(<boundaryPoint> X6.963 Y-34.573 Z0.081 </boundaryPoint>)
(<boundaryPoint> X6.921 Y-35.224 Z0.081 </boundaryPoint>)
(<boundaryPoint> X6.793 Y-35.875 Z0.081 </boundaryPoint>)
(<edge> inner )
G1 X-9.56 Y-41.92 Z0.08 F3600.0
G1 X-9.56 Y-39.34 Z0.08 F3600.0
G1 X-2.3 Y-37.38 Z0.08 F3600.0
G1 F1200.0
G1 E40.522
G1 F3600.0
M101
G1 X-2.3 Y-37.38 Z0.08 F1080.0 E40.522
G1 X-2.65 Y-36.63 Z0.08 F1080.0 E40.565
G1 X-2.86 Y-35.97 Z0.08 F1080.0 E40.602
G1 X-2.99 Y-35.29 Z0.08 F1080.0 E40.639
G1 X-3.03 Y-34.59 Z0.08 F1080.0 E40.676
G1 X-2.94 Y-33.53 Z0.08 F1080.0 E40.732
G1 X-2.66 Y-32.56 Z0.08 F1080.0 E40.785
G1 X-2.19 Y-31.67 Z0.08 F1080.0 E40.838
G1 X-1.54 Y-30.86 Z0.08 F1080.0 E40.893
G1 X-0.76 Y-30.2 Z0.08 F1080.0 E40.947
G1 X0.11 Y-29.73 Z0.08 F1080.0 E41.0
G1 X1.06 Y-29.44 Z0.08 F1080.0 E41.052
G1 X2.1 Y-29.35 Z0.08 F1080.0 E41.107
G1 X3.13 Y-29.44 Z0.08 F1080.0 E41.162
G1 X4.08 Y-29.72 Z0.08 F1080.0 E41.214
G1 X4.95 Y-30.19 Z0.08 F1080.0 E41.266
G1 X5.72 Y-30.84 Z0.08 F1080.0 E41.32
G1 X6.35 Y-31.64 Z0.08 F1080.0 E41.373
G1 X6.8 Y-32.53 Z0.08 F1080.0 E41.426
G1 X7.07 Y-33.51 Z0.08 F1080.0 E41.48
G1 X7.16 Y-34.57 Z0.08 F1080.0 E41.536
G1 X7.12 Y-35.25 Z0.08 F1080.0 E41.572
G1 X6.99 Y-35.92 Z0.08 F1080.0 E41.608
G1 X6.77 Y-36.6 Z0.08 F1080.0 E41.646
G1 X6.41 Y-37.38 Z0.08 F1080.0 E41.691
G1 X3.82 Y-37.38 Z0.08 F1080.0 E41.828
G1 X3.55 Y-37.31 Z0.08 F1080.0 E41.843
G1 X3.44 Y-37.01 Z0.08 F1080.0 E41.859
G1 X3.59 Y-36.78 Z0.08 F1080.0 E41.874
G1 X4.09 Y-36.32 Z0.08 F1080.0 E41.91
G1 X4.35 Y-36.01 Z0.08 F1080.0 E41.931
G1 X4.54 Y-35.74 Z0.08 F1080.0 E41.949
G1 X4.67 Y-35.46 Z0.08 F1080.0 E41.965
G1 X4.76 Y-35.16 Z0.08 F1080.0 E41.982
G1 X4.82 Y-34.83 Z0.08 F1080.0 E41.999
G1 X4.84 Y-34.48 Z0.08 F1080.0 E42.018
G1 X4.79 Y-33.94 Z0.08 F1080.0 E42.046
G1 X4.65 Y-33.46 Z0.08 F1080.0 E42.073
G1 X4.41 Y-33.02 Z0.08 F1080.0 E42.099
G1 X4.07 Y-32.64 Z0.08 F1080.0 E42.126
G1 X3.65 Y-32.33 Z0.08 F1080.0 E42.154
G1 X3.18 Y-32.1 Z0.08 F1080.0 E42.181
G1 X2.65 Y-31.97 Z0.08 F1080.0 E42.21
G1 X2.06 Y-31.92 Z0.08 F1080.0 E42.241
G1 X1.49 Y-31.97 Z0.08 F1080.0 E42.272
G1 X0.96 Y-32.11 Z0.08 F1080.0 E42.301
G1 X0.5 Y-32.34 Z0.08 F1080.0 E42.328
G1 X0.08 Y-32.67 Z0.08 F1080.0 E42.356
G1 X-0.27 Y-33.06 Z0.08 F1080.0 E42.384
G1 X-0.51 Y-33.5 Z0.08 F1080.0 E42.41
G1 X-0.66 Y-33.99 Z0.08 F1080.0 E42.437
G1 X-0.71 Y-34.53 Z0.08 F1080.0 E42.466
G1 X-0.69 Y-34.87 Z0.08 F1080.0 E42.484
G1 X-0.63 Y-35.2 Z0.08 F1080.0 E42.501
G1 X-0.53 Y-35.49 Z0.08 F1080.0 E42.518
G1 X-0.39 Y-35.76 Z0.08 F1080.0 E42.534
G1 X-0.21 Y-36.04 Z0.08 F1080.0 E42.552
G1 X0.05 Y-36.34 Z0.08 F1080.0 E42.573
G1 X0.53 Y-36.78 Z0.08 F1080.0 E42.607
G1 X0.68 Y-37.01 Z0.08 F1080.0 E42.622
G1 X0.56 Y-37.31 Z0.08 F1080.0 E42.638
G1 X0.3 Y-37.38 Z0.08 F1080.0 E42.653
G1 X-2.3 Y-37.38 Z0.08 F1080.0 E42.79
G1 F1200.0
G1 E41.79
G1 F1080.0
M103
(</edge>)
(</boundaryPerimeter>)
(</nestedRing>)
(<nestedRing>)
(<boundaryPerimeter>)
(<boundaryPoint> X0.752 Y-21.861 Z0.081 </boundaryPoint>)
(<boundaryPoint> X0.209 Y-21.997 Z0.081 </boundaryPoint>)
(<boundaryPoint> X-0.204 Y-22.187 Z0.081 </boundaryPoint>)
(<boundaryPoint> X-0.513 Y-22.447 Z0.081 </boundaryPoint>)
(<boundaryPoint> X-0.733 Y-22.783 Z0.081 </boundaryPoint>)
(<boundaryPoint> X-0.865 Y-23.196 Z0.081 </boundaryPoint>)
(<boundaryPoint> X-0.909 Y-23.685 Z0.081 </boundaryPoint>)
(<boundaryPoint> X-0.876 Y-24.133 Z0.081 </boundaryPoint>)
(<boundaryPoint> X-0.776 Y-24.505 Z0.081 </boundaryPoint>)
(<boundaryPoint> X-0.609 Y-24.802 Z0.081 </boundaryPoint>)
(<boundaryPoint> X-0.375 Y-25.024 Z0.081 </boundaryPoint>)
(<boundaryPoint> X-0.06 Y-25.189 Z0.081 </boundaryPoint>)
(<boundaryPoint> X0.361 Y-25.307 Z0.081 </boundaryPoint>)
(<boundaryPoint> X0.888 Y-25.377 Z0.081 </boundaryPoint>)
(<boundaryPoint> X6.707 Y-25.401 Z0.081 </boundaryPoint>)
(<boundaryPoint> X6.707 Y-27.577 Z0.081 </boundaryPoint>)
(<boundaryPoint> X0.107 Y-27.528 Z0.081 </boundaryPoint>)
(<boundaryPoint> X-0.669 Y-27.382 Z0.081 </boundaryPoint>)
(<boundaryPoint> X-1.308 Y-27.139 Z0.081 </boundaryPoint>)
(<boundaryPoint> X-1.81 Y-26.798 Z0.081 </boundaryPoint>)
(<boundaryPoint> X-2.256 Y-26.302 Z0.081 </boundaryPoint>)
(<boundaryPoint> X-2.574 Y-25.717 Z0.081 </boundaryPoint>)
(<boundaryPoint> X-2.765 Y-25.043 Z0.081 </boundaryPoint>)
(<boundaryPoint> X-2.829 Y-24.28 Z0.081 </boundaryPoint>)
(<boundaryPoint> X-2.76 Y-23.595 Z0.081 </boundaryPoint>)
(<boundaryPoint> X-2.551 Y-22.945 Z0.081 </boundaryPoint>)
(<boundaryPoint> X-2.204 Y-22.331 Z0.081 </boundaryPoint>)
(<boundaryPoint> X-1.972 Y-22.055 Z0.081 </boundaryPoint>)
(<boundaryPoint> X-2.213 Y-21.753 Z0.081 </boundaryPoint>)
(<boundaryPoint> X-2.573 Y-21.753 Z0.081 </boundaryPoint>)
(<boundaryPoint> X-2.573 Y-19.577 Z0.081 </boundaryPoint>)
(<boundaryPoint> X6.707 Y-19.577 Z0.081 </boundaryPoint>)
(<boundaryPoint> X6.707 Y-21.753 Z0.081 </boundaryPoint>)
(<boundaryPoint> X1.424 Y-21.78 Z0.081 </boundaryPoint>)
(<edge> inner )
G1 X-2.6 Y-37.22 Z0.08 F3600.0
G1 X-3.13 Y-33.5 Z0.08 F3600.0
G1 X-0.46 Y-27.63 Z0.08 F3600.0
G1 F1200.0
G1 E42.79
G1 F3600.0
M101
G1 X-0.46 Y-27.62 Z0.08 F1080.0 E42.79
G1 X-0.72 Y-27.57 Z0.08 F1080.0 E42.804
G1 X-1.4 Y-27.32 Z0.08 F1080.0 E42.842
G1 X-1.94 Y-26.95 Z0.08 F1080.0 E42.877
G1 X-2.42 Y-26.42 Z0.08 F1080.0 E42.915
G1 X-2.76 Y-25.79 Z0.08 F1080.0 E42.952
G1 X-2.96 Y-25.08 Z0.08 F1080.0 E42.991
G1 X-3.03 Y-24.28 Z0.08 F1080.0 E43.034
G1 X-2.96 Y-23.55 Z0.08 F1080.0 E43.072
G1 X-2.73 Y-22.86 Z0.08 F1080.0 E43.111
G1 X-2.37 Y-22.22 Z0.08 F1080.0 E43.15
G1 X-2.23 Y-22.05 Z0.08 F1080.0 E43.161
G1 X-2.31 Y-21.95 Z0.08 F1080.0 E43.168
G1 X-2.77 Y-21.95 Z0.08 F1080.0 E43.192
G1 X-2.77 Y-19.38 Z0.08 F1080.0 E43.329
G1 X6.91 Y-19.38 Z0.08 F1080.0 E43.84
G1 X6.91 Y-21.95 Z0.08 F1080.0 E43.976
G1 X1.44 Y-21.98 Z0.08 F1080.0 E44.265
G1 X0.79 Y-22.06 Z0.08 F1080.0 E44.299
G1 X0.28 Y-22.19 Z0.08 F1080.0 E44.327
G1 X-0.1 Y-22.36 Z0.08 F1080.0 E44.349
G1 X-0.36 Y-22.58 Z0.08 F1080.0 E44.367
G1 X-0.55 Y-22.87 Z0.08 F1080.0 E44.386
G1 X-0.67 Y-23.24 Z0.08 F1080.0 E44.406
G1 X-0.71 Y-23.69 Z0.08 F1080.0 E44.43
G1 X-0.68 Y-24.1 Z0.08 F1080.0 E44.452
G1 X-0.59 Y-24.43 Z0.08 F1080.0 E44.47
G1 X-0.45 Y-24.68 Z0.08 F1080.0 E44.485
G1 X-0.26 Y-24.86 Z0.08 F1080.0 E44.499
G1 X0.01 Y-25.0 Z0.08 F1080.0 E44.515
G1 X0.4 Y-25.11 Z0.08 F1080.0 E44.536
G1 X0.9 Y-25.18 Z0.08 F1080.0 E44.563
G1 X6.91 Y-25.2 Z0.08 F1080.0 E44.88
G1 X6.91 Y-27.78 Z0.08 F1080.0 E45.016
G1 X0.09 Y-27.73 Z0.08 F1080.0 E45.376
G1 X-0.46 Y-27.63 Z0.08 F1080.0 E45.406
G1 F1200.0
G1 E44.406
G1 F1080.0
M103
(</edge>)
(</boundaryPerimeter>)
(</nestedRing>)
(<nestedRing>)
(<boundaryPerimeter>)
(<boundaryPoint> X6.274 Y-14.298 Z0.081 </boundaryPoint>)
(<boundaryPoint> X5.963 Y-14.687 Z0.081 </boundaryPoint>)
(<boundaryPoint> X6.098 Y-14.968 Z0.081 </boundaryPoint>)
(<boundaryPoint> X6.707 Y-14.968 Z0.081 </boundaryPoint>)
(<boundaryPoint> X6.707 Y-17.144 Z0.081 </boundaryPoint>)
(<boundaryPoint> X-2.573 Y-17.144 Z0.081 </boundaryPoint>)
(<boundaryPoint> X-2.573 Y-14.968 Z0.081 </boundaryPoint>)
(<boundaryPoint> X-1.86 Y-14.968 Z0.081 </boundaryPoint>)
(<boundaryPoint> X-1.738 Y-14.698 Z0.081 </boundaryPoint>)
(<boundaryPoint> X-2.082 Y-14.309 Z0.081 </boundaryPoint>)
(<boundaryPoint> X-2.497 Y-13.608 Z0.081 </boundaryPoint>)
(<boundaryPoint> X-2.746 Y-12.865 Z0.081 </boundaryPoint>)
(<boundaryPoint> X-2.829 Y-12.081 Z0.081 </boundaryPoint>)
(<boundaryPoint> X-2.742 Y-11.188 Z0.081 </boundaryPoint>)
(<boundaryPoint> X-2.482 Y-10.373 Z0.081 </boundaryPoint>)
(<boundaryPoint> X-2.047 Y-9.635 Z0.081 </boundaryPoint>)
(<boundaryPoint> X-1.439 Y-8.976 Z0.081 </boundaryPoint>)
(<boundaryPoint> X-0.701 Y-8.434 Z0.081 </boundaryPoint>)
(<boundaryPoint> X0.124 Y-8.046 Z0.081 </boundaryPoint>)
(<boundaryPoint> X1.035 Y-7.814 Z0.081 </boundaryPoint>)
(<boundaryPoint> X2.034 Y-7.736 Z0.081 </boundaryPoint>)
(<boundaryPoint> X3.051 Y-7.814 Z0.081 </boundaryPoint>)
(<boundaryPoint> X3.98 Y-8.046 Z0.081 </boundaryPoint>)
(<boundaryPoint> X4.821 Y-8.434 Z0.081 </boundaryPoint>)
(<boundaryPoint> X5.574 Y-8.976 Z0.081 </boundaryPoint>)
(<boundaryPoint> X6.182 Y-9.643 Z0.081 </boundaryPoint>)
(<boundaryPoint> X6.616 Y-10.392 Z0.081 </boundaryPoint>)
(<boundaryPoint> X6.876 Y-11.224 Z0.081 </boundaryPoint>)
(<boundaryPoint> X6.963 Y-12.138 Z0.081 </boundaryPoint>)
(<boundaryPoint> X6.886 Y-12.883 Z0.081 </boundaryPoint>)
(<boundaryPoint> X6.657 Y-13.603 Z0.081 </boundaryPoint>)
(<edge> inner )
G1 X6.91 Y-27.78 Z0.08 F3600.0
G1 X6.91 Y-21.95 Z0.08 F3600.0
G1 X6.91 Y-19.38 Z0.08 F3600.0
G1 X-0.46 Y-17.34 Z0.08 F3600.0
G1 F1200.0
G1 E45.406
G1 F3600.0
M101
G1 X-0.46 Y-17.34 Z0.08 F1080.0 E45.406
G1 X-2.77 Y-17.34 Z0.08 F1080.0 E45.528
G1 X-2.77 Y-14.77 Z0.08 F1080.0 E45.664
G1 X-1.99 Y-14.77 Z0.08 F1080.0 E45.705
G1 X-1.97 Y-14.73 Z0.08 F1080.0 E45.707
G1 X-2.24 Y-14.43 Z0.08 F1080.0 E45.729
G1 X-2.68 Y-13.69 Z0.08 F1080.0 E45.774
G1 X-2.94 Y-12.91 Z0.08 F1080.0 E45.818
G1 X-3.03 Y-12.08 Z0.08 F1080.0 E45.862
G1 X-2.94 Y-11.15 Z0.08 F1080.0 E45.911
G1 X-2.67 Y-10.29 Z0.08 F1080.0 E45.959
G1 X-2.21 Y-9.52 Z0.08 F1080.0 E46.006
G1 X-1.57 Y-8.83 Z0.08 F1080.0 E46.056
G1 X-0.8 Y-8.26 Z0.08 F1080.0 E46.106
G1 X0.06 Y-7.86 Z0.08 F1080.0 E46.157
G1 X1.0 Y-7.62 Z0.08 F1080.0 E46.208
G1 X2.03 Y-7.54 Z0.08 F1080.0 E46.263
G1 X3.08 Y-7.62 Z0.08 F1080.0 E46.318
G1 X4.05 Y-7.86 Z0.08 F1080.0 E46.371
G1 X4.92 Y-8.26 Z0.08 F1080.0 E46.422
G1 X5.71 Y-8.83 Z0.08 F1080.0 E46.473
G1 X6.34 Y-9.52 Z0.08 F1080.0 E46.523
G1 X6.8 Y-10.31 Z0.08 F1080.0 E46.571
G1 X7.07 Y-11.18 Z0.08 F1080.0 E46.619
G1 X7.16 Y-12.14 Z0.08 F1080.0 E46.67
G1 X7.08 Y-12.92 Z0.08 F1080.0 E46.712
G1 X6.84 Y-13.68 Z0.08 F1080.0 E46.754
G1 X6.44 Y-14.41 Z0.08 F1080.0 E46.797
G1 X6.2 Y-14.71 Z0.08 F1080.0 E46.818
G1 X6.22 Y-14.77 Z0.08 F1080.0 E46.821
G1 X6.91 Y-14.77 Z0.08 F1080.0 E46.857
G1 X6.91 Y-17.34 Z0.08 F1080.0 E46.993
G1 X-0.46 Y-17.34 Z0.08 F1080.0 E47.382
G1 F1200.0
G1 E46.382
G1 F1080.0
M103
(</edge>)
(</boundaryPerimeter>)
(<nestedRing>)
(<boundaryPerimeter>)
(<boundaryPoint> X4.566 Y-11.023 Z0.081 </boundaryPoint>)
(<boundaryPoint> X4.195 Y-10.63 Z0.081 </boundaryPoint>)
(<boundaryPoint> X3.745 Y-10.316 Z0.081 </boundaryPoint>)
(<boundaryPoint> X3.233 Y-10.092 Z0.081 </boundaryPoint>)
(<boundaryPoint> X2.659 Y-9.957 Z0.081 </boundaryPoint>)
(<boundaryPoint> X2.024 Y-9.912 Z0.081 </boundaryPoint>)
(<boundaryPoint> X1.425 Y-9.958 Z0.081 </boundaryPoint>)
(<boundaryPoint> X0.877 Y-10.097 Z0.081 </boundaryPoint>)
(<boundaryPoint> X0.378 Y-10.327 Z0.081 </boundaryPoint>)
(<boundaryPoint> X-0.071 Y-10.649 Z0.081 </boundaryPoint>)
(<boundaryPoint> X-0.438 Y-11.046 Z0.081 </boundaryPoint>)
(<boundaryPoint> X-0.7 Y-11.487 Z0.081 </boundaryPoint>)
(<boundaryPoint> X-0.857 Y-11.975 Z0.081 </boundaryPoint>)
(<boundaryPoint> X-0.909 Y-12.507 Z0.081 </boundaryPoint>)
(<boundaryPoint> X-0.857 Y-13.069 Z0.081 </boundaryPoint>)
(<boundaryPoint> X-0.702 Y-13.575 Z0.081 </boundaryPoint>)
(<boundaryPoint> X-0.443 Y-14.027 Z0.081 </boundaryPoint>)
(<boundaryPoint> X-0.08 Y-14.423 Z0.081 </boundaryPoint>)
(<boundaryPoint> X0.372 Y-14.746 Z0.081 </boundaryPoint>)
(<boundaryPoint> X0.881 Y-14.976 Z0.081 </boundaryPoint>)
(<boundaryPoint> X1.448 Y-15.114 Z0.081 </boundaryPoint>)
(<boundaryPoint> X2.072 Y-15.16 Z0.081 </boundaryPoint>)
(<boundaryPoint> X2.695 Y-15.114 Z0.081 </boundaryPoint>)
(<boundaryPoint> X3.262 Y-14.976 Z0.081 </boundaryPoint>)
(<boundaryPoint> X3.771 Y-14.746 Z0.081 </boundaryPoint>)
(<boundaryPoint> X4.224 Y-14.423 Z0.081 </boundaryPoint>)
(<boundaryPoint> X4.582 Y-14.026 Z0.081 </boundaryPoint>)
(<boundaryPoint> X4.838 Y-13.571 Z0.081 </boundaryPoint>)
(<boundaryPoint> X4.992 Y-13.058 Z0.081 </boundaryPoint>)
(<boundaryPoint> X5.043 Y-12.488 Z0.081 </boundaryPoint>)
(<boundaryPoint> X4.99 Y-11.952 Z0.081 </boundaryPoint>)
(<boundaryPoint> X4.831 Y-11.464 Z0.081 </boundaryPoint>)
(<edge> outer )
G1 X0.73 Y-14.69 Z0.08 F3600.0
G1 F1200.0
G1 E47.382
G1 F3600.0
M101
G1 X0.73 Y-14.69 Z0.08 F1080.0 E47.383
G1 X0.95 Y-14.79 Z0.08 F1080.0 E47.395
G1 X1.48 Y-14.92 Z0.08 F1080.0 E47.424
G1 X2.07 Y-14.96 Z0.08 F1080.0 E47.455
G1 X2.66 Y-14.92 Z0.08 F1080.0 E47.487
G1 X3.2 Y-14.79 Z0.08 F1080.0 E47.516
G1 X3.67 Y-14.57 Z0.08 F1080.0 E47.543
G1 X4.09 Y-14.27 Z0.08 F1080.0 E47.57
G1 X4.42 Y-13.91 Z0.08 F1080.0 E47.596
G1 X4.65 Y-13.49 Z0.08 F1080.0 E47.622
G1 X4.79 Y-13.02 Z0.08 F1080.0 E47.648
G1 X4.84 Y-12.49 Z0.08 F1080.0 E47.676
G1 X4.79 Y-11.99 Z0.08 F1080.0 E47.702
G1 X4.65 Y-11.55 Z0.08 F1080.0 E47.727
G1 X4.41 Y-11.14 Z0.08 F1080.0 E47.752
G1 X4.06 Y-10.78 Z0.08 F1080.0 E47.778
G1 X3.65 Y-10.49 Z0.08 F1080.0 E47.805
G1 X3.17 Y-10.28 Z0.08 F1080.0 E47.832
G1 X2.63 Y-10.15 Z0.08 F1080.0 E47.862
G1 X2.02 Y-10.11 Z0.08 F1080.0 E47.894
G1 X1.46 Y-10.16 Z0.08 F1080.0 E47.924
G1 X0.94 Y-10.29 Z0.08 F1080.0 E47.952
G1 X0.48 Y-10.5 Z0.08 F1080.0 E47.979
G1 X0.06 Y-10.8 Z0.08 F1080.0 E48.006
G1 X-0.28 Y-11.17 Z0.08 F1080.0 E48.032
G1 X-0.52 Y-11.57 Z0.08 F1080.0 E48.057
G1 X-0.66 Y-12.02 Z0.08 F1080.0 E48.082
G1 X-0.71 Y-12.51 Z0.08 F1080.0 E48.108
G1 X-0.66 Y-13.03 Z0.08 F1080.0 E48.136
G1 X-0.52 Y-13.49 Z0.08 F1080.0 E48.161
G1 X-0.28 Y-13.91 Z0.08 F1080.0 E48.186
G1 X0.05 Y-14.27 Z0.08 F1080.0 E48.213
G1 X0.47 Y-14.57 Z0.08 F1080.0 E48.24
G1 X0.73 Y-14.69 Z0.08 F1080.0 E48.255
G1 F1200.0
G1 E48.255
G1 F1080.0
M103
(</edge>)
(</boundaryPerimeter>)
(<loop> outer )
;M108 R32.0
G1 X1.2 Y-14.02 Z0.08 F3600.0
G1 F1200.0
G1 E48.255
G1 F3600.0
M101
G1 X1.21 Y-14.03 Z0.08 F2160.0 E48.255
G1 X1.6 Y-14.12 Z0.08 F2160.0 E48.274
G1 X2.07 Y-14.16 Z0.08 F2160.0 E48.296
G1 X2.54 Y-14.12 Z0.08 F2160.0 E48.318
G1 X2.94 Y-14.03 Z0.08 F2160.0 E48.337
G1 X3.27 Y-13.88 Z0.08 F2160.0 E48.354
G1 X3.56 Y-13.67 Z0.08 F2160.0 E48.371
G1 X3.77 Y-13.44 Z0.08 F2160.0 E48.386
G1 X3.91 Y-13.18 Z0.08 F2160.0 E48.4
G1 X4.0 Y-12.87 Z0.08 F2160.0 E48.415
G1 X4.04 Y-12.49 Z0.08 F2160.0 E48.433
G1 X4.01 Y-12.16 Z0.08 F2160.0 E48.448
G1 X3.92 Y-11.88 Z0.08 F2160.0 E48.462
G1 X3.77 Y-11.63 Z0.08 F2160.0 E48.476
G1 X3.54 Y-11.39 Z0.08 F2160.0 E48.491
G1 X3.25 Y-11.19 Z0.08 F2160.0 E48.507
G1 X2.92 Y-11.04 Z0.08 F2160.0 E48.525
G1 X2.51 Y-10.95 Z0.08 F2160.0 E48.544
G1 X2.03 Y-10.91 Z0.08 F2160.0 E48.567
G1 X1.59 Y-10.95 Z0.08 F2160.0 E48.588
G1 X1.21 Y-11.04 Z0.08 F2160.0 E48.606
G1 X0.88 Y-11.2 Z0.08 F2160.0 E48.623
G1 X0.59 Y-11.4 Z0.08 F2160.0 E48.64
G1 X0.37 Y-11.65 Z0.08 F2160.0 E48.655
G1 X0.22 Y-11.9 Z0.08 F2160.0 E48.669
G1 X0.13 Y-12.18 Z0.08 F2160.0 E48.683
G1 X0.1 Y-12.51 Z0.08 F2160.0 E48.699
G1 X0.13 Y-12.87 Z0.08 F2160.0 E48.716
G1 X0.22 Y-13.18 Z0.08 F2160.0 E48.731
G1 X0.37 Y-13.43 Z0.08 F2160.0 E48.744
G1 X0.59 Y-13.67 Z0.08 F2160.0 E48.76
G1 X0.87 Y-13.88 Z0.08 F2160.0 E48.776
G1 X1.2 Y-14.02 Z0.08 F2160.0 E48.793
G1 F1200.0
G1 E48.793
G1 F2160.0
M103
(</loop>)
(<loop> outer )
G1 X1.07 Y-14.4 Z0.08 F3600.0
G1 F1200.0
G1 E48.793
G1 F3600.0
M101
G1 X1.08 Y-14.41 Z0.08 F2160.0 E48.793
G1 X1.54 Y-14.52 Z0.08 F2160.0 E48.816
G1 X2.07 Y-14.56 Z0.08 F2160.0 E48.841
G1 X2.6 Y-14.52 Z0.08 F2160.0 E48.866
G1 X3.07 Y-14.41 Z0.08 F2160.0 E48.888
G1 X3.47 Y-14.22 Z0.08 F2160.0 E48.909
G1 X3.82 Y-13.97 Z0.08 F2160.0 E48.929
G1 X4.09 Y-13.67 Z0.08 F2160.0 E48.948
G1 X4.28 Y-13.34 Z0.08 F2160.0 E48.966
G1 X4.4 Y-12.94 Z0.08 F2160.0 E48.986
G1 X4.44 Y-12.49 Z0.08 F2160.0 E49.007
G1 X4.4 Y-12.08 Z0.08 F2160.0 E49.027
G1 X4.28 Y-11.71 Z0.08 F2160.0 E49.044
G1 X4.08 Y-11.39 Z0.08 F2160.0 E49.062
G1 X3.8 Y-11.09 Z0.08 F2160.0 E49.082
G1 X3.45 Y-10.84 Z0.08 F2160.0 E49.102
G1 X3.04 Y-10.66 Z0.08 F2160.0 E49.123
G1 X2.57 Y-10.55 Z0.08 F2160.0 E49.146
G1 X2.03 Y-10.51 Z0.08 F2160.0 E49.171
G1 X1.52 Y-10.55 Z0.08 F2160.0 E49.195
G1 X1.08 Y-10.66 Z0.08 F2160.0 E49.216
G1 X0.68 Y-10.85 Z0.08 F2160.0 E49.237
G1 X0.33 Y-11.1 Z0.08 F2160.0 E49.257
G1 X0.05 Y-11.41 Z0.08 F2160.0 E49.277
G1 X-0.15 Y-11.73 Z0.08 F2160.0 E49.295
G1 X-0.27 Y-12.1 Z0.08 F2160.0 E49.313
G1 X-0.31 Y-12.51 Z0.08 F2160.0 E49.332
G1 X-0.27 Y-12.95 Z0.08 F2160.0 E49.353
G1 X-0.15 Y-13.34 Z0.08 F2160.0 E49.372
G1 X0.04 Y-13.67 Z0.08 F2160.0 E49.39
G1 X0.32 Y-13.97 Z0.08 F2160.0 E49.409
G1 X0.67 Y-14.22 Z0.08 F2160.0 E49.429
G1 X1.07 Y-14.4 Z0.08 F2160.0 E49.45
G1 F1200.0
G1 E48.45
G1 F2160.0
M103
(</loop>)
(<infill>)
G1 X3.6 Y-11.9 Z0.08 F3600.0
G1 F1200.0
G1 E49.45
G1 F3600.0
M101
G1 X3.6 Y-13.16 Z0.08 F2160.0 E49.509
G1 X3.2 Y-13.58 Z0.08 F2160.0 E49.536
G1 X3.2 Y-11.5 Z0.08 F2160.0 E49.634
G1 X2.8 Y-11.3 Z0.08 F2160.0 E49.655
G1 X2.8 Y-13.77 Z0.08 F2160.0 E49.771
G1 X2.4 Y-13.85 Z0.08 F2160.0 E49.79
G1 X2.4 Y-11.22 Z0.08 F2160.0 E49.914
G1 X2.0 Y-11.2 Z0.08 F2160.0 E49.932
G1 X2.0 Y-13.87 Z0.08 F2160.0 E50.058
G1 X1.6 Y-13.83 Z0.08 F2160.0 E50.077
G1 X1.6 Y-11.23 Z0.08 F2160.0 E50.199
G1 X1.2 Y-11.36 Z0.08 F2160.0 E50.218
G1 X1.2 Y-13.72 Z0.08 F2160.0 E50.329
G1 X0.8 Y-13.48 Z0.08 F2160.0 E50.351
G1 X0.8 Y-11.6 Z0.08 F2160.0 E50.439
G1 X0.4 Y-12.27 Z0.08 F2160.0 E50.476
G1 X0.4 Y-12.76 Z0.08 F2160.0 E50.499
G1 F1200.0
G1 E49.499
G1 F2160.0
M103
(</infill>)
(</nestedRing>)
(</nestedRing>)
(<nestedRing>)
(<boundaryPerimeter>)
(<boundaryPoint> X-0.09 Y-3.821 Z0.081 </boundaryPoint>)
(<boundaryPoint> X-0.587 Y-4.367 Z0.081 </boundaryPoint>)
(<boundaryPoint> X-0.752 Y-5.132 Z0.081 </boundaryPoint>)
(<boundaryPoint> X-0.725 Y-5.423 Z0.081 </boundaryPoint>)
(<boundaryPoint> X-0.643 Y-5.718 Z0.081 </boundaryPoint>)
(<boundaryPoint> X-0.506 Y-6.017 Z0.081 </boundaryPoint>)
(<boundaryPoint> X-0.314 Y-6.319 Z0.081 </boundaryPoint>)
(<boundaryPoint> X-2.276 Y-7.298 Z0.081 </boundaryPoint>)
(<boundaryPoint> X-2.518 Y-6.842 Z0.081 </boundaryPoint>)
(<boundaryPoint> X-2.691 Y-6.395 Z0.081 </boundaryPoint>)
(<boundaryPoint> X-2.795 Y-5.958 Z0.081 </boundaryPoint>)
(<boundaryPoint> X-2.829 Y-5.531 Z0.081 </boundaryPoint>)
(<boundaryPoint> X-2.77 Y-4.937 Z0.081 </boundaryPoint>)
(<boundaryPoint> X-2.696 Y-4.672 Z0.081 </boundaryPoint>)
(<boundaryPoint> X-2.592 Y-4.429 Z0.081 </boundaryPoint>)
(<boundaryPoint> X-2.454 Y-4.192 Z0.081 </boundaryPoint>)
(<boundaryPoint> X-2.031 Y-3.67 Z0.081 </boundaryPoint>)
(<boundaryPoint> X-2.213 Y-3.384 Z0.081 </boundaryPoint>)
(<boundaryPoint> X-2.573 Y-3.384 Z0.081 </boundaryPoint>)
(<boundaryPoint> X-2.573 Y-1.208 Z0.081 </boundaryPoint>)
(<boundaryPoint> X6.707 Y-1.208 Z0.081 </boundaryPoint>)
(<boundaryPoint> X6.707 Y-3.384 Z0.081 </boundaryPoint>)
(<boundaryPoint> X1.896 Y-3.384 Z0.081 </boundaryPoint>)
(<boundaryPoint> X0.737 Y-3.493 Z0.081 </boundaryPoint>)
(<edge> inner )
;M108 R18.0
G1 X-2.36 Y-7.56 Z0.08 F3600.0
G1 F1200.0
G1 E50.499
G1 F3600.0
M101
G1 X-2.36 Y-7.56 Z0.08 F1080.0 E50.499
G1 X-2.7 Y-6.92 Z0.08 F1080.0 E50.538
G1 X-2.88 Y-6.46 Z0.08 F1080.0 E50.564
G1 X-2.99 Y-5.99 Z0.08 F1080.0 E50.589
G1 X-3.03 Y-5.53 Z0.08 F1080.0 E50.614
G1 X-2.97 Y-4.9 Z0.08 F1080.0 E50.647
G1 X-2.88 Y-4.61 Z0.08 F1080.0 E50.663
G1 X-2.77 Y-4.34 Z0.08 F1080.0 E50.679
G1 X-2.62 Y-4.08 Z0.08 F1080.0 E50.695
G1 X-2.28 Y-3.66 Z0.08 F1080.0 E50.723
G1 X-2.32 Y-3.58 Z0.08 F1080.0 E50.728
G1 X-2.77 Y-3.58 Z0.08 F1080.0 E50.752
G1 X-2.77 Y-1.01 Z0.08 F1080.0 E50.888
G1 X6.91 Y-1.01 Z0.08 F1080.0 E51.399
G1 X6.91 Y-3.58 Z0.08 F1080.0 E51.535
G1 X1.91 Y-3.58 Z0.08 F1080.0 E51.799
G1 X0.78 Y-3.69 Z0.08 F1080.0 E51.859
G1 X0.03 Y-3.99 Z0.08 F1080.0 E51.902
G1 X-0.4 Y-4.46 Z0.08 F1080.0 E51.936
G1 X-0.55 Y-5.14 Z0.08 F1080.0 E51.972
G1 X-0.53 Y-5.39 Z0.08 F1080.0 E51.985
G1 X-0.46 Y-5.65 Z0.08 F1080.0 E52.0
G1 X-0.33 Y-5.92 Z0.08 F1080.0 E52.015
G1 X-0.03 Y-6.4 Z0.08 F1080.0 E52.045
G1 X-2.36 Y-7.56 Z0.08 F1080.0 E52.183
G1 F1200.0
G1 E51.183
G1 F1080.0
M103
(</edge>)
(</boundaryPerimeter>)
(</nestedRing>)
(<nestedRing>)
(<boundaryPerimeter>)
(<boundaryPoint> X-2.573 Y1.747 Z0.081 </boundaryPoint>)
(<boundaryPoint> X-5.965 Y1.747 Z0.081 </boundaryPoint>)
(<boundaryPoint> X-5.965 Y3.923 Z0.081 </boundaryPoint>)
(<boundaryPoint> X-2.573 Y3.923 Z0.081 </boundaryPoint>)
(<boundaryPoint> X-2.573 Y4.835 Z0.081 </boundaryPoint>)
(<boundaryPoint> X-0.589 Y4.835 Z0.081 </boundaryPoint>)
(<boundaryPoint> X-0.589 Y3.923 Z0.081 </boundaryPoint>)
(<boundaryPoint> X6.707 Y3.923 Z0.081 </boundaryPoint>)
(<boundaryPoint> X6.707 Y1.747 Z0.081 </boundaryPoint>)
(<boundaryPoint> X-0.589 Y1.747 Z0.081 </boundaryPoint>)
(<boundaryPoint> X-0.589 Y0.084 Z0.081 </boundaryPoint>)
(<boundaryPoint> X-2.573 Y0.084 Z0.081 </boundaryPoint>)
(<edge> inner )
G1 X-2.88 Y-7.01 Z0.08 F3600.0
G1 X-2.77 Y-3.58 Z0.08 F3600.0
G1 X-2.77 Y-1.01 Z0.08 F3600.0
G1 X-2.35 Y-0.12 Z0.08 F3600.0
G1 F1200.0
G1 E52.183
G1 F3600.0
M101
G1 X-2.36 Y-0.12 Z0.08 F1080.0 E52.183
G1 X-2.77 Y-0.12 Z0.08 F1080.0 E52.205
G1 X-2.77 Y1.55 Z0.08 F1080.0 E52.293
G1 X-6.17 Y1.55 Z0.08 F1080.0 E52.472
G1 X-6.17 Y4.12 Z0.08 F1080.0 E52.608
G1 X-2.77 Y4.12 Z0.08 F1080.0 E52.787
G1 X-2.77 Y5.04 Z0.08 F1080.0 E52.836
G1 X-0.39 Y5.04 Z0.08 F1080.0 E52.961
G1 X-0.39 Y4.12 Z0.08 F1080.0 E53.01
G1 X6.91 Y4.12 Z0.08 F1080.0 E53.395
G1 X6.91 Y1.55 Z0.08 F1080.0 E53.531
G1 X-0.39 Y1.55 Z0.08 F1080.0 E53.917
G1 X-0.39 Y-0.12 Z0.08 F1080.0 E54.004
G1 X-2.35 Y-0.12 Z0.08 F1080.0 E54.108
G1 F1200.0
G1 E53.108
G1 F1080.0
M103
(</edge>)
(</boundaryPerimeter>)
(</nestedRing>)
(<nestedRing>)
(<boundaryPerimeter>)
(<boundaryPoint> X6.176 Y8.305 Z0.081 </boundaryPoint>)
(<boundaryPoint> X5.564 Y7.543 Z0.081 </boundaryPoint>)
(<boundaryPoint> X4.818 Y6.916 Z0.081 </boundaryPoint>)
(<boundaryPoint> X3.987 Y6.469 Z0.081 </boundaryPoint>)
(<boundaryPoint> X3.072 Y6.2 Z0.081 </boundaryPoint>)
(<boundaryPoint> X2.072 Y6.111 Z0.081 </boundaryPoint>)
(<boundaryPoint> X1.08 Y6.2 Z0.081 </boundaryPoint>)
(<boundaryPoint> X0.169 Y6.466 Z0.081 </boundaryPoint>)
(<boundaryPoint> X-0.662 Y6.911 Z0.081 </boundaryPoint>)
(<boundaryPoint> X-1.411 Y7.534 Z0.081 </boundaryPoint>)
(<boundaryPoint> X-2.031 Y8.294 Z0.081 </boundaryPoint>)
(<boundaryPoint> X-2.475 Y9.132 Z0.081 </boundaryPoint>)
(<boundaryPoint> X-2.74 Y10.049 Z0.081 </boundaryPoint>)
(<boundaryPoint> X-2.829 Y11.044 Z0.081 </boundaryPoint>)
(<boundaryPoint> X-2.741 Y12.034 Z0.081 </boundaryPoint>)
(<boundaryPoint> X-2.477 Y12.945 Z0.081 </boundaryPoint>)
(<boundaryPoint> X-2.037 Y13.779 Z0.081 </boundaryPoint>)
(<boundaryPoint> X-1.42 Y14.535 Z0.081 </boundaryPoint>)
(<boundaryPoint> X-0.679 Y15.161 Z0.081 </boundaryPoint>)
(<boundaryPoint> X0.138 Y15.609 Z0.081 </boundaryPoint>)
(<boundaryPoint> X1.029 Y15.877 Z0.081 </boundaryPoint>)
(<boundaryPoint> X1.996 Y15.967 Z0.081 </boundaryPoint>)
(<boundaryPoint> X3.016 Y15.879 Z0.081 </boundaryPoint>)
(<boundaryPoint> X3.946 Y15.616 Z0.081 </boundaryPoint>)
(<boundaryPoint> X4.786 Y15.177 Z0.081 </boundaryPoint>)
(<boundaryPoint> X5.536 Y14.563 Z0.081 </boundaryPoint>)
(<boundaryPoint> X6.16 Y13.819 Z0.081 </boundaryPoint>)
(<boundaryPoint> X6.606 Y12.99 Z0.081 </boundaryPoint>)
(<boundaryPoint> X6.874 Y12.078 Z0.081 </boundaryPoint>)
(<boundaryPoint> X6.963 Y11.082 Z0.081 </boundaryPoint>)
(<boundaryPoint> X6.875 Y10.074 Z0.081 </boundaryPoint>)
(<boundaryPoint> X6.613 Y9.148 Z0.081 </boundaryPoint>)
(<edge> inner )
G1 X-6.17 Y1.55 Z0.08 F3600.0
G1 X-6.17 Y4.12 Z0.08 F3600.0
G1 X-2.77 Y5.04 Z0.08 F3600.0
G1 X0.1 Y6.28 Z0.08 F3600.0
G1 F1200.0
G1 E54.108
G1 F3600.0
M101
G1 X0.09 Y6.28 Z0.08 F1080.0 E54.109
G1 X-0.77 Y6.74 Z0.08 F1080.0 E54.16
G1 X-1.55 Y7.39 Z0.08 F1080.0 E54.214
G1 X-2.2 Y8.18 Z0.08 F1080.0 E54.268
G1 X-2.66 Y9.06 Z0.08 F1080.0 E54.32
G1 X-2.94 Y10.01 Z0.08 F1080.0 E54.373
G1 X-3.03 Y11.04 Z0.08 F1080.0 E54.427
G1 X-2.94 Y12.07 Z0.08 F1080.0 E54.482
G1 X-2.66 Y13.02 Z0.08 F1080.0 E54.534
G1 X-2.21 Y13.89 Z0.08 F1080.0 E54.586
G1 X-1.56 Y14.68 Z0.08 F1080.0 E54.64
G1 X-0.79 Y15.33 Z0.08 F1080.0 E54.693
G1 X0.06 Y15.79 Z0.08 F1080.0 E54.744
G1 X0.99 Y16.07 Z0.08 F1080.0 E54.796
G1 X2.0 Y16.17 Z0.08 F1080.0 E54.849
G1 X3.05 Y16.08 Z0.08 F1080.0 E54.905
G1 X4.02 Y15.8 Z0.08 F1080.0 E54.958
G1 X4.9 Y15.35 Z0.08 F1080.0 E55.01
G1 X5.68 Y14.71 Z0.08 F1080.0 E55.064
G1 X6.33 Y13.93 Z0.08 F1080.0 E55.117
G1 X6.79 Y13.07 Z0.08 F1080.0 E55.169
G1 X7.07 Y12.12 Z0.08 F1080.0 E55.221
G1 X7.16 Y11.08 Z0.08 F1080.0 E55.276
G1 X7.07 Y10.04 Z0.08 F1080.0 E55.331
G1 X6.8 Y9.07 Z0.08 F1080.0 E55.384
G1 X6.34 Y8.2 Z0.08 F1080.0 E55.437
G1 X5.71 Y7.4 Z0.08 F1080.0 E55.49
G1 X4.93 Y6.75 Z0.08 F1080.0 E55.544
G1 X4.06 Y6.28 Z0.08 F1080.0 E55.596
G1 X3.11 Y6.0 Z0.08 F1080.0 E55.649
G1 X2.07 Y5.91 Z0.08 F1080.0 E55.704
G1 X1.04 Y6.0 Z0.08 F1080.0 E55.758
G1 X0.1 Y6.28 Z0.08 F1080.0 E55.81
G1 F1200.0
G1 E54.81
G1 F1080.0
M103
(</edge>)
(</boundaryPerimeter>)
(<nestedRing>)
(<boundaryPerimeter>)
(<boundaryPoint> X4.582 Y12.639 Z0.081 </boundaryPoint>)
(<boundaryPoint> X4.224 Y13.05 Z0.081 </boundaryPoint>)
(<boundaryPoint> X3.783 Y13.374 Z0.081 </boundaryPoint>)
(<boundaryPoint> X3.269 Y13.605 Z0.081 </boundaryPoint>)
(<boundaryPoint> X2.683 Y13.744 Z0.081 </boundaryPoint>)
(<boundaryPoint> X2.024 Y13.791 Z0.081 </boundaryPoint>)
(<boundaryPoint> X1.406 Y13.743 Z0.081 </boundaryPoint>)
(<boundaryPoint> X0.848 Y13.601 Z0.081 </boundaryPoint>)
(<boundaryPoint> X0.349 Y13.363 Z0.081 </boundaryPoint>)
(<boundaryPoint> X-0.09 Y13.031 Z0.081 </boundaryPoint>)
(<boundaryPoint> X-0.448 Y12.621 Z0.081 </boundaryPoint>)
(<boundaryPoint> X-0.704 Y12.153 Z0.081 </boundaryPoint>)
(<boundaryPoint> X-0.858 Y11.628 Z0.081 </boundaryPoint>)
(<boundaryPoint> X-0.909 Y11.044 Z0.081 </boundaryPoint>)
(<boundaryPoint> X-0.858 Y10.451 Z0.081 </boundaryPoint>)
(<boundaryPoint> X-0.704 Y9.919 Z0.081 </boundaryPoint>)
(<boundaryPoint> X-0.448 Y9.448 Z0.081 </boundaryPoint>)
(<boundaryPoint> X-0.09 Y9.038 Z0.081 </boundaryPoint>)
(<boundaryPoint> X0.348 Y8.709 Z0.081 </boundaryPoint>)
(<boundaryPoint> X0.855 Y8.474 Z0.081 </boundaryPoint>)
(<boundaryPoint> X1.429 Y8.334 Z0.081 </boundaryPoint>)
(<boundaryPoint> X2.072 Y8.287 Z0.081 </boundaryPoint>)
(<boundaryPoint> X2.714 Y8.334 Z0.081 </boundaryPoint>)
(<boundaryPoint> X3.288 Y8.474 Z0.081 </boundaryPoint>)
(<boundaryPoint> X3.795 Y8.709 Z0.081 </boundaryPoint>)
(<boundaryPoint> X4.234 Y9.038 Z0.081 </boundaryPoint>)
(<boundaryPoint> X4.588 Y9.445 Z0.081 </boundaryPoint>)
(<boundaryPoint> X4.841 Y9.915 Z0.081 </boundaryPoint>)
(<boundaryPoint> X4.992 Y10.448 Z0.081 </boundaryPoint>)
(<boundaryPoint> X5.043 Y11.044 Z0.081 </boundaryPoint>)
(<boundaryPoint> X4.992 Y11.636 Z0.081 </boundaryPoint>)
(<boundaryPoint> X4.838 Y12.168 Z0.081 </boundaryPoint>)
(<edge> outer )
G1 X0.92 Y8.67 Z0.08 F3600.0
G1 F1200.0
G1 E55.81
G1 F3600.0
M101
G1 X0.92 Y8.66 Z0.08 F1080.0 E55.81
G1 X1.46 Y8.53 Z0.08 F1080.0 E55.84
G1 X2.07 Y8.49 Z0.08 F1080.0 E55.872
G1 X2.68 Y8.53 Z0.08 F1080.0 E55.904
G1 X3.22 Y8.66 Z0.08 F1080.0 E55.934
G1 X3.69 Y8.88 Z0.08 F1080.0 E55.961
G1 X4.1 Y9.19 Z0.08 F1080.0 E55.988
G1 X4.42 Y9.56 Z0.08 F1080.0 E56.014
G1 X4.66 Y9.99 Z0.08 F1080.0 E56.04
G1 X4.79 Y10.48 Z0.08 F1080.0 E56.067
G1 X4.84 Y11.04 Z0.08 F1080.0 E56.097
G1 X4.79 Y11.6 Z0.08 F1080.0 E56.126
G1 X4.65 Y12.09 Z0.08 F1080.0 E56.153
G1 X4.42 Y12.52 Z0.08 F1080.0 E56.179
G1 X4.09 Y12.9 Z0.08 F1080.0 E56.206
G1 X3.68 Y13.2 Z0.08 F1080.0 E56.232
G1 X3.2 Y13.41 Z0.08 F1080.0 E56.26
G1 X2.65 Y13.55 Z0.08 F1080.0 E56.29
G1 X2.02 Y13.59 Z0.08 F1080.0 E56.323
G1 X1.44 Y13.54 Z0.08 F1080.0 E56.354
G1 X0.92 Y13.41 Z0.08 F1080.0 E56.383
G1 X0.45 Y13.19 Z0.08 F1080.0 E56.41
G1 X0.05 Y12.88 Z0.08 F1080.0 E56.437
G1 X-0.28 Y12.51 Z0.08 F1080.0 E56.463
G1 X-0.52 Y12.08 Z0.08 F1080.0 E56.489
G1 X-0.66 Y11.59 Z0.08 F1080.0 E56.516
G1 X-0.71 Y11.04 Z0.08 F1080.0 E56.545
G1 X-0.66 Y10.49 Z0.08 F1080.0 E56.574
G1 X-0.52 Y9.99 Z0.08 F1080.0 E56.601
G1 X-0.28 Y9.56 Z0.08 F1080.0 E56.627
G1 X0.05 Y9.19 Z0.08 F1080.0 E56.654
G1 X0.45 Y8.88 Z0.08 F1080.0 E56.681
G1 X0.92 Y8.67 Z0.08 F1080.0 E56.708
G1 F1200.0
G1 E56.708
G1 F1080.0
M103
(</edge>)
(</boundaryPerimeter>)
(<loop> outer )
;M108 R32.0
G1 X1.18 Y9.42 Z0.08 F3600.0
G1 F1200.0
G1 E56.708
G1 F3600.0
M101
G1 X1.19 Y9.42 Z0.08 F2160.0 E56.708
G1 X1.58 Y9.32 Z0.08 F2160.0 E56.727
G1 X2.07 Y9.29 Z0.08 F2160.0 E56.75
G1 X2.56 Y9.32 Z0.08 F2160.0 E56.773
G1 X2.96 Y9.42 Z0.08 F2160.0 E56.792
G1 X3.28 Y9.57 Z0.08 F2160.0 E56.809
G1 X3.55 Y9.77 Z0.08 F2160.0 E56.825
G1 X3.76 Y10.02 Z0.08 F2160.0 E56.84
G1 X3.91 Y10.29 Z0.08 F2160.0 E56.855
G1 X4.0 Y10.63 Z0.08 F2160.0 E56.871
G1 X4.04 Y11.04 Z0.08 F2160.0 E56.89
G1 X4.0 Y11.45 Z0.08 F2160.0 E56.91
G1 X3.91 Y11.79 Z0.08 F2160.0 E56.926
G1 X3.76 Y12.06 Z0.08 F2160.0 E56.941
G1 X3.54 Y12.31 Z0.08 F2160.0 E56.956
G1 X3.28 Y12.51 Z0.08 F2160.0 E56.972
G1 X2.95 Y12.65 Z0.08 F2160.0 E56.989
G1 X2.53 Y12.75 Z0.08 F2160.0 E57.009
G1 X2.03 Y12.79 Z0.08 F2160.0 E57.032
G1 X1.57 Y12.75 Z0.08 F2160.0 E57.054
G1 X1.19 Y12.66 Z0.08 F2160.0 E57.072
G1 X0.87 Y12.5 Z0.08 F2160.0 E57.089
G1 X0.59 Y12.3 Z0.08 F2160.0 E57.105
G1 X0.38 Y12.04 Z0.08 F2160.0 E57.121
G1 X0.23 Y11.77 Z0.08 F2160.0 E57.136
G1 X0.13 Y11.44 Z0.08 F2160.0 E57.152
G1 X0.1 Y11.04 Z0.08 F2160.0 E57.17
G1 X0.13 Y10.63 Z0.08 F2160.0 E57.19
G1 X0.23 Y10.3 Z0.08 F2160.0 E57.206
G1 X0.38 Y10.02 Z0.08 F2160.0 E57.221
G1 X0.59 Y9.78 Z0.08 F2160.0 E57.236
G1 X0.86 Y9.57 Z0.08 F2160.0 E57.252
G1 X1.18 Y9.42 Z0.08 F2160.0 E57.269
G1 F1200.0
G1 E57.269
G1 F2160.0
M103
(</loop>)
(<loop> outer )
G1 X1.05 Y9.04 Z0.08 F3600.0
G1 F1200.0
G1 E57.269
G1 F3600.0
M101
G1 X1.05 Y9.04 Z0.08 F2160.0 E57.269
G1 X1.52 Y8.93 Z0.08 F2160.0 E57.292
G1 X2.07 Y8.89 Z0.08 F2160.0 E57.317
G1 X2.62 Y8.93 Z0.08 F2160.0 E57.343
G1 X3.09 Y9.04 Z0.08 F2160.0 E57.366
G1 X3.49 Y9.23 Z0.08 F2160.0 E57.386
G1 X3.82 Y9.48 Z0.08 F2160.0 E57.406
G1 X4.09 Y9.79 Z0.08 F2160.0 E57.425
G1 X4.28 Y10.14 Z0.08 F2160.0 E57.444
G1 X4.4 Y10.56 Z0.08 F2160.0 E57.464
G1 X4.44 Y11.04 Z0.08 F2160.0 E57.487
G1 X4.4 Y11.53 Z0.08 F2160.0 E57.51
G1 X4.28 Y11.94 Z0.08 F2160.0 E57.53
G1 X4.09 Y12.29 Z0.08 F2160.0 E57.549
G1 X3.81 Y12.61 Z0.08 F2160.0 E57.569
G1 X3.48 Y12.85 Z0.08 F2160.0 E57.588
G1 X3.08 Y13.03 Z0.08 F2160.0 E57.609
G1 X2.59 Y13.15 Z0.08 F2160.0 E57.632
G1 X2.03 Y13.19 Z0.08 F2160.0 E57.659
G1 X1.5 Y13.15 Z0.08 F2160.0 E57.684
G1 X1.05 Y13.03 Z0.08 F2160.0 E57.705
G1 X0.66 Y12.85 Z0.08 F2160.0 E57.726
G1 X0.32 Y12.59 Z0.08 F2160.0 E57.746
G1 X0.05 Y12.28 Z0.08 F2160.0 E57.765
G1 X-0.15 Y11.92 Z0.08 F2160.0 E57.784
G1 X-0.27 Y11.52 Z0.08 F2160.0 E57.804
G1 X-0.31 Y11.04 Z0.08 F2160.0 E57.827
G1 X-0.27 Y10.56 Z0.08 F2160.0 E57.849
G1 X-0.15 Y10.15 Z0.08 F2160.0 E57.869
G1 X0.05 Y9.79 Z0.08 F2160.0 E57.888
G1 X0.32 Y9.48 Z0.08 F2160.0 E57.908
G1 X0.66 Y9.23 Z0.08 F2160.0 E57.928
G1 X1.05 Y9.04 Z0.08 F2160.0 E57.948
G1 F1200.0
G1 E57.088
G1 F2160.0
M103
(</loop>)
(<infill>)
G1 X2.8 Y9.67 Z0.08 F3600.0
G1 F1200.0
G1 E57.948
G1 F3600.0
M101
G1 X2.8 Y12.4 Z0.08 F2160.0 E58.076
G1 X2.4 Y12.48 Z0.08 F2160.0 E58.095
G1 X2.4 Y9.59 Z0.08 F2160.0 E58.231
G1 X2.0 Y9.58 Z0.08 F2160.0 E58.25
G1 X2.0 Y12.51 Z0.08 F2160.0 E58.387
G1 X1.6 Y12.47 Z0.08 F2160.0 E58.406
G1 X1.6 Y9.61 Z0.08 F2160.0 E58.54
G1 X1.2 Y9.72 Z0.08 F2160.0 E58.56
G1 X1.2 Y12.35 Z0.08 F2160.0 E58.683
G1 X0.8 Y12.1 Z0.08 F2160.0 E58.705
G1 X0.8 Y9.97 Z0.08 F2160.0 E58.805
G1 F1200.0
G1 E58.805
G1 F2160.0
M103
G1 X0.4 Y10.76 Z0.08 F3600.0
G1 F1200.0
G1 E58.805
G1 F3600.0
M101
G1 X0.4 Y11.32 Z0.08 F2160.0 E58.832
G1 F1200.0
G1 E57.832
G1 F2160.0
M103
G1 X3.2 Y12.21 Z0.08 F3600.0
G1 F1200.0
G1 E58.832
G1 F3600.0
M101
G1 X3.2 Y9.86 Z0.08 F2160.0 E58.942
G1 X3.6 Y10.31 Z0.08 F2160.0 E58.97
G1 X3.6 Y11.77 Z0.08 F2160.0 E59.039
G1 F1200.0
G1 E58.039
G1 F2160.0
M103
(</infill>)
(</nestedRing>)
(</nestedRing>)
(<nestedRing>)
(<boundaryPerimeter>)
(<boundaryPoint> X6.182 Y19.411 Z0.081 </boundaryPoint>)
(<boundaryPoint> X5.574 Y18.751 Z0.081 </boundaryPoint>)
(<boundaryPoint> X4.828 Y18.205 Z0.081 </boundaryPoint>)
(<boundaryPoint> X3.989 Y17.815 Z0.081 </boundaryPoint>)
(<boundaryPoint> X3.058 Y17.581 Z0.081 </boundaryPoint>)
(<boundaryPoint> X2.034 Y17.503 Z0.081 </boundaryPoint>)
(<boundaryPoint> X1.039 Y17.581 Z0.081 </boundaryPoint>)
(<boundaryPoint> X0.13 Y17.815 Z0.081 </boundaryPoint>)
(<boundaryPoint> X-0.693 Y18.204 Z0.081 </boundaryPoint>)
(<boundaryPoint> X-1.43 Y18.748 Z0.081 </boundaryPoint>)
(<boundaryPoint> X-2.042 Y19.41 Z0.081 </boundaryPoint>)
(<boundaryPoint> X-2.479 Y20.15 Z0.081 </boundaryPoint>)
(<boundaryPoint> X-2.742 Y20.969 Z0.081 </boundaryPoint>)
(<boundaryPoint> X-2.829 Y21.865 Z0.081 </boundaryPoint>)
(<boundaryPoint> X-2.746 Y22.656 Z0.081 </boundaryPoint>)
(<boundaryPoint> X-2.497 Y23.405 Z0.081 </boundaryPoint>)
(<boundaryPoint> X-2.081 Y24.11 Z0.081 </boundaryPoint>)
(<boundaryPoint> X-1.736 Y24.502 Z0.081 </boundaryPoint>)
(<boundaryPoint> X-1.859 Y24.773 Z0.081 </boundaryPoint>)
(<boundaryPoint> X-9.357 Y24.773 Z0.081 </boundaryPoint>)
(<boundaryPoint> X-9.357 Y26.911 Z0.081 </boundaryPoint>)
(<boundaryPoint> X6.707 Y26.911 Z0.081 </boundaryPoint>)
(<boundaryPoint> X6.707 Y24.735 Z0.081 </boundaryPoint>)
(<boundaryPoint> X6.098 Y24.735 Z0.081 </boundaryPoint>)
(<boundaryPoint> X6.045 Y24.364 Z0.081 </boundaryPoint>)
(<boundaryPoint> X6.274 Y24.086 Z0.081 </boundaryPoint>)
(<boundaryPoint> X6.657 Y23.393 Z0.081 </boundaryPoint>)
(<boundaryPoint> X6.886 Y22.658 Z0.081 </boundaryPoint>)
(<boundaryPoint> X6.963 Y21.88 Z0.081 </boundaryPoint>)
(<boundaryPoint> X6.876 Y20.976 Z0.081 </boundaryPoint>)
(<boundaryPoint> X6.616 Y20.153 Z0.081 </boundaryPoint>)
(<edge> inner )
;M108 R18.0
G1 X3.1 Y17.38 Z0.08 F3600.0
G1 F1200.0
G1 E59.039
G1 F3600.0
M101
G1 X3.09 Y17.38 Z0.08 F1080.0 E59.039
G1 X2.03 Y17.3 Z0.08 F1080.0 E59.095
G1 X1.01 Y17.38 Z0.08 F1080.0 E59.149
G1 X0.06 Y17.63 Z0.08 F1080.0 E59.201
G1 X-0.8 Y18.03 Z0.08 F1080.0 E59.251
G1 X-1.56 Y18.6 Z0.08 F1080.0 E59.301
G1 X-2.2 Y19.29 Z0.08 F1080.0 E59.351
G1 X-2.66 Y20.07 Z0.08 F1080.0 E59.399
G1 X-2.94 Y20.93 Z0.08 F1080.0 E59.446
G1 X-3.03 Y21.87 Z0.08 F1080.0 E59.496
G1 X-2.94 Y22.7 Z0.08 F1080.0 E59.54
G1 X-2.68 Y23.49 Z0.08 F1080.0 E59.584
G1 X-2.24 Y24.23 Z0.08 F1080.0 E59.63
G1 X-1.97 Y24.54 Z0.08 F1080.0 E59.652
G1 X-1.99 Y24.57 Z0.08 F1080.0 E59.654
G1 X-9.56 Y24.57 Z0.08 F1080.0 E60.053
G1 X-9.56 Y27.11 Z0.08 F1080.0 E60.188
G1 X6.91 Y27.11 Z0.08 F1080.0 E61.057
G1 X6.91 Y24.54 Z0.08 F1080.0 E61.193
G1 X6.27 Y24.54 Z0.08 F1080.0 E61.227
G1 X6.25 Y24.42 Z0.08 F1080.0 E61.233
G1 X6.44 Y24.2 Z0.08 F1080.0 E61.248
G1 X6.84 Y23.47 Z0.08 F1080.0 E61.292
G1 X7.08 Y22.7 Z0.08 F1080.0 E61.335
G1 X7.16 Y21.88 Z0.08 F1080.0 E61.378
G1 X7.07 Y20.94 Z0.08 F1080.0 E61.428
G1 X6.8 Y20.07 Z0.08 F1080.0 E61.476
G1 X6.34 Y19.29 Z0.08 F1080.0 E61.524
G1 X5.71 Y18.6 Z0.08 F1080.0 E61.574
G1 X4.93 Y18.03 Z0.08 F1080.0 E61.625
G1 X4.06 Y17.63 Z0.08 F1080.0 E61.675
G1 X3.1 Y17.38 Z0.08 F1080.0 E61.728
G1 F1200.0
G1 E60.728
G1 F1080.0
M103
(</edge>)
(</boundaryPerimeter>)
(<nestedRing>)
(<boundaryPerimeter>)
(<boundaryPoint> X4.577 Y23.807 Z0.081 </boundaryPoint>)
(<boundaryPoint> X4.214 Y24.199 Z0.081 </boundaryPoint>)
(<boundaryPoint> X3.775 Y24.518 Z0.081 </boundaryPoint>)
(<boundaryPoint> X3.269 Y24.745 Z0.081 </boundaryPoint>)
(<boundaryPoint> X2.695 Y24.882 Z0.081 </boundaryPoint>)
(<boundaryPoint> X2.053 Y24.927 Z0.081 </boundaryPoint>)
(<boundaryPoint> X1.427 Y24.881 Z0.081 </boundaryPoint>)
(<boundaryPoint> X0.863 Y24.743 Z0.081 </boundaryPoint>)
(<boundaryPoint> X0.36 Y24.513 Z0.081 </boundaryPoint>)
(<boundaryPoint> X-0.08 Y24.19 Z0.081 </boundaryPoint>)
(<boundaryPoint> X-0.443 Y23.789 Z0.081 </boundaryPoint>)
(<boundaryPoint> X-0.702 Y23.333 Z0.081 </boundaryPoint>)
(<boundaryPoint> X-0.857 Y22.822 Z0.081 </boundaryPoint>)
(<boundaryPoint> X-0.909 Y22.255 Z0.081 </boundaryPoint>)
(<boundaryPoint> X-0.856 Y21.723 Z0.081 </boundaryPoint>)
(<boundaryPoint> X-0.695 Y21.238 Z0.081 </boundaryPoint>)
(<boundaryPoint> X-0.427 Y20.799 Z0.081 </boundaryPoint>)
(<boundaryPoint> X-0.052 Y20.407 Z0.081 </boundaryPoint>)
(<boundaryPoint> X0.398 Y20.089 Z0.081 </boundaryPoint>)
(<boundaryPoint> X0.91 Y19.861 Z0.081 </boundaryPoint>)
(<boundaryPoint> X1.483 Y19.725 Z0.081 </boundaryPoint>)
(<boundaryPoint> X2.119 Y19.679 Z0.081 </boundaryPoint>)
(<boundaryPoint> X2.721 Y19.726 Z0.081 </boundaryPoint>)
(<boundaryPoint> X3.271 Y19.866 Z0.081 </boundaryPoint>)
(<boundaryPoint> X3.769 Y20.099 Z0.081 </boundaryPoint>)
(<boundaryPoint> X4.214 Y20.426 Z0.081 </boundaryPoint>)
(<boundaryPoint> X4.577 Y20.819 Z0.081 </boundaryPoint>)
(<boundaryPoint> X4.836 Y21.259 Z0.081 </boundaryPoint>)
(<boundaryPoint> X4.991 Y21.748 Z0.081 </boundaryPoint>)
(<boundaryPoint> X5.043 Y22.284 Z0.081 </boundaryPoint>)
(<boundaryPoint> X4.991 Y22.849 Z0.081 </boundaryPoint>)
(<boundaryPoint> X4.836 Y23.357 Z0.081 </boundaryPoint>)
(<edge> outer )
G1 X2.68 Y19.92 Z0.08 F3600.0
G1 F1200.0
G1 E61.728
G1 F3600.0
M101
G1 X2.69 Y19.92 Z0.08 F1080.0 E61.728
G1 X3.2 Y20.05 Z0.08 F1080.0 E61.756
G1 X3.67 Y20.27 Z0.08 F1080.0 E61.783
G1 X4.08 Y20.58 Z0.08 F1080.0 E61.81
G1 X4.42 Y20.94 Z0.08 F1080.0 E61.837
G1 X4.65 Y21.34 Z0.08 F1080.0 E61.861
G1 X4.79 Y21.79 Z0.08 F1080.0 E61.886
G1 X4.84 Y22.28 Z0.08 F1080.0 E61.912
G1 X4.79 Y22.81 Z0.08 F1080.0 E61.94
G1 X4.65 Y23.28 Z0.08 F1080.0 E61.966
G1 X4.42 Y23.69 Z0.08 F1080.0 E61.991
G1 X4.08 Y24.05 Z0.08 F1080.0 E62.017
G1 X3.67 Y24.34 Z0.08 F1080.0 E62.043
G1 X3.2 Y24.55 Z0.08 F1080.0 E62.071
G1 X2.67 Y24.68 Z0.08 F1080.0 E62.1
G1 X2.05 Y24.73 Z0.08 F1080.0 E62.132
G1 X1.46 Y24.68 Z0.08 F1080.0 E62.164
G1 X0.93 Y24.55 Z0.08 F1080.0 E62.193
G1 X0.46 Y24.34 Z0.08 F1080.0 E62.22
G1 X0.06 Y24.04 Z0.08 F1080.0 E62.246
G1 X-0.28 Y23.67 Z0.08 F1080.0 E62.273
G1 X-0.52 Y23.25 Z0.08 F1080.0 E62.298
G1 X-0.66 Y22.78 Z0.08 F1080.0 E62.324
G1 X-0.71 Y22.26 Z0.08 F1080.0 E62.352
G1 X-0.66 Y21.77 Z0.08 F1080.0 E62.378
G1 X-0.51 Y21.32 Z0.08 F1080.0 E62.403
G1 X-0.27 Y20.92 Z0.08 F1080.0 E62.428
G1 X0.08 Y20.56 Z0.08 F1080.0 E62.454
G1 X0.5 Y20.26 Z0.08 F1080.0 E62.481
G1 X0.97 Y20.05 Z0.08 F1080.0 E62.509
G1 X1.51 Y19.92 Z0.08 F1080.0 E62.538
G1 X2.12 Y19.88 Z0.08 F1080.0 E62.57
G1 X2.68 Y19.92 Z0.08 F1080.0 E62.6
G1 F1200.0
G1 E62.6
G1 F1080.0
M103
(</edge>)
(</boundaryPerimeter>)
(<loop> outer )
;M108 R32.0
G1 X2.55 Y20.72 Z0.08 F3600.0
G1 F1200.0
G1 E62.6
G1 F3600.0
M101
G1 X2.56 Y20.72 Z0.08 F2160.0 E62.6
G1 X2.93 Y20.81 Z0.08 F2160.0 E62.618
G1 X3.26 Y20.96 Z0.08 F2160.0 E62.635
G1 X3.54 Y21.18 Z0.08 F2160.0 E62.652
G1 X3.77 Y21.42 Z0.08 F2160.0 E62.668
G1 X3.92 Y21.67 Z0.08 F2160.0 E62.681
G1 X4.01 Y21.95 Z0.08 F2160.0 E62.695
G1 X4.04 Y22.29 Z0.08 F2160.0 E62.711
G1 X4.0 Y22.66 Z0.08 F2160.0 E62.728
G1 X3.91 Y22.96 Z0.08 F2160.0 E62.743
G1 X3.77 Y23.21 Z0.08 F2160.0 E62.757
G1 X3.55 Y23.45 Z0.08 F2160.0 E62.772
G1 X3.27 Y23.65 Z0.08 F2160.0 E62.788
G1 X2.94 Y23.79 Z0.08 F2160.0 E62.805
G1 X2.54 Y23.89 Z0.08 F2160.0 E62.824
G1 X2.06 Y23.92 Z0.08 F2160.0 E62.847
G1 X1.58 Y23.89 Z0.08 F2160.0 E62.869
G1 X1.19 Y23.79 Z0.08 F2160.0 E62.888
G1 X0.87 Y23.65 Z0.08 F2160.0 E62.905
G1 X0.59 Y23.44 Z0.08 F2160.0 E62.921
G1 X0.37 Y23.2 Z0.08 F2160.0 E62.937
G1 X0.22 Y22.94 Z0.08 F2160.0 E62.951
G1 X0.13 Y22.63 Z0.08 F2160.0 E62.966
G1 X0.1 Y22.26 Z0.08 F2160.0 E62.983
G1 X0.13 Y21.93 Z0.08 F2160.0 E62.999
G1 X0.22 Y21.66 Z0.08 F2160.0 E63.012
G1 X0.37 Y21.41 Z0.08 F2160.0 E63.026
G1 X0.6 Y21.17 Z0.08 F2160.0 E63.042
G1 X0.9 Y20.96 Z0.08 F2160.0 E63.058
G1 X1.23 Y20.81 Z0.08 F2160.0 E63.076
G1 X1.64 Y20.72 Z0.08 F2160.0 E63.095
G1 X2.12 Y20.68 Z0.08 F2160.0 E63.118
G1 X2.55 Y20.72 Z0.08 F2160.0 E63.138
G1 F1200.0
G1 E63.138
G1 F2160.0
M103
(</loop>)
(<loop> outer )
G1 X2.62 Y20.32 Z0.08 F3600.0
G1 F1200.0
G1 E63.138
G1 F3600.0
M101
G1 X2.62 Y20.32 Z0.08 F2160.0 E63.139
G1 X3.07 Y20.43 Z0.08 F2160.0 E63.16
G1 X3.46 Y20.62 Z0.08 F2160.0 E63.181
G1 X3.81 Y20.88 Z0.08 F2160.0 E63.201
G1 X4.09 Y21.18 Z0.08 F2160.0 E63.22
G1 X4.29 Y21.5 Z0.08 F2160.0 E63.238
G1 X4.4 Y21.87 Z0.08 F2160.0 E63.256
G1 X4.44 Y22.29 Z0.08 F2160.0 E63.276
G1 X4.4 Y22.73 Z0.08 F2160.0 E63.297
G1 X4.28 Y23.12 Z0.08 F2160.0 E63.316
G1 X4.09 Y23.45 Z0.08 F2160.0 E63.334
G1 X3.81 Y23.75 Z0.08 F2160.0 E63.353
G1 X3.47 Y24.0 Z0.08 F2160.0 E63.373
G1 X3.08 Y24.17 Z0.08 F2160.0 E63.393
G1 X2.6 Y24.29 Z0.08 F2160.0 E63.416
G1 X2.05 Y24.32 Z0.08 F2160.0 E63.442
G1 X1.52 Y24.29 Z0.08 F2160.0 E63.467
G1 X1.06 Y24.17 Z0.08 F2160.0 E63.489
G1 X0.67 Y23.99 Z0.08 F2160.0 E63.51
G1 X0.32 Y23.74 Z0.08 F2160.0 E63.529
G1 X0.05 Y23.43 Z0.08 F2160.0 E63.549
G1 X-0.15 Y23.09 Z0.08 F2160.0 E63.567
G1 X-0.27 Y22.71 Z0.08 F2160.0 E63.586
G1 X-0.31 Y22.26 Z0.08 F2160.0 E63.607
G1 X-0.27 Y21.85 Z0.08 F2160.0 E63.627
G1 X-0.15 Y21.49 Z0.08 F2160.0 E63.644
G1 X0.05 Y21.17 Z0.08 F2160.0 E63.662
G1 X0.34 Y20.86 Z0.08 F2160.0 E63.682
G1 X0.7 Y20.61 Z0.08 F2160.0 E63.702
G1 X1.1 Y20.43 Z0.08 F2160.0 E63.723
G1 X1.57 Y20.32 Z0.08 F2160.0 E63.746
G1 X2.12 Y20.28 Z0.08 F2160.0 E63.772
G1 X2.62 Y20.32 Z0.08 F2160.0 E63.795
G1 F1200.0
G1 E62.795
G1 F2160.0
M103
(</loop>)
(<infill>)
G1 X3.6 Y22.94 Z0.08 F3600.0
G1 F1200.0
G1 E63.795
G1 F3600.0
M101
G1 X3.6 Y21.68 Z0.08 F2160.0 E63.854
G1 X3.2 Y21.27 Z0.08 F2160.0 E63.881
G1 X3.2 Y23.35 Z0.08 F2160.0 E63.979
G1 X2.8 Y23.54 Z0.08 F2160.0 E64.0
G1 X2.8 Y21.07 Z0.08 F2160.0 E64.116
G1 X2.4 Y20.98 Z0.08 F2160.0 E64.135
G1 X2.4 Y23.62 Z0.08 F2160.0 E64.259
G1 X2.0 Y23.64 Z0.08 F2160.0 E64.278
G1 X2.0 Y20.97 Z0.08 F2160.0 E64.403
G1 X1.6 Y21.01 Z0.08 F2160.0 E64.422
G1 X1.6 Y23.61 Z0.08 F2160.0 E64.544
G1 X1.2 Y23.49 Z0.08 F2160.0 E64.563
G1 X1.2 Y21.13 Z0.08 F2160.0 E64.674
G1 X0.8 Y21.37 Z0.08 F2160.0 E64.696
G1 X0.8 Y23.25 Z0.08 F2160.0 E64.784
G1 F1200.0
G1 E64.784
G1 F2160.0
M103
G1 X0.4 Y22.51 Z0.08 F3600.0
G1 F1200.0
G1 E64.784
G1 F3600.0
M101
G1 X0.4 Y22.03 Z0.08 F2160.0 E64.807
G1 F1200.0
G1 E63.807
G1 F2160.0
M103
(</infill>)
(</nestedRing>)
(</nestedRing>)
(<nestedRing>)
(<boundaryPerimeter>)
(<boundaryPoint> X6.176 Y31.117 Z0.081 </boundaryPoint>)
(<boundaryPoint> X5.564 Y30.355 Z0.081 </boundaryPoint>)
(<boundaryPoint> X4.818 Y29.729 Z0.081 </boundaryPoint>)
(<boundaryPoint> X3.987 Y29.281 Z0.081 </boundaryPoint>)
(<boundaryPoint> X3.072 Y29.013 Z0.081 </boundaryPoint>)
(<boundaryPoint> X2.072 Y28.923 Z0.081 </boundaryPoint>)
(<boundaryPoint> X1.08 Y29.012 Z0.081 </boundaryPoint>)
(<boundaryPoint> X0.169 Y29.279 Z0.081 </boundaryPoint>)
(<boundaryPoint> X-0.662 Y29.724 Z0.081 </boundaryPoint>)
(<boundaryPoint> X-1.411 Y30.346 Z0.081 </boundaryPoint>)
(<boundaryPoint> X-2.031 Y31.106 Z0.081 </boundaryPoint>)
(<boundaryPoint> X-2.475 Y31.945 Z0.081 </boundaryPoint>)
(<boundaryPoint> X-2.74 Y32.861 Z0.081 </boundaryPoint>)
(<boundaryPoint> X-2.829 Y33.856 Z0.081 </boundaryPoint>)
(<boundaryPoint> X-2.741 Y34.846 Z0.081 </boundaryPoint>)
(<boundaryPoint> X-2.477 Y35.758 Z0.081 </boundaryPoint>)
(<boundaryPoint> X-2.037 Y36.592 Z0.081 </boundaryPoint>)
(<boundaryPoint> X-1.42 Y37.347 Z0.081 </boundaryPoint>)
(<boundaryPoint> X-0.679 Y37.974 Z0.081 </boundaryPoint>)
(<boundaryPoint> X0.138 Y38.421 Z0.081 </boundaryPoint>)
(<boundaryPoint> X1.029 Y38.69 Z0.081 </boundaryPoint>)
(<boundaryPoint> X1.996 Y38.779 Z0.081 </boundaryPoint>)
(<boundaryPoint> X3.016 Y38.691 Z0.081 </boundaryPoint>)
(<boundaryPoint> X3.946 Y38.428 Z0.081 </boundaryPoint>)
(<boundaryPoint> X4.786 Y37.989 Z0.081 </boundaryPoint>)
(<boundaryPoint> X5.536 Y37.375 Z0.081 </boundaryPoint>)
(<boundaryPoint> X6.16 Y36.631 Z0.081 </boundaryPoint>)
(<boundaryPoint> X6.606 Y35.803 Z0.081 </boundaryPoint>)
(<boundaryPoint> X6.874 Y34.891 Z0.081 </boundaryPoint>)
(<boundaryPoint> X6.963 Y33.894 Z0.081 </boundaryPoint>)
(<boundaryPoint> X6.875 Y32.887 Z0.081 </boundaryPoint>)
(<boundaryPoint> X6.613 Y31.961 Z0.081 </boundaryPoint>)
(<edge> inner )
;M108 R18.0
G1 X1.05 Y28.81 Z0.08 F3600.0
G1 F1200.0
G1 E64.807
G1 F3600.0
M101
G1 X1.04 Y28.82 Z0.08 F1080.0 E64.807
G1 X0.09 Y29.09 Z0.08 F1080.0 E64.859
G1 X-0.77 Y29.56 Z0.08 F1080.0 E64.911
G1 X-1.55 Y30.2 Z0.08 F1080.0 E64.965
G1 X-2.2 Y31.0 Z0.08 F1080.0 E65.019
G1 X-2.66 Y31.87 Z0.08 F1080.0 E65.071
G1 X-2.94 Y32.82 Z0.08 F1080.0 E65.123
G1 X-3.03 Y33.86 Z0.08 F1080.0 E65.178
G1 X-2.94 Y34.88 Z0.08 F1080.0 E65.232
G1 X-2.66 Y35.83 Z0.08 F1080.0 E65.285
G1 X-2.21 Y36.7 Z0.08 F1080.0 E65.337
G1 X-1.56 Y37.49 Z0.08 F1080.0 E65.39
G1 X-0.79 Y38.14 Z0.08 F1080.0 E65.444
G1 X0.06 Y38.61 Z0.08 F1080.0 E65.495
G1 X0.99 Y38.89 Z0.08 F1080.0 E65.546
G1 X2.0 Y38.98 Z0.08 F1080.0 E65.6
G1 X3.05 Y38.89 Z0.08 F1080.0 E65.656
G1 X4.02 Y38.62 Z0.08 F1080.0 E65.709
G1 X4.9 Y38.16 Z0.08 F1080.0 E65.761
G1 X5.68 Y37.52 Z0.08 F1080.0 E65.814
G1 X6.33 Y36.74 Z0.08 F1080.0 E65.868
G1 X6.79 Y35.88 Z0.08 F1080.0 E65.919
G1 X7.07 Y34.93 Z0.08 F1080.0 E65.972
G1 X7.16 Y33.89 Z0.08 F1080.0 E66.027
G1 X7.07 Y32.85 Z0.08 F1080.0 E66.082
G1 X6.8 Y31.89 Z0.08 F1080.0 E66.135
G1 X6.34 Y31.01 Z0.08 F1080.0 E66.187
G1 X5.71 Y30.21 Z0.08 F1080.0 E66.241
G1 X4.93 Y29.56 Z0.08 F1080.0 E66.295
G1 X4.06 Y29.09 Z0.08 F1080.0 E66.347
G1 X3.11 Y28.82 Z0.08 F1080.0 E66.399
G1 X2.07 Y28.72 Z0.08 F1080.0 E66.454
G1 X1.05 Y28.81 Z0.08 F1080.0 E66.508
G1 F1200.0
G1 E65.508
G1 F1080.0
M103
(</edge>)
(</boundaryPerimeter>)
(<nestedRing>)
(<boundaryPerimeter>)
(<boundaryPoint> X4.582 Y35.451 Z0.081 </boundaryPoint>)
(<boundaryPoint> X4.224 Y35.862 Z0.081 </boundaryPoint>)
(<boundaryPoint> X3.783 Y36.186 Z0.081 </boundaryPoint>)
(<boundaryPoint> X3.269 Y36.418 Z0.081 </boundaryPoint>)
(<boundaryPoint> X2.683 Y36.557 Z0.081 </boundaryPoint>)
(<boundaryPoint> X2.024 Y36.603 Z0.081 </boundaryPoint>)
(<boundaryPoint> X1.406 Y36.556 Z0.081 </boundaryPoint>)
(<boundaryPoint> X0.848 Y36.413 Z0.081 </boundaryPoint>)
(<boundaryPoint> X0.349 Y36.176 Z0.081 </boundaryPoint>)
(<boundaryPoint> X-0.09 Y35.843 Z0.081 </boundaryPoint>)
(<boundaryPoint> X-0.448 Y35.434 Z0.081 </boundaryPoint>)
(<boundaryPoint> X-0.704 Y34.966 Z0.081 </boundaryPoint>)
(<boundaryPoint> X-0.858 Y34.44 Z0.081 </boundaryPoint>)
(<boundaryPoint> X-0.909 Y33.856 Z0.081 </boundaryPoint>)
(<boundaryPoint> X-0.858 Y33.264 Z0.081 </boundaryPoint>)
(<boundaryPoint> X-0.704 Y32.732 Z0.081 </boundaryPoint>)
(<boundaryPoint> X-0.448 Y32.261 Z0.081 </boundaryPoint>)
(<boundaryPoint> X-0.09 Y31.85 Z0.081 </boundaryPoint>)
(<boundaryPoint> X0.348 Y31.522 Z0.081 </boundaryPoint>)
(<boundaryPoint> X0.855 Y31.287 Z0.081 </boundaryPoint>)
(<boundaryPoint> X1.429 Y31.146 Z0.081 </boundaryPoint>)
(<boundaryPoint> X2.072 Y31.099 Z0.081 </boundaryPoint>)
(<boundaryPoint> X2.714 Y31.146 Z0.081 </boundaryPoint>)
(<boundaryPoint> X3.288 Y31.287 Z0.081 </boundaryPoint>)
(<boundaryPoint> X3.795 Y31.522 Z0.081 </boundaryPoint>)
(<boundaryPoint> X4.234 Y31.85 Z0.081 </boundaryPoint>)
(<boundaryPoint> X4.588 Y32.257 Z0.081 </boundaryPoint>)
(<boundaryPoint> X4.841 Y32.727 Z0.081 </boundaryPoint>)
(<boundaryPoint> X4.992 Y33.26 Z0.081 </boundaryPoint>)
(<boundaryPoint> X5.043 Y33.856 Z0.081 </boundaryPoint>)
(<boundaryPoint> X4.992 Y34.448 Z0.081 </boundaryPoint>)
(<boundaryPoint> X4.838 Y34.98 Z0.081 </boundaryPoint>)
(<edge> outer )
G1 X1.46 Y31.34 Z0.08 F3600.0
G1 F1200.0
G1 E66.508
G1 F3600.0
M101
G1 X1.46 Y31.34 Z0.08 F1080.0 E66.509
G1 X2.07 Y31.3 Z0.08 F1080.0 E66.541
G1 X2.68 Y31.34 Z0.08 F1080.0 E66.573
G1 X3.22 Y31.48 Z0.08 F1080.0 E66.603
G1 X3.69 Y31.7 Z0.08 F1080.0 E66.63
G1 X4.1 Y32.0 Z0.08 F1080.0 E66.657
G1 X4.42 Y32.37 Z0.08 F1080.0 E66.683
G1 X4.66 Y32.8 Z0.08 F1080.0 E66.709
G1 X4.79 Y33.3 Z0.08 F1080.0 E66.736
G1 X4.84 Y33.86 Z0.08 F1080.0 E66.766
G1 X4.79 Y34.41 Z0.08 F1080.0 E66.795
G1 X4.65 Y34.9 Z0.08 F1080.0 E66.822
G1 X4.42 Y35.34 Z0.08 F1080.0 E66.848
G1 X4.09 Y35.71 Z0.08 F1080.0 E66.875
G1 X3.68 Y36.01 Z0.08 F1080.0 E66.901
G1 X3.2 Y36.23 Z0.08 F1080.0 E66.929
G1 X2.65 Y36.36 Z0.08 F1080.0 E66.959
G1 X2.02 Y36.4 Z0.08 F1080.0 E66.992
G1 X1.44 Y36.36 Z0.08 F1080.0 E67.023
G1 X0.92 Y36.22 Z0.08 F1080.0 E67.052
G1 X0.45 Y36.0 Z0.08 F1080.0 E67.079
G1 X0.05 Y35.7 Z0.08 F1080.0 E67.106
G1 X-0.28 Y35.32 Z0.08 F1080.0 E67.132
G1 X-0.52 Y34.89 Z0.08 F1080.0 E67.158
G1 X-0.66 Y34.4 Z0.08 F1080.0 E67.185
G1 X-0.71 Y33.86 Z0.08 F1080.0 E67.214
G1 X-0.66 Y33.3 Z0.08 F1080.0 E67.243
G1 X-0.52 Y32.81 Z0.08 F1080.0 E67.27
G1 X-0.28 Y32.38 Z0.08 F1080.0 E67.296
G1 X0.05 Y32.0 Z0.08 F1080.0 E67.323
G1 X0.45 Y31.7 Z0.08 F1080.0 E67.349
G1 X0.92 Y31.48 Z0.08 F1080.0 E67.377
G1 X1.46 Y31.34 Z0.08 F1080.0 E67.406
G1 F1200.0
G1 E67.406
G1 F1080.0
M103
(</edge>)
(</boundaryPerimeter>)
(<loop> outer )
;M108 R32.0
G1 X1.58 Y32.14 Z0.08 F3600.0
G1 F1200.0
G1 E67.406
G1 F3600.0
M101
G1 X1.59 Y32.14 Z0.08 F2160.0 E67.406
G1 X2.07 Y32.1 Z0.08 F2160.0 E67.429
G1 X2.56 Y32.14 Z0.08 F2160.0 E67.452
G1 X2.96 Y32.23 Z0.08 F2160.0 E67.471
G1 X3.28 Y32.38 Z0.08 F2160.0 E67.488
G1 X3.55 Y32.59 Z0.08 F2160.0 E67.504
G1 X3.76 Y32.83 Z0.08 F2160.0 E67.519
G1 X3.91 Y33.1 Z0.08 F2160.0 E67.534
G1 X4.0 Y33.44 Z0.08 F2160.0 E67.55
G1 X4.04 Y33.86 Z0.08 F2160.0 E67.569
G1 X4.0 Y34.26 Z0.08 F2160.0 E67.589
G1 X3.91 Y34.6 Z0.08 F2160.0 E67.605
G1 X3.76 Y34.88 Z0.08 F2160.0 E67.62
G1 X3.54 Y35.12 Z0.08 F2160.0 E67.635
G1 X3.28 Y35.32 Z0.08 F2160.0 E67.651
G1 X2.94 Y35.47 Z0.08 F2160.0 E67.668
G1 X2.53 Y35.56 Z0.08 F2160.0 E67.688
G1 X2.03 Y35.6 Z0.08 F2160.0 E67.711
G1 X1.57 Y35.57 Z0.08 F2160.0 E67.733
G1 X1.19 Y35.47 Z0.08 F2160.0 E67.751
G1 X0.87 Y35.32 Z0.08 F2160.0 E67.768
G1 X0.59 Y35.11 Z0.08 F2160.0 E67.784
G1 X0.38 Y34.86 Z0.08 F2160.0 E67.8
G1 X0.23 Y34.58 Z0.08 F2160.0 E67.815
G1 X0.13 Y34.25 Z0.08 F2160.0 E67.831
G1 X0.1 Y33.85 Z0.08 F2160.0 E67.849
G1 X0.13 Y33.45 Z0.08 F2160.0 E67.869
G1 X0.23 Y33.11 Z0.08 F2160.0 E67.885
G1 X0.38 Y32.84 Z0.08 F2160.0 E67.9
G1 X0.59 Y32.59 Z0.08 F2160.0 E67.915
G1 X0.86 Y32.38 Z0.08 F2160.0 E67.931
G1 X1.19 Y32.23 Z0.08 F2160.0 E67.948
G1 X1.58 Y32.14 Z0.08 F2160.0 E67.967
G1 F1200.0
G1 E67.967
G1 F2160.0
M103
(</loop>)
(<loop> outer )
G1 X1.52 Y31.74 Z0.08 F3600.0
G1 F1200.0
G1 E67.967
G1 F3600.0
M101
G1 X1.52 Y31.74 Z0.08 F2160.0 E67.967
G1 X2.07 Y31.7 Z0.08 F2160.0 E67.993
G1 X2.62 Y31.74 Z0.08 F2160.0 E68.019
G1 X3.09 Y31.86 Z0.08 F2160.0 E68.041
G1 X3.49 Y32.04 Z0.08 F2160.0 E68.062
G1 X3.82 Y32.29 Z0.08 F2160.0 E68.082
G1 X4.09 Y32.6 Z0.08 F2160.0 E68.101
G1 X4.28 Y32.95 Z0.08 F2160.0 E68.12
G1 X4.4 Y33.37 Z0.08 F2160.0 E68.14
G1 X4.44 Y33.86 Z0.08 F2160.0 E68.163
G1 X4.4 Y34.34 Z0.08 F2160.0 E68.186
G1 X4.28 Y34.75 Z0.08 F2160.0 E68.206
G1 X4.09 Y35.11 Z0.08 F2160.0 E68.225
G1 X3.81 Y35.42 Z0.08 F2160.0 E68.244
G1 X3.48 Y35.66 Z0.08 F2160.0 E68.264
G1 X3.08 Y35.85 Z0.08 F2160.0 E68.285
G1 X2.59 Y35.96 Z0.08 F2160.0 E68.308
G1 X2.03 Y36.0 Z0.08 F2160.0 E68.335
G1 X1.5 Y35.96 Z0.08 F2160.0 E68.359
G1 X1.05 Y35.85 Z0.08 F2160.0 E68.381
G1 X0.66 Y35.66 Z0.08 F2160.0 E68.401
G1 X0.32 Y35.4 Z0.08 F2160.0 E68.422
G1 X0.05 Y35.09 Z0.08 F2160.0 E68.441
G1 X-0.15 Y34.73 Z0.08 F2160.0 E68.46
G1 X-0.27 Y34.33 Z0.08 F2160.0 E68.48
G1 X-0.31 Y33.86 Z0.08 F2160.0 E68.502
G1 X-0.27 Y33.37 Z0.08 F2160.0 E68.525
G1 X-0.15 Y32.96 Z0.08 F2160.0 E68.545
G1 X0.05 Y32.6 Z0.08 F2160.0 E68.564
G1 X0.32 Y32.29 Z0.08 F2160.0 E68.584
G1 X0.66 Y32.04 Z0.08 F2160.0 E68.603
G1 X1.05 Y31.86 Z0.08 F2160.0 E68.624
G1 X1.52 Y31.74 Z0.08 F2160.0 E68.646
G1 F1200.0
G1 E67.646
G1 F2160.0
M103
(</loop>)
(<infill>)
G1 X0.4 Y33.57 Z0.08 F3600.0
G1 F1200.0
G1 E68.646
G1 F3600.0
M101
G1 X0.4 Y34.13 Z0.08 F2160.0 E68.673
G1 F1200.0
G1 E67.673
G1 F2160.0
M103
G1 X3.6 Y34.58 Z0.08 F3600.0
G1 F1200.0
G1 E68.673
G1 F3600.0
M101
G1 X3.6 Y33.12 Z0.08 F2160.0 E68.741
G1 X3.2 Y32.67 Z0.08 F2160.0 E68.769
G1 X3.2 Y35.03 Z0.08 F2160.0 E68.879
G1 X2.8 Y35.21 Z0.08 F2160.0 E68.9
G1 X2.8 Y32.48 Z0.08 F2160.0 E69.028
G1 X2.4 Y32.41 Z0.08 F2160.0 E69.047
G1 X2.4 Y35.29 Z0.08 F2160.0 E69.183
G1 X2.0 Y35.32 Z0.08 F2160.0 E69.202
G1 X2.0 Y32.39 Z0.08 F2160.0 E69.339
G1 X1.6 Y32.42 Z0.08 F2160.0 E69.358
G1 X1.6 Y35.28 Z0.08 F2160.0 E69.493
G1 X1.2 Y35.16 Z0.08 F2160.0 E69.512
G1 X1.2 Y32.54 Z0.08 F2160.0 E69.635
G1 X0.8 Y32.78 Z0.08 F2160.0 E69.658
G1 X0.8 Y34.91 Z0.08 F2160.0 E69.757
G1 F1200.0
G1 E68.757
G1 F2160.0
M103
(</infill>)
(</nestedRing>)
(</nestedRing>)
(<nestedRing>)
(<boundaryPerimeter>)
(<boundaryPoint> X-0.09 Y42.658 Z0.081 </boundaryPoint>)
(<boundaryPoint> X-0.587 Y42.111 Z0.081 </boundaryPoint>)
(<boundaryPoint> X-0.752 Y41.347 Z0.081 </boundaryPoint>)
(<boundaryPoint> X-0.725 Y41.055 Z0.081 </boundaryPoint>)
(<boundaryPoint> X-0.643 Y40.76 Z0.081 </boundaryPoint>)
(<boundaryPoint> X-0.506 Y40.462 Z0.081 </boundaryPoint>)
(<boundaryPoint> X-0.314 Y40.16 Z0.081 </boundaryPoint>)
(<boundaryPoint> X-2.276 Y39.181 Z0.081 </boundaryPoint>)
(<boundaryPoint> X-2.518 Y39.637 Z0.081 </boundaryPoint>)
(<boundaryPoint> X-2.691 Y40.083 Z0.081 </boundaryPoint>)
(<boundaryPoint> X-2.795 Y40.52 Z0.081 </boundaryPoint>)
(<boundaryPoint> X-2.829 Y40.948 Z0.081 </boundaryPoint>)
(<boundaryPoint> X-2.77 Y41.542 Z0.081 </boundaryPoint>)
(<boundaryPoint> X-2.696 Y41.806 Z0.081 </boundaryPoint>)
(<boundaryPoint> X-2.592 Y42.05 Z0.081 </boundaryPoint>)
(<boundaryPoint> X-2.454 Y42.286 Z0.081 </boundaryPoint>)
(<boundaryPoint> X-2.031 Y42.809 Z0.081 </boundaryPoint>)
(<boundaryPoint> X-2.213 Y43.095 Z0.081 </boundaryPoint>)
(<boundaryPoint> X-2.573 Y43.095 Z0.081 </boundaryPoint>)
(<boundaryPoint> X-2.573 Y45.271 Z0.081 </boundaryPoint>)
(<boundaryPoint> X6.707 Y45.271 Z0.081 </boundaryPoint>)
(<boundaryPoint> X6.707 Y43.095 Z0.081 </boundaryPoint>)
(<boundaryPoint> X1.896 Y43.095 Z0.081 </boundaryPoint>)
(<boundaryPoint> X0.737 Y42.985 Z0.081 </boundaryPoint>)
(<edge> inner )
;M108 R18.0
G1 X-1.42 Y39.38 Z0.08 F3600.0
G1 F1200.0
G1 E69.757
G1 F3600.0
M101
G1 X-1.43 Y39.38 Z0.08 F1080.0 E69.758
G1 X-2.36 Y38.91 Z0.08 F1080.0 E69.813
G1 X-2.7 Y39.55 Z0.08 F1080.0 E69.851
G1 X-2.88 Y40.02 Z0.08 F1080.0 E69.878
G1 X-2.99 Y40.49 Z0.08 F1080.0 E69.903
G1 X-3.03 Y40.95 Z0.08 F1080.0 E69.927
G1 X-2.97 Y41.58 Z0.08 F1080.0 E69.961
G1 X-2.88 Y41.87 Z0.08 F1080.0 E69.977
G1 X-2.77 Y42.14 Z0.08 F1080.0 E69.992
G1 X-2.62 Y42.4 Z0.08 F1080.0 E70.008
G1 X-2.28 Y42.82 Z0.08 F1080.0 E70.037
G1 X-2.32 Y42.9 Z0.08 F1080.0 E70.041
G1 X-2.77 Y42.9 Z0.08 F1080.0 E70.065
G1 X-2.77 Y45.47 Z0.08 F1080.0 E70.201
G1 X6.91 Y45.47 Z0.08 F1080.0 E70.713
G1 X6.91 Y42.9 Z0.08 F1080.0 E70.849
G1 X1.91 Y42.9 Z0.08 F1080.0 E71.113
G1 X0.78 Y42.79 Z0.08 F1080.0 E71.172
G1 X0.03 Y42.49 Z0.08 F1080.0 E71.215
G1 X-0.4 Y42.02 Z0.08 F1080.0 E71.249
G1 X-0.55 Y41.34 Z0.08 F1080.0 E71.286
G1 X-0.53 Y41.09 Z0.08 F1080.0 E71.299
G1 X-0.46 Y40.83 Z0.08 F1080.0 E71.313
G1 X-0.33 Y40.56 Z0.08 F1080.0 E71.329
G1 X-0.03 Y40.08 Z0.08 F1080.0 E71.359
G1 X-1.42 Y39.38 Z0.08 F1080.0 E71.441
G1 F1200.0
G1 E70.441
G1 F1080.0
M103
(</edge>)
(</boundaryPerimeter>)
(</nestedRing>)
(<nestedRing>)
(<boundaryPerimeter>)
(<boundaryPoint> X-19.296 Y12.968 Z0.081 </boundaryPoint>)
(<boundaryPoint> X-20.954 Y11.708 Z0.081 </boundaryPoint>)
(<boundaryPoint> X-21.606 Y11.307 Z0.081 </boundaryPoint>)
(<boundaryPoint> X-22.182 Y11.026 Z0.081 </boundaryPoint>)
(<boundaryPoint> X-22.764 Y10.825 Z0.081 </boundaryPoint>)
(<boundaryPoint> X-23.352 Y10.705 Z0.081 </boundaryPoint>)
(<boundaryPoint> X-23.946 Y10.665 Z0.081 </boundaryPoint>)
(<boundaryPoint> X-24.846 Y10.751 Z0.081 </boundaryPoint>)
(<boundaryPoint> X-25.671 Y11.01 Z0.081 </boundaryPoint>)
(<boundaryPoint> X-26.419 Y11.441 Z0.081 </boundaryPoint>)
(<boundaryPoint> X-27.091 Y12.045 Z0.081 </boundaryPoint>)
(<boundaryPoint> X-27.647 Y12.768 Z0.081 </boundaryPoint>)
(<boundaryPoint> X-28.044 Y13.57 Z0.081 </boundaryPoint>)
(<boundaryPoint> X-28.282 Y14.453 Z0.081 </boundaryPoint>)
(<boundaryPoint> X-28.361 Y15.415 Z0.081 </boundaryPoint>)
(<boundaryPoint> X-28.073 Y17.264 Z0.081 </boundaryPoint>)
(<boundaryPoint> X-27.209 Y18.662 Z0.081 </boundaryPoint>)
(<boundaryPoint> X-25.769 Y19.606 Z0.081 </boundaryPoint>)
(<boundaryPoint> X-23.754 Y20.098 Z0.081 </boundaryPoint>)
(<boundaryPoint> X-23.754 Y17.895 Z0.081 </boundaryPoint>)
(<boundaryPoint> X-24.901 Y17.614 Z0.081 </boundaryPoint>)
(<boundaryPoint> X-25.721 Y17.097 Z0.081 </boundaryPoint>)
(<boundaryPoint> X-26.213 Y16.341 Z0.081 </boundaryPoint>)
(<boundaryPoint> X-26.377 Y15.349 Z0.081 </boundaryPoint>)
(<boundaryPoint> X-26.334 Y14.838 Z0.081 </boundaryPoint>)
(<boundaryPoint> X-26.204 Y14.37 Z0.081 </boundaryPoint>)
(<boundaryPoint> X-25.986 Y13.945 Z0.081 </boundaryPoint>)
(<boundaryPoint> X-25.682 Y13.563 Z0.081 </boundaryPoint>)
(<boundaryPoint> X-25.314 Y13.247 Z0.081 </boundaryPoint>)
(<boundaryPoint> X-24.905 Y13.021 Z0.081 </boundaryPoint>)
(<boundaryPoint> X-24.454 Y12.886 Z0.081 </boundaryPoint>)
(<boundaryPoint> X-23.961 Y12.841 Z0.081 </boundaryPoint>)
(<boundaryPoint> X-23.593 Y12.875 Z0.081 </boundaryPoint>)
(<boundaryPoint> X-23.202 Y12.976 Z0.081 </boundaryPoint>)
(<boundaryPoint> X-22.789 Y13.145 Z0.081 </boundaryPoint>)
(<boundaryPoint> X-21.545 Y13.917 Z0.081 </boundaryPoint>)
(<boundaryPoint> X-13.743 Y20.268 Z0.081 </boundaryPoint>)
(<boundaryPoint> X-13.6 Y20.344 Z0.081 </boundaryPoint>)
(<boundaryPoint> X-13.48 Y20.287 Z0.081 </boundaryPoint>)
(<boundaryPoint> X-13.449 Y20.128 Z0.081 </boundaryPoint>)
(<boundaryPoint> X-13.449 Y10.637 Z0.081 </boundaryPoint>)
(<boundaryPoint> X-15.561 Y10.637 Z0.081 </boundaryPoint>)
(<boundaryPoint> X-15.561 Y15.758 Z0.081 </boundaryPoint>)
(<boundaryPoint> X-15.836 Y15.886 Z0.081 </boundaryPoint>)
(<edge> inner )
G1 X-9.24 Y27.31 Z0.08 F3600.0
G1 X-13.31 Y20.43 Z0.08 F3600.0
G1 F1200.0
G1 E71.441
G1 F3600.0
M101
G1 X-13.3 Y20.42 Z0.08 F1080.0 E71.442
G1 X-13.25 Y20.15 Z0.08 F1080.0 E71.457
G1 X-13.25 Y10.44 Z0.08 F1080.0 E71.97
G1 X-15.76 Y10.44 Z0.08 F1080.0 E72.102
G1 X-15.76 Y15.63 Z0.08 F1080.0 E72.377
G1 X-15.8 Y15.65 Z0.08 F1080.0 E72.379
G1 X-19.17 Y12.81 Z0.08 F1080.0 E72.612
G1 X-20.84 Y11.54 Z0.08 F1080.0 E72.723
G1 X-21.51 Y11.13 Z0.08 F1080.0 E72.764
G1 X-22.11 Y10.84 Z0.08 F1080.0 E72.799
G1 X-22.71 Y10.63 Z0.08 F1080.0 E72.833
G1 X-23.32 Y10.51 Z0.08 F1080.0 E72.866
G1 X-23.95 Y10.46 Z0.08 F1080.0 E72.899
G1 X-24.89 Y10.55 Z0.08 F1080.0 E72.949
G1 X-25.75 Y10.83 Z0.08 F1080.0 E72.997
G1 X-26.54 Y11.28 Z0.08 F1080.0 E73.045
G1 X-27.24 Y11.91 Z0.08 F1080.0 E73.094
G1 X-27.82 Y12.66 Z0.08 F1080.0 E73.145
G1 X-28.23 Y13.5 Z0.08 F1080.0 E73.194
G1 X-28.48 Y14.42 Z0.08 F1080.0 E73.244
G1 X-28.56 Y15.42 Z0.08 F1080.0 E73.297
G1 X-28.26 Y17.34 Z0.08 F1080.0 E73.4
G1 X-27.36 Y18.8 Z0.08 F1080.0 E73.491
G1 X-25.85 Y19.79 Z0.08 F1080.0 E73.586
G1 X-23.56 Y20.34 Z0.08 F1080.0 E73.71
G1 X-23.55 Y17.74 Z0.08 F1080.0 E73.848
G1 X-24.82 Y17.43 Z0.08 F1080.0 E73.917
G1 X-25.58 Y16.95 Z0.08 F1080.0 E73.964
G1 X-26.02 Y16.27 Z0.08 F1080.0 E74.007
G1 X-26.18 Y15.34 Z0.08 F1080.0 E74.057
G1 X-26.14 Y14.87 Z0.08 F1080.0 E74.082
G1 X-26.02 Y14.44 Z0.08 F1080.0 E74.105
G1 X-25.82 Y14.05 Z0.08 F1080.0 E74.128
G1 X-25.54 Y13.7 Z0.08 F1080.0 E74.152
G1 X-25.2 Y13.41 Z0.08 F1080.0 E74.176
G1 X-24.83 Y13.21 Z0.08 F1080.0 E74.198
G1 X-24.42 Y13.08 Z0.08 F1080.0 E74.221
G1 X-23.96 Y13.04 Z0.08 F1080.0 E74.245
G1 X-23.63 Y13.07 Z0.08 F1080.0 E74.263
G1 X-23.27 Y13.17 Z0.08 F1080.0 E74.282
G1 X-22.88 Y13.32 Z0.08 F1080.0 E74.304
G1 X-21.66 Y14.08 Z0.08 F1080.0 E74.38
G1 X-13.85 Y20.43 Z0.08 F1080.0 E74.912
G1 X-13.61 Y20.57 Z0.08 F1080.0 E74.927
G1 X-13.31 Y20.43 Z0.08 F1080.0 E74.944
G1 F1200.0
G1 E73.944
G1 F1080.0
M103
(</edge>)
(</boundaryPerimeter>)
(</nestedRing>)
(<nestedRing>)
(<boundaryPerimeter>)
(<boundaryPoint> X-14.258 Y0.449 Z0.081 </boundaryPoint>)
(<boundaryPoint> X-15.085 Y-0.322 Z0.081 </boundaryPoint>)
(<boundaryPoint> X-16.226 Y-1.038 Z0.081 </boundaryPoint>)
(<boundaryPoint> X-17.554 Y-1.549 Z0.081 </boundaryPoint>)
(<boundaryPoint> X-19.069 Y-1.856 Z0.081 </boundaryPoint>)
(<boundaryPoint> X-20.772 Y-1.958 Z0.081 </boundaryPoint>)
(<boundaryPoint> X-22.48 Y-1.856 Z0.081 </boundaryPoint>)
(<boundaryPoint> X-23.999 Y-1.549 Z0.081 </boundaryPoint>)
(<boundaryPoint> X-25.328 Y-1.038 Z0.081 </boundaryPoint>)
(<boundaryPoint> X-26.469 Y-0.322 Z0.081 </boundaryPoint>)
(<boundaryPoint> X-27.297 Y0.449 Z0.081 </boundaryPoint>)
(<boundaryPoint> X-27.888 Y1.298 Z0.081 </boundaryPoint>)
(<boundaryPoint> X-28.243 Y2.223 Z0.081 </boundaryPoint>)
(<boundaryPoint> X-28.361 Y3.226 Z0.081 </boundaryPoint>)
(<boundaryPoint> X-28.243 Y4.229 Z0.081 </boundaryPoint>)
(<boundaryPoint> X-27.888 Y5.155 Z0.081 </boundaryPoint>)
(<boundaryPoint> X-27.297 Y6.003 Z0.081 </boundaryPoint>)
(<boundaryPoint> X-26.469 Y6.774 Z0.081 </boundaryPoint>)
(<boundaryPoint> X-25.334 Y7.49 Z0.081 </boundaryPoint>)
(<boundaryPoint> X-24.022 Y8.001 Z0.081 </boundaryPoint>)
(<boundaryPoint> X-22.533 Y8.308 Z0.081 </boundaryPoint>)
(<boundaryPoint> X-20.867 Y8.41 Z0.081 </boundaryPoint>)
(<boundaryPoint> X-19.123 Y8.308 Z0.081 </boundaryPoint>)
(<boundaryPoint> X-17.577 Y8.001 Z0.081 </boundaryPoint>)
(<boundaryPoint> X-16.232 Y7.49 Z0.081 </boundaryPoint>)
(<boundaryPoint> X-15.085 Y6.774 Z0.081 </boundaryPoint>)
(<boundaryPoint> X-14.258 Y5.995 Z0.081 </boundaryPoint>)
(<boundaryPoint> X-13.666 Y5.143 Z0.081 </boundaryPoint>)
(<boundaryPoint> X-13.312 Y4.216 Z0.081 </boundaryPoint>)
(<boundaryPoint> X-13.193 Y3.216 Z0.081 </boundaryPoint>)
(<boundaryPoint> X-13.312 Y2.218 Z0.081 </boundaryPoint>)
(<boundaryPoint> X-13.666 Y1.295 Z0.081 </boundaryPoint>)
(<edge> inner )
G1 X-13.25 Y10.44 Z0.08 F3600.0
G1 X-17.53 Y8.2 Z0.08 F3600.0
G1 F1200.0
G1 E74.944
G1 F3600.0
M101
G1 X-17.52 Y8.19 Z0.08 F1080.0 E74.944
G1 X-16.14 Y7.67 Z0.08 F1080.0 E75.022
G1 X-14.96 Y6.93 Z0.08 F1080.0 E75.096
G1 X-14.11 Y6.13 Z0.08 F1080.0 E75.158
G1 X-13.49 Y5.24 Z0.08 F1080.0 E75.215
G1 X-13.12 Y4.26 Z0.08 F1080.0 E75.27
G1 X-12.99 Y3.22 Z0.08 F1080.0 E75.326
G1 X-13.12 Y2.17 Z0.08 F1080.0 E75.382
G1 X-13.49 Y1.2 Z0.08 F1080.0 E75.436
G1 X-14.11 Y0.32 Z0.08 F1080.0 E75.493
G1 X-14.96 Y-0.48 Z0.08 F1080.0 E75.555
G1 X-16.14 Y-1.22 Z0.08 F1080.0 E75.628
G1 X-17.5 Y-1.74 Z0.08 F1080.0 E75.706
G1 X-19.04 Y-2.06 Z0.08 F1080.0 E75.789
G1 X-20.77 Y-2.16 Z0.08 F1080.0 E75.88
G1 X-22.51 Y-2.06 Z0.08 F1080.0 E75.972
G1 X-24.05 Y-1.74 Z0.08 F1080.0 E76.056
G1 X-25.42 Y-1.22 Z0.08 F1080.0 E76.133
G1 X-26.59 Y-0.48 Z0.08 F1080.0 E76.206
G1 X-27.45 Y0.32 Z0.08 F1080.0 E76.268
G1 X-28.07 Y1.2 Z0.08 F1080.0 E76.325
G1 X-28.44 Y2.17 Z0.08 F1080.0 E76.38
G1 X-28.56 Y3.23 Z0.08 F1080.0 E76.436
G1 X-28.44 Y4.28 Z0.08 F1080.0 E76.492
G1 X-28.07 Y5.25 Z0.08 F1080.0 E76.547
G1 X-27.45 Y6.13 Z0.08 F1080.0 E76.604
G1 X-26.59 Y6.93 Z0.08 F1080.0 E76.665
G1 X-25.42 Y7.67 Z0.08 F1080.0 E76.738
G1 X-24.08 Y8.19 Z0.08 F1080.0 E76.815
G1 X-22.56 Y8.51 Z0.08 F1080.0 E76.897
G1 X-20.87 Y8.61 Z0.08 F1080.0 E76.986
G1 X-19.1 Y8.51 Z0.08 F1080.0 E77.08
G1 X-17.53 Y8.2 Z0.08 F1080.0 E77.164
G1 F1200.0
G1 E76.164
G1 F1080.0
M103
(</edge>)
(</boundaryPerimeter>)
(<nestedRing>)
(<boundaryPerimeter>)
(<boundaryPoint> X-16.075 Y4.936 Z0.081 </boundaryPoint>)
(<boundaryPoint> X-16.773 Y5.388 Z0.081 </boundaryPoint>)
(<boundaryPoint> X-17.637 Y5.758 Z0.081 </boundaryPoint>)
(<boundaryPoint> X-18.605 Y6.023 Z0.081 </boundaryPoint>)
(<boundaryPoint> X-19.677 Y6.181 Z0.081 </boundaryPoint>)
(<boundaryPoint> X-20.853 Y6.234 Z0.081 </boundaryPoint>)
(<boundaryPoint> X-21.985 Y6.181 Z0.081 </boundaryPoint>)
(<boundaryPoint> X-23.018 Y6.02 Z0.081 </boundaryPoint>)
(<boundaryPoint> X-23.954 Y5.753 Z0.081 </boundaryPoint>)
(<boundaryPoint> X-24.791 Y5.379 Z0.081 </boundaryPoint>)
(<boundaryPoint> X-25.485 Y4.924 Z0.081 </boundaryPoint>)
(<boundaryPoint> X-25.981 Y4.414 Z0.081 </boundaryPoint>)
(<boundaryPoint> X-26.278 Y3.85 Z0.081 </boundaryPoint>)
(<boundaryPoint> X-26.377 Y3.231 Z0.081 </boundaryPoint>)
(<boundaryPoint> X-26.278 Y2.608 Z0.081 </boundaryPoint>)
(<boundaryPoint> X-25.981 Y2.041 Z0.081 </boundaryPoint>)
(<boundaryPoint> X-25.485 Y1.529 Z0.081 </boundaryPoint>)
(<boundaryPoint> X-24.791 Y1.073 Z0.081 </boundaryPoint>)
(<boundaryPoint> X-23.942 Y0.699 Z0.081 </boundaryPoint>)
(<boundaryPoint> X-22.99 Y0.432 Z0.081 </boundaryPoint>)
(<boundaryPoint> X-21.935 Y0.272 Z0.081 </boundaryPoint>)
(<boundaryPoint> X-20.777 Y0.218 Z0.081 </boundaryPoint>)
(<boundaryPoint> X-19.62 Y0.272 Z0.081 </boundaryPoint>)
(<boundaryPoint> X-18.567 Y0.432 Z0.081 </boundaryPoint>)
(<boundaryPoint> X-17.618 Y0.699 Z0.081 </boundaryPoint>)
(<boundaryPoint> X-16.773 Y1.073 Z0.081 </boundaryPoint>)
(<boundaryPoint> X-16.075 Y1.529 Z0.081 </boundaryPoint>)
(<boundaryPoint> X-15.576 Y2.041 Z0.081 </boundaryPoint>)
(<boundaryPoint> X-15.277 Y2.608 Z0.081 </boundaryPoint>)
(<boundaryPoint> X-15.177 Y3.231 Z0.081 </boundaryPoint>)
(<boundaryPoint> X-15.277 Y3.858 Z0.081 </boundaryPoint>)
(<boundaryPoint> X-15.576 Y4.426 Z0.081 </boundaryPoint>)
(<edge> outer )
G1 X-18.2 Y5.71 Z0.08 F3600.0
G1 F1200.0
G1 E77.164
G1 F3600.0
M101
G1 X-18.2 Y5.71 Z0.08 F1080.0 E77.165
G1 X-18.65 Y5.83 Z0.08 F1080.0 E77.189
G1 X-19.7 Y5.98 Z0.08 F1080.0 E77.245
G1 X-20.85 Y6.03 Z0.08 F1080.0 E77.306
G1 X-21.96 Y5.98 Z0.08 F1080.0 E77.365
G1 X-22.98 Y5.82 Z0.08 F1080.0 E77.419
G1 X-23.89 Y5.57 Z0.08 F1080.0 E77.469
G1 X-24.7 Y5.2 Z0.08 F1080.0 E77.516
G1 X-25.36 Y4.77 Z0.08 F1080.0 E77.558
G1 X-25.82 Y4.29 Z0.08 F1080.0 E77.593
G1 X-26.09 Y3.79 Z0.08 F1080.0 E77.623
G1 X-26.17 Y3.23 Z0.08 F1080.0 E77.653
G1 X-26.09 Y2.67 Z0.08 F1080.0 E77.683
G1 X-25.82 Y2.16 Z0.08 F1080.0 E77.713
G1 X-25.36 Y1.68 Z0.08 F1080.0 E77.748
G1 X-24.7 Y1.25 Z0.08 F1080.0 E77.79
G1 X-23.87 Y0.89 Z0.08 F1080.0 E77.837
G1 X-22.95 Y0.63 Z0.08 F1080.0 E77.888
G1 X-21.91 Y0.47 Z0.08 F1080.0 E77.943
G1 X-20.78 Y0.42 Z0.08 F1080.0 E78.003
G1 X-19.64 Y0.47 Z0.08 F1080.0 E78.064
G1 X-18.61 Y0.63 Z0.08 F1080.0 E78.119
G1 X-17.69 Y0.89 Z0.08 F1080.0 E78.169
G1 X-16.87 Y1.25 Z0.08 F1080.0 E78.217
G1 X-16.2 Y1.68 Z0.08 F1080.0 E78.259
G1 X-15.74 Y2.16 Z0.08 F1080.0 E78.294
G1 X-15.47 Y2.67 Z0.08 F1080.0 E78.324
G1 X-15.38 Y3.23 Z0.08 F1080.0 E78.354
G1 X-15.47 Y3.79 Z0.08 F1080.0 E78.384
G1 X-15.74 Y4.31 Z0.08 F1080.0 E78.415
G1 X-16.2 Y4.78 Z0.08 F1080.0 E78.45
G1 X-16.87 Y5.21 Z0.08 F1080.0 E78.492
G1 X-17.7 Y5.57 Z0.08 F1080.0 E78.54
G1 X-18.2 Y5.71 Z0.08 F1080.0 E78.567
G1 F1200.0
G1 E78.567
G1 F1080.0
M103
(</edge>)
(</boundaryPerimeter>)
(<loop> outer )
;M108 R32.0
G1 X-18.41 Y4.93 Z0.08 F3600.0
G1 F1200.0
G1 E78.567
G1 F3600.0
M101
G1 X-18.41 Y4.93 Z0.08 F2160.0 E78.567
G1 X-18.81 Y5.04 Z0.08 F2160.0 E78.586
G1 X-19.77 Y5.18 Z0.08 F2160.0 E78.632
G1 X-20.85 Y5.23 Z0.08 F2160.0 E78.683
G1 X-21.88 Y5.18 Z0.08 F2160.0 E78.731
G1 X-22.8 Y5.04 Z0.08 F2160.0 E78.775
G1 X-23.61 Y4.81 Z0.08 F2160.0 E78.814
G1 X-24.31 Y4.5 Z0.08 F2160.0 E78.85
G1 X-24.84 Y4.15 Z0.08 F2160.0 E78.88
G1 X-25.16 Y3.82 Z0.08 F2160.0 E78.902
G1 X-25.32 Y3.53 Z0.08 F2160.0 E78.917
G1 X-25.36 Y3.23 Z0.08 F2160.0 E78.932
G1 X-25.32 Y2.93 Z0.08 F2160.0 E78.946
G1 X-25.16 Y2.63 Z0.08 F2160.0 E78.962
G1 X-24.84 Y2.3 Z0.08 F2160.0 E78.983
G1 X-24.31 Y1.96 Z0.08 F2160.0 E79.013
G1 X-23.6 Y1.64 Z0.08 F2160.0 E79.049
G1 X-22.78 Y1.41 Z0.08 F2160.0 E79.089
G1 X-21.84 Y1.27 Z0.08 F2160.0 E79.134
G1 X-20.78 Y1.22 Z0.08 F2160.0 E79.184
G1 X-19.72 Y1.27 Z0.08 F2160.0 E79.234
G1 X-18.78 Y1.41 Z0.08 F2160.0 E79.278
G1 X-17.96 Y1.64 Z0.08 F2160.0 E79.318
G1 X-17.25 Y1.96 Z0.08 F2160.0 E79.355
G1 X-16.71 Y2.31 Z0.08 F2160.0 E79.385
G1 X-16.39 Y2.63 Z0.08 F2160.0 E79.406
G1 X-16.24 Y2.93 Z0.08 F2160.0 E79.422
G1 X-16.19 Y3.23 Z0.08 F2160.0 E79.436
G1 X-16.24 Y3.54 Z0.08 F2160.0 E79.451
G1 X-16.39 Y3.83 Z0.08 F2160.0 E79.467
G1 X-16.71 Y4.16 Z0.08 F2160.0 E79.488
G1 X-17.25 Y4.5 Z0.08 F2160.0 E79.518
G1 X-17.97 Y4.81 Z0.08 F2160.0 E79.555
G1 X-18.41 Y4.93 Z0.08 F2160.0 E79.576
G1 F1200.0
G1 E79.576
G1 F2160.0
M103
(</loop>)
(<loop> outer )
G1 X-18.3 Y5.32 Z0.08 F3600.0
G1 F1200.0
G1 E79.576
G1 F3600.0
M101
G1 X-18.31 Y5.32 Z0.08 F2160.0 E79.576
G1 X-18.73 Y5.43 Z0.08 F2160.0 E79.597
G1 X-19.73 Y5.58 Z0.08 F2160.0 E79.645
G1 X-20.85 Y5.63 Z0.08 F2160.0 E79.697
G1 X-21.93 Y5.58 Z0.08 F2160.0 E79.748
G1 X-22.89 Y5.43 Z0.08 F2160.0 E79.793
G1 X-23.75 Y5.19 Z0.08 F2160.0 E79.835
G1 X-24.5 Y4.85 Z0.08 F2160.0 E79.874
G1 X-25.1 Y4.46 Z0.08 F2160.0 E79.908
G1 X-25.49 Y4.06 Z0.08 F2160.0 E79.934
G1 X-25.7 Y3.66 Z0.08 F2160.0 E79.955
G1 X-25.77 Y3.23 Z0.08 F2160.0 E79.976
G1 X-25.7 Y2.8 Z0.08 F2160.0 E79.996
G1 X-25.49 Y2.4 Z0.08 F2160.0 E80.017
G1 X-25.1 Y1.99 Z0.08 F2160.0 E80.044
G1 X-24.5 Y1.6 Z0.08 F2160.0 E80.077
G1 X-23.74 Y1.26 Z0.08 F2160.0 E80.116
G1 X-22.86 Y1.02 Z0.08 F2160.0 E80.159
G1 X-21.88 Y0.87 Z0.08 F2160.0 E80.206
G1 X-20.78 Y0.82 Z0.08 F2160.0 E80.258
G1 X-19.68 Y0.87 Z0.08 F2160.0 E80.309
G1 X-18.69 Y1.02 Z0.08 F2160.0 E80.356
G1 X-17.82 Y1.26 Z0.08 F2160.0 E80.399
G1 X-17.06 Y1.6 Z0.08 F2160.0 E80.438
G1 X-16.46 Y2.0 Z0.08 F2160.0 E80.471
G1 X-16.07 Y2.4 Z0.08 F2160.0 E80.498
G1 X-15.85 Y2.8 Z0.08 F2160.0 E80.519
G1 X-15.79 Y3.23 Z0.08 F2160.0 E80.54
G1 X-15.85 Y3.67 Z0.08 F2160.0 E80.56
G1 X-16.07 Y4.07 Z0.08 F2160.0 E80.582
G1 X-16.46 Y4.47 Z0.08 F2160.0 E80.608
G1 X-17.06 Y4.86 Z0.08 F2160.0 E80.642
G1 X-17.84 Y5.19 Z0.08 F2160.0 E80.681
G1 X-18.3 Y5.32 Z0.08 F2160.0 E80.704
G1 F1200.0
G1 E79.704
G1 F2160.0
M103
(</loop>)
(<infill>)
G1 X-16.8 Y3.85 Z0.08 F3600.0
G1 F1200.0
G1 E80.704
G1 F3600.0
M101
G1 X-16.8 Y2.62 Z0.08 F2160.0 E80.762
G1 X-17.2 Y2.32 Z0.08 F2160.0 E80.785
G1 X-17.2 Y4.14 Z0.08 F2160.0 E80.871
G1 X-17.6 Y4.35 Z0.08 F2160.0 E80.892
G1 X-17.6 Y2.11 Z0.08 F2160.0 E80.997
G1 X-18.0 Y1.93 Z0.08 F2160.0 E81.018
G1 X-18.0 Y4.52 Z0.08 F2160.0 E81.139
G1 X-18.4 Y4.64 Z0.08 F2160.0 E81.159
G1 X-18.4 Y1.81 Z0.08 F2160.0 E81.292
G1 X-18.8 Y1.7 Z0.08 F2160.0 E81.311
G1 X-18.8 Y4.75 Z0.08 F2160.0 E81.455
G1 X-19.2 Y4.82 Z0.08 F2160.0 E81.474
G1 X-19.2 Y1.63 Z0.08 F2160.0 E81.623
G1 X-19.6 Y1.57 Z0.08 F2160.0 E81.642
G1 X-19.6 Y4.88 Z0.08 F2160.0 E81.798
G1 X-20.0 Y4.91 Z0.08 F2160.0 E81.816
G1 X-20.0 Y1.54 Z0.08 F2160.0 E81.975
G1 X-20.4 Y1.52 Z0.08 F2160.0 E81.994
G1 X-20.4 Y4.93 Z0.08 F2160.0 E82.154
G1 X-20.8 Y4.95 Z0.08 F2160.0 E82.173
G1 X-20.8 Y1.5 Z0.08 F2160.0 E82.335
G1 X-21.2 Y1.52 Z0.08 F2160.0 E82.354
G1 X-21.2 Y4.94 Z0.08 F2160.0 E82.514
G1 X-21.6 Y4.92 Z0.08 F2160.0 E82.533
G1 X-21.6 Y1.54 Z0.08 F2160.0 E82.692
G1 X-22.0 Y1.58 Z0.08 F2160.0 E82.711
G1 X-22.0 Y4.88 Z0.08 F2160.0 E82.866
G1 X-22.4 Y4.82 Z0.08 F2160.0 E82.885
G1 X-22.4 Y1.64 Z0.08 F2160.0 E83.034
G1 X-22.8 Y1.71 Z0.08 F2160.0 E83.053
G1 X-22.8 Y4.75 Z0.08 F2160.0 E83.196
G1 X-23.2 Y4.64 Z0.08 F2160.0 E83.216
G1 X-23.2 Y1.82 Z0.08 F2160.0 E83.348
G1 X-23.6 Y1.95 Z0.08 F2160.0 E83.368
G1 X-23.6 Y4.51 Z0.08 F2160.0 E83.488
G1 X-24.0 Y4.33 Z0.08 F2160.0 E83.509
G1 X-24.0 Y2.12 Z0.08 F2160.0 E83.612
G1 X-24.4 Y2.35 Z0.08 F2160.0 E83.634
G1 X-24.4 Y4.11 Z0.08 F2160.0 E83.716
G1 X-24.8 Y3.79 Z0.08 F2160.0 E83.74
G1 X-24.8 Y2.66 Z0.08 F2160.0 E83.793
G1 F1200.0
G1 E82.793
G1 F2160.0
M103
(</infill>)
(</nestedRing>)
(</nestedRing>)
(<nestedRing>)
(<boundaryPerimeter>)
(<boundaryPoint> X-26.316 Y-3.98 Z0.081 </boundaryPoint>)
(<boundaryPoint> X-26.151 Y-3.911 Z0.081 </boundaryPoint>)
(<boundaryPoint> X-26.016 Y-3.989 Z0.081 </boundaryPoint>)
(<boundaryPoint> X-25.993 Y-4.167 Z0.081 </boundaryPoint>)
(<boundaryPoint> X-25.993 Y-6.331 Z0.081 </boundaryPoint>)
(<boundaryPoint> X-13.449 Y-6.331 Z0.081 </boundaryPoint>)
(<boundaryPoint> X-13.449 Y-8.507 Z0.081 </boundaryPoint>)
(<boundaryPoint> X-28.105 Y-8.507 Z0.081 </boundaryPoint>)
(<boundaryPoint> X-28.105 Y-5.01 Z0.081 </boundaryPoint>)
(<edge> inner )
;M108 R18.0
G1 X-26.14 Y-3.69 Z0.08 F3600.0
G1 F1200.0
G1 E83.793
G1 F3600.0
M101
G1 X-26.14 Y-3.69 Z0.08 F1080.0 E83.794
G1 X-25.83 Y-3.87 Z0.08 F1080.0 E83.812
G1 X-25.79 Y-4.15 Z0.08 F1080.0 E83.828
G1 X-25.79 Y-6.13 Z0.08 F1080.0 E83.932
G1 X-13.25 Y-6.13 Z0.08 F1080.0 E84.595
G1 X-13.25 Y-8.71 Z0.08 F1080.0 E84.731
G1 X-28.3 Y-8.71 Z0.08 F1080.0 E85.526
G1 X-28.3 Y-4.89 Z0.08 F1080.0 E85.728
G1 X-26.41 Y-3.8 Z0.08 F1080.0 E85.843
G1 X-26.14 Y-3.69 Z0.08 F1080.0 E85.858
G1 F1200.0
G1 E84.858
G1 F1080.0
M103
(</edge>)
(</boundaryPerimeter>)
(</nestedRing>)
(<nestedRing>)
(<boundaryPerimeter>)
(<boundaryPoint> X-17.545 Y-20.842 Z0.081 </boundaryPoint>)
(<boundaryPoint> X-28.803 Y-20.842 Z0.081 </boundaryPoint>)
(<boundaryPoint> X-28.924 Y-20.804 Z0.081 </boundaryPoint>)
(<boundaryPoint> X-28.95 Y-20.721 Z0.081 </boundaryPoint>)
(<boundaryPoint> X-28.871 Y-20.621 Z0.081 </boundaryPoint>)
(<boundaryPoint> X-15.871 Y-11.678 Z0.081 </boundaryPoint>)
(<boundaryPoint> X-15.717 Y-11.605 Z0.081 </boundaryPoint>)
(<boundaryPoint> X-15.588 Y-11.673 Z0.081 </boundaryPoint>)
(<boundaryPoint> X-15.561 Y-11.841 Z0.081 </boundaryPoint>)
(<boundaryPoint> X-15.561 Y-18.666 Z0.081 </boundaryPoint>)
(<boundaryPoint> X-13.449 Y-18.666 Z0.081 </boundaryPoint>)
(<boundaryPoint> X-13.449 Y-20.88 Z0.081 </boundaryPoint>)
(<boundaryPoint> X-15.561 Y-20.88 Z0.081 </boundaryPoint>)
(<boundaryPoint> X-15.561 Y-22.438 Z0.081 </boundaryPoint>)
(<boundaryPoint> X-17.545 Y-22.438 Z0.081 </boundaryPoint>)
(<edge> inner )
G1 X-25.59 Y-4.14 Z0.08 F3600.0
G1 X-26.13 Y-3.55 Z0.08 F3600.0
G1 X-28.41 Y-4.84 Z0.08 F3600.0
G1 X-28.3 Y-8.71 Z0.08 F3600.0
G1 X-19.23 Y-13.74 Z0.08 F3600.0
G1 F1200.0
G1 E85.858
G1 F3600.0
M101
G1 X-19.22 Y-13.74 Z0.08 F1080.0 E85.859
G1 X-15.97 Y-11.5 Z0.08 F1080.0 E86.067
G1 X-15.71 Y-11.38 Z0.08 F1080.0 E86.082
G1 X-15.41 Y-11.54 Z0.08 F1080.0 E86.1
G1 X-15.36 Y-11.82 Z0.08 F1080.0 E86.116
G1 X-15.36 Y-18.47 Z0.08 F1080.0 E86.466
G1 X-13.25 Y-18.47 Z0.08 F1080.0 E86.578
G1 X-13.25 Y-21.08 Z0.08 F1080.0 E86.716
G1 X-15.36 Y-21.08 Z0.08 F1080.0 E86.828
G1 X-15.36 Y-22.64 Z0.08 F1080.0 E86.91
G1 X-17.75 Y-22.64 Z0.08 F1080.0 E87.036
G1 X-17.75 Y-21.04 Z0.08 F1080.0 E87.12
G1 X-28.83 Y-21.04 Z0.08 F1080.0 E87.706
G1 X-29.08 Y-20.96 Z0.08 F1080.0 E87.72
G1 X-29.17 Y-20.68 Z0.08 F1080.0 E87.736
G1 X-29.01 Y-20.47 Z0.08 F1080.0 E87.749
G1 X-19.23 Y-13.74 Z0.08 F1080.0 E88.377
G1 F1200.0
G1 E87.377
G1 F1080.0
M103
(</edge>)
(</boundaryPerimeter>)
(<nestedRing>)
(<boundaryPerimeter>)
(<boundaryPoint> X-17.545 Y-18.666 Z0.081 </boundaryPoint>)
(<boundaryPoint> X-17.545 Y-15.644 Z0.081 </boundaryPoint>)
(<boundaryPoint> X-17.841 Y-15.488 Z0.081 </boundaryPoint>)
(<boundaryPoint> X-21.63 Y-18.097 Z0.081 </boundaryPoint>)
(<boundaryPoint> X-21.955 Y-18.51 Z0.081 </boundaryPoint>)
(<boundaryPoint> X-21.453 Y-18.666 Z0.081 </boundaryPoint>)
(<edge> outer )
G1 X-17.82 Y-15.72 Z0.08 F3600.0
G1 F1200.0
G1 E88.377
G1 F3600.0
M101
G1 X-17.83 Y-15.72 Z0.08 F1080.0 E88.377
G1 X-21.81 Y-18.47 Z0.08 F1080.0 E88.633
G1 X-17.75 Y-18.47 Z0.08 F1080.0 E88.847
G1 X-17.75 Y-15.77 Z0.08 F1080.0 E88.99
G1 X-17.82 Y-15.72 Z0.08 F1080.0 E88.995
G1 F1200.0
G1 E88.703
G1 F1080.0
M103
(</edge>)
(</boundaryPerimeter>)
(<loop> outer )
;M108 R32.0
G1 X-18.42 Y-16.87 Z0.08 F3600.0
G1 F1200.0
G1 E88.995
G1 F3600.0
M101
G1 X-18.43 Y-16.86 Z0.08 F2160.0 E88.995
G1 X-18.63 Y-16.76 Z0.08 F2160.0 E89.006
G1 X-20.19 Y-17.84 Z0.08 F2160.0 E89.095
G1 X-20.12 Y-18.07 Z0.08 F2160.0 E89.106
G1 X-18.14 Y-18.07 Z0.08 F2160.0 E89.199
G1 X-18.14 Y-17.01 Z0.08 F2160.0 E89.248
G1 X-18.42 Y-16.87 Z0.08 F2160.0 E89.263
G1 F1200.0
G1 E89.263
G1 F2160.0
M103
(</loop>)
(<infill>)
G1 X-18.8 Y-17.22 Z0.08 F3600.0
G1 F1200.0
G1 E89.263
G1 F3600.0
M101
G1 X-18.8 Y-17.79 Z0.08 F2160.0 E89.29
G1 X-19.2 Y-17.79 Z0.08 F2160.0 E89.309
G1 X-19.2 Y-17.49 Z0.08 F2160.0 E89.322
G1 F1200.0
G1 E88.322
G1 F2160.0
M103
(</infill>)
(</nestedRing>)
(</nestedRing>)
(<nestedRing>)
(<boundaryPerimeter>)
(<boundaryPoint> X25.418 Y-16.044 Z0.081 </boundaryPoint>)
(<boundaryPoint> X24.785 Y-16.739 Z0.081 </boundaryPoint>)
(<boundaryPoint> X24.39 Y-17.049 Z0.081 </boundaryPoint>)
(<boundaryPoint> X23.959 Y-17.304 Z0.081 </boundaryPoint>)
(<boundaryPoint> X23.491 Y-17.504 Z0.081 </boundaryPoint>)
(<boundaryPoint> X22.986 Y-17.648 Z0.081 </boundaryPoint>)
(<boundaryPoint> X21.325 Y-17.808 Z0.081 </boundaryPoint>)
(<boundaryPoint> X11.896 Y-17.812 Z0.081 </boundaryPoint>)
(<boundaryPoint> X11.896 Y-15.636 Z0.081 </boundaryPoint>)
