; generated by PrusaSlicer 2.0.0+ on 2019-08-06 at 00:35:10

; 

; external perimeters extrusion width = 0.45mm
; perimeters extrusion width = 0.45mm
; infill extrusion width = 0.45mm
; solid infill extrusion width = 0.45mm
; top infill extrusion width = 0.40mm
; support material extrusion width = 0.35mm
; first layer extrusion width = 0.42mm

M107
M190 S40 ; set bed temperature and wait for it to be reached
M104 S210 ; set temperature
G28 X0
G28 Y0
G28 Z0; home all axes
G1 Z10 F5000 ; lift nozzle
; Filament gcode
M109 S210 ; set temperature and wait for it to be reached
G21 ; set units to millimeters
G90 ; use absolute coordinates
M82 ; use absolute distances for extrusion
G92 E0
G1 Z0.350 F6000.000
G1 X78.210 Y43.896
G1 F1200
G1 X79.358 Y43.588 E0.05969
G1 X81.909 Y43.240 E0.18885
G1 X167.906 Y43.238 E4.50473
G1 X168.765 Y43.293 E4.54790
G1 X170.602 Y43.581 E4.64120
G1 X171.831 Y43.911 E4.70509
G1 X174.284 Y45.120 E4.84234
G1 X175.566 Y46.080 E4.92271
G1 X176.933 Y47.448 E5.01975
G1 X177.483 Y48.109 E5.06292
G1 X177.956 Y48.850 E5.10706
G1 X178.802 Y50.503 E5.20023
G1 X179.337 Y51.992 E5.27963
G1 X179.733 Y54.480 E5.40609
G1 X179.750 Y118.314 E8.60962
G1 X179.346 Y120.970 E8.74444
G1 X178.790 Y122.519 E8.82707
G1 X177.948 Y124.164 E8.91979
G1 X177.440 Y124.945 E8.96652
G1 X176.891 Y125.589 E9.00904
G1 X175.322 Y127.140 E9.11975
G1 X174.173 Y127.943 E9.19010
G1 X171.783 Y129.107 E9.32349
G1 X170.641 Y129.413 E9.38286
G1 X168.091 Y129.760 E9.51198
G1 X81.977 Y129.761 E13.83370
G1 X79.138 Y129.370 E13.97754
G1 X78.333 Y129.148 E14.01941
G1 X77.556 Y128.828 E14.06161
G1 X75.840 Y127.950 E14.15834
G1 X75.058 Y127.445 E14.20507
G1 X74.392 Y126.880 E14.24889
G1 X72.874 Y125.337 E14.35752
G1 X72.074 Y124.194 E14.42755
G1 X70.902 Y121.809 E14.56091
G1 X70.592 Y120.667 E14.62027
G1 X70.245 Y118.171 E14.74675
G1 X70.240 Y54.945 E17.91981
G1 X70.633 Y52.125 E18.06270
G1 X70.856 Y51.321 E18.10457
G1 X71.178 Y50.544 E18.14677
G1 X72.046 Y48.848 E18.24241
G1 X72.548 Y48.071 E18.28882
G1 X73.105 Y47.415 E18.33199
G1 X74.667 Y45.871 E18.44224
G1 X75.810 Y45.071 E18.51227
G1 X78.156 Y43.922 E18.64334
G1 X78.307 Y44.231 F6000.000
G1 F1200
G1 X79.425 Y43.926 E18.70150
G1 X81.921 Y43.585 E18.82794
G1 X167.906 Y43.583 E23.14317
G1 X168.730 Y43.636 E23.18461
G1 X170.546 Y43.921 E23.27683
G1 X171.713 Y44.235 E23.33751
G1 X174.113 Y45.420 E23.47185
G1 X175.336 Y46.338 E23.54859
G1 X176.681 Y47.684 E23.64406
G1 X177.209 Y48.318 E23.68549
G1 X177.659 Y49.026 E23.72756
G1 X178.496 Y50.664 E23.81989
G1 X179.003 Y52.080 E23.89537
G1 X179.391 Y54.522 E24.01949
G1 X179.406 Y118.284 E27.21944
G1 X179.011 Y120.886 E27.35149
G1 X178.481 Y122.367 E27.43042
G1 X177.649 Y123.990 E27.52198
G1 X177.166 Y124.736 E27.56658
G1 X176.638 Y125.355 E27.60738
G1 X175.087 Y126.888 E27.71684
G1 X173.997 Y127.646 E27.78351
G1 X171.658 Y128.785 E27.91406
G1 X170.574 Y129.074 E27.97033
G1 X168.079 Y129.415 E28.09676
G1 X81.986 Y129.416 E32.41736
G1 X79.213 Y129.033 E32.55788
G1 X77.701 Y128.515 E32.63807
G1 X76.007 Y127.649 E32.73356
G1 X75.261 Y127.167 E32.77815
G1 X74.627 Y126.627 E32.81991
G1 X73.123 Y125.097 E32.92760
G1 X72.370 Y124.018 E32.99364
G1 X71.221 Y121.676 E33.12454
G1 X70.929 Y120.594 E33.18081
G1 X70.589 Y118.150 E33.30461
G1 X70.584 Y54.955 E36.47611
G1 X70.970 Y52.201 E36.61571
G1 X71.491 Y50.690 E36.69590
G1 X72.345 Y49.021 E36.78998
G1 X72.827 Y48.274 E36.83458
G1 X73.357 Y47.650 E36.87570
G1 X74.902 Y46.123 E36.98470
G1 X75.987 Y45.368 E37.05106
G1 X78.253 Y44.257 E37.17771
G1 X78.405 Y44.566 F6000.000
G1 F1200
G1 X79.493 Y44.264 E37.23440
G1 X81.935 Y43.930 E37.35807
G1 X167.906 Y43.928 E41.67264
G1 X168.690 Y43.978 E41.71204
G1 X170.483 Y44.260 E41.80316
G1 X171.590 Y44.557 E41.86068
G1 X173.932 Y45.714 E41.99177
G1 X175.103 Y46.592 E42.06521
G1 X176.425 Y47.915 E42.15909
G1 X176.932 Y48.523 E42.19880
G1 X177.359 Y49.196 E42.23882
G1 X178.188 Y50.819 E42.33025
G1 X178.671 Y52.174 E42.40247
G1 X179.049 Y54.570 E42.52421
G1 X179.062 Y118.262 E45.72062
G1 X178.677 Y120.802 E45.84958
G1 X178.169 Y122.220 E45.92517
G1 X177.351 Y123.817 E46.01522
G1 X176.887 Y124.533 E46.05800
G1 X174.852 Y126.635 E46.20483
G1 X173.820 Y127.350 E46.26787
G1 X171.532 Y128.464 E46.39555
G1 X170.507 Y128.736 E46.44877
G1 X168.065 Y129.070 E46.57246
G1 X81.990 Y129.071 E50.89226
G1 X79.288 Y128.696 E51.02916
G1 X77.846 Y128.201 E51.10566
G1 X76.180 Y127.350 E51.19955
G1 X75.469 Y126.891 E51.24203
G1 X74.866 Y126.378 E51.28174
G1 X73.376 Y124.863 E51.38840
G1 X72.667 Y123.841 E51.45083
G1 X71.542 Y121.550 E51.57892
G1 X71.268 Y120.525 E51.63215
G1 X70.934 Y118.130 E51.75354
G1 X70.929 Y54.959 E54.92381
G1 X71.306 Y52.276 E55.05981
G1 X71.801 Y50.840 E55.13601
G1 X72.643 Y49.193 E55.22882
G1 X73.106 Y48.477 E55.27161
G1 X75.137 Y46.376 E55.41828
G1 X76.164 Y45.664 E55.48101
G1 X78.351 Y44.592 E55.60321
G92 E0
G1 X100.080 Y107.144 F6000.000
G1 F1200
G1 X100.311 Y108.600 E0.07397
G1 X100.080 Y110.056 E0.14794
G1 X99.411 Y111.369 E0.22191
G1 X98.369 Y112.411 E0.29588
G1 X97.056 Y113.080 E0.36985
G1 X95.600 Y113.311 E0.44382
G1 X94.144 Y113.080 E0.51780
G1 X92.831 Y112.411 E0.59176
G1 X91.789 Y111.369 E0.66574
G1 X91.120 Y110.056 E0.73970
G1 X90.889 Y108.600 E0.81368
G1 X91.120 Y107.144 E0.88765
G1 X91.789 Y105.831 E0.96162
G1 X92.831 Y104.789 E1.03559
G1 X94.144 Y104.120 E1.10956
G1 X95.600 Y103.889 E1.18353
G1 X97.056 Y104.120 E1.25750
G1 X98.369 Y104.789 E1.33147
G1 X99.411 Y105.831 E1.40544
G1 X100.053 Y107.091 E1.47640
G1 X99.748 Y107.252 F6000.000
G1 F1200
G1 X99.962 Y108.600 E1.54489
G1 X99.748 Y109.948 E1.61338
G1 X99.129 Y111.164 E1.68186
G1 X98.164 Y112.129 E1.75035
G1 X96.948 Y112.748 E1.81884
G1 X95.600 Y112.962 E1.88732
G1 X94.252 Y112.748 E1.95581
G1 X93.036 Y112.129 E2.02430
G1 X92.071 Y111.164 E2.09279
G1 X91.452 Y109.948 E2.16127
G1 X91.238 Y108.600 E2.22976
G1 X91.452 Y107.252 E2.29825
G1 X92.071 Y106.036 E2.36674
G1 X93.036 Y105.071 E2.43523
G1 X94.252 Y104.452 E2.50371
G1 X95.600 Y104.238 E2.57220
G1 X96.948 Y104.452 E2.64069
G1 X98.164 Y105.071 E2.70917
G1 X99.129 Y106.036 E2.77766
G1 X99.721 Y107.199 E2.84314
G1 X99.416 Y107.360 F6000.000
G1 F1200
G1 X99.613 Y108.600 E2.90614
G1 X99.416 Y109.840 E2.96915
G1 X98.846 Y110.959 E3.03215
G1 X97.959 Y111.846 E3.09516
G1 X96.840 Y112.416 E3.15816
G1 X95.600 Y112.613 E3.22117
G1 X94.360 Y112.416 E3.28417
G1 X93.241 Y111.846 E3.34718
G1 X92.354 Y110.959 E3.41018
G1 X91.784 Y109.840 E3.47319
G1 X91.587 Y108.600 E3.53619
G1 X91.784 Y107.360 E3.59920
G1 X92.354 Y106.241 E3.66220
G1 X93.241 Y105.354 E3.72521
G1 X94.360 Y104.784 E3.78821
G1 X95.600 Y104.587 E3.85122
G1 X96.840 Y104.784 E3.91422
G1 X97.959 Y105.354 E3.97723
G1 X98.846 Y106.241 E4.04023
G1 X99.389 Y107.307 E4.10022
G1 X99.807 Y107.443 F6000.000
G92 E0
G1 X87.273 Y96.022
G1 F1200
G1 X85.626 Y95.182 E0.09281
G1 X84.318 Y93.874 E0.18563
G1 X83.478 Y92.227 E0.27844
G1 X83.200 Y90.471 E0.36765
G1 X83.200 Y61.529 E1.82011
G1 X83.478 Y59.773 E1.90933
G1 X84.318 Y58.126 E2.00214
G1 X85.626 Y56.818 E2.09495
G1 X87.273 Y55.978 E2.18776
G1 X89.029 Y55.700 E2.27698
G1 X160.971 Y55.700 E5.88743
G1 X162.727 Y55.978 E5.97665
G1 X164.374 Y56.818 E6.06946
G1 X165.682 Y58.126 E6.16227
G1 X166.522 Y59.773 E6.25508
G1 X166.800 Y61.529 E6.34430
G1 X166.800 Y90.471 E7.79676
G1 X166.522 Y92.227 E7.88597
G1 X165.682 Y93.874 E7.97878
G1 X164.374 Y95.182 E8.07160
G1 X162.727 Y96.022 E8.16441
G1 X160.971 Y96.300 E8.25363
G1 X89.029 Y96.300 E11.86408
G1 X87.333 Y96.031 E11.95028
G1 X87.381 Y95.690 F6000.000
G1 F1200
G1 X85.831 Y94.900 E12.03761
G1 X84.600 Y93.669 E12.12494
G1 X83.810 Y92.119 E12.21227
G1 X83.545 Y90.444 E12.29738
G1 X83.545 Y61.556 E13.74712
G1 X83.810 Y59.881 E13.83223
G1 X84.600 Y58.331 E13.91956
G1 X85.831 Y57.100 E14.00689
G1 X87.381 Y56.310 E14.09422
G1 X89.056 Y56.045 E14.17933
G1 X160.944 Y56.045 E17.78706
G1 X162.619 Y56.310 E17.87217
G1 X164.169 Y57.100 E17.95950
G1 X165.400 Y58.331 E18.04683
G1 X166.190 Y59.881 E18.13416
G1 X166.455 Y61.556 E18.21927
G1 X166.455 Y90.444 E19.66901
G1 X166.190 Y92.119 E19.75412
G1 X165.400 Y93.669 E19.84145
G1 X164.169 Y94.900 E19.92878
G1 X162.619 Y95.690 E20.01610
G1 X160.944 Y95.955 E20.10122
G1 X89.056 Y95.955 E23.70895
G1 X87.441 Y95.699 E23.79105
G1 X87.489 Y95.358 F6000.000
G1 F1200
G1 X86.036 Y94.617 E23.87289
G1 X84.883 Y93.464 E23.95474
G1 X84.143 Y92.011 E24.03659
G1 X83.890 Y90.417 E24.11759
G1 X83.890 Y61.583 E25.56461
G1 X84.143 Y59.989 E25.64561
G1 X84.883 Y58.536 E25.72746
G1 X86.036 Y57.383 E25.80931
G1 X87.489 Y56.643 E25.89115
G1 X89.083 Y56.390 E25.97216
G1 X160.917 Y56.390 E29.57717
G1 X162.511 Y56.643 E29.65817
G1 X163.964 Y57.383 E29.74002
G1 X165.117 Y58.536 E29.82187
G1 X165.858 Y59.989 E29.90371
G1 X166.110 Y61.583 E29.98472
G1 X166.110 Y90.417 E31.43173
G1 X165.858 Y92.011 E31.51274
G1 X165.117 Y93.464 E31.59458
G1 X163.964 Y94.617 E31.67643
G1 X162.511 Y95.358 E31.75828
G1 X160.917 Y95.610 E31.83929
G1 X89.083 Y95.610 E35.44429
G1 X87.548 Y95.367 E35.52229
G1 X87.192 Y95.625 F6000.000
G92 E0
G1 X149.920 Y107.144
G1 F1200
G1 X150.589 Y105.831 E0.07397
G1 X151.631 Y104.789 E0.14794
G1 X152.944 Y104.120 E0.22191
G1 X154.400 Y103.889 E0.29588
G1 X155.856 Y104.120 E0.36985
G1 X157.169 Y104.789 E0.44382
G1 X158.211 Y105.831 E0.51779
G1 X158.880 Y107.144 E0.59176
G1 X159.111 Y108.600 E0.66573
G1 X158.880 Y110.056 E0.73970
G1 X158.211 Y111.369 E0.81367
G1 X157.169 Y112.411 E0.88764
G1 X155.856 Y113.080 E0.96161
G1 X154.400 Y113.311 E1.03558
G1 X152.944 Y113.080 E1.10956
G1 X151.631 Y112.411 E1.18352
G1 X150.589 Y111.369 E1.25750
G1 X149.920 Y110.056 E1.33146
G1 X149.689 Y108.600 E1.40544
G1 X149.910 Y107.203 E1.47640
G1 X150.252 Y107.252 F6000.000
G1 F1200
G1 X150.871 Y106.036 E1.54488
G1 X151.836 Y105.071 E1.61337
G1 X153.052 Y104.452 E1.68186
G1 X154.400 Y104.238 E1.75035
G1 X155.748 Y104.452 E1.81883
G1 X156.964 Y105.071 E1.88732
G1 X157.929 Y106.036 E1.95581
G1 X158.548 Y107.252 E2.02429
G1 X158.762 Y108.600 E2.09278
G1 X158.548 Y109.948 E2.16127
G1 X157.929 Y111.164 E2.22976
G1 X156.964 Y112.129 E2.29825
G1 X155.748 Y112.748 E2.36673
G1 X154.400 Y112.962 E2.43522
G1 X153.052 Y112.748 E2.50371
G1 X151.836 Y112.129 E2.57220
G1 X150.871 Y111.164 E2.64068
G1 X150.252 Y109.948 E2.70917
G1 X150.038 Y108.600 E2.77766
G1 X150.242 Y107.311 E2.84314
G1 X150.584 Y107.360 F6000.000
G1 F1200
G1 X151.154 Y106.241 E2.90614
G1 X152.041 Y105.354 E2.96915
G1 X153.160 Y104.784 E3.03215
G1 X154.400 Y104.587 E3.09515
G1 X155.640 Y104.784 E3.15816
G1 X156.759 Y105.354 E3.22116
G1 X157.646 Y106.241 E3.28417
G1 X158.216 Y107.360 E3.34717
G1 X158.413 Y108.600 E3.41018
G1 X158.216 Y109.840 E3.47318
G1 X157.646 Y110.959 E3.53619
G1 X156.759 Y111.846 E3.59919
G1 X155.640 Y112.416 E3.66220
G1 X154.400 Y112.613 E3.72520
G1 X153.160 Y112.416 E3.78821
G1 X152.041 Y111.846 E3.85121
G1 X151.154 Y110.959 E3.91422
G1 X150.584 Y109.840 E3.97722
G1 X150.387 Y108.600 E4.04023
G1 X150.574 Y107.419 E4.10022
G1 X150.316 Y107.063 F6000.000
G92 E0
G1 X169.164 Y121.789
G1 F1200
G1 X167.829 Y122.000 E0.06780
G1 X82.171 Y122.000 E4.36665
G1 X80.836 Y121.789 E4.43445
G1 X79.697 Y121.208 E4.49865
G1 X78.792 Y120.303 E4.56286
G1 X78.211 Y119.164 E4.62706
G1 X78.000 Y117.829 E4.69486
G1 X78.000 Y55.171 E7.83943
G1 X78.211 Y53.836 E7.90723
G1 X78.786 Y52.709 E7.97074
G1 X79.698 Y51.791 E8.03567
G1 X80.836 Y51.211 E8.09981
G1 X82.171 Y51.000 E8.16761
G1 X167.844 Y51.002 E12.46721
G1 X169.164 Y51.211 E12.53425
G1 X170.303 Y51.792 E12.59845
G1 X171.208 Y52.697 E12.66266
G1 X171.789 Y53.836 E12.72686
G1 X172.000 Y55.171 E12.79466
G1 X172.000 Y117.829 E15.93923
G1 X171.789 Y119.164 E16.00703
G1 X171.208 Y120.303 E16.07123
G1 X170.303 Y121.208 E16.13544
G1 X169.217 Y121.762 E16.19663
G1 X169.320 Y122.096 F6000.000
G1 F1200
G1 X169.271 Y122.121 E16.19937
G1 X167.856 Y122.345 E16.27128
G1 X82.144 Y122.345 E20.57285
G1 X80.729 Y122.121 E20.64475
G1 X79.491 Y121.491 E20.71444
G1 X78.509 Y120.509 E20.78413
G1 X77.879 Y119.271 E20.85381
G1 X77.655 Y117.856 E20.92572
G1 X77.655 Y55.144 E24.07301
G1 X77.879 Y53.729 E24.14492
G1 X78.503 Y52.504 E24.21388
G1 X79.492 Y51.509 E24.28430
G1 X80.729 Y50.879 E24.35394
G1 X82.144 Y50.655 E24.42585
G1 X167.871 Y50.657 E28.72817
G1 X169.271 Y50.879 E28.79931
G1 X170.509 Y51.509 E28.86900
G1 X171.491 Y52.491 E28.93869
G1 X172.121 Y53.729 E29.00837
G1 X172.345 Y55.144 E29.08028
G1 X172.345 Y117.856 E32.22757
G1 X172.121 Y119.271 E32.29948
G1 X171.491 Y120.509 E32.36916
G1 X170.509 Y121.491 E32.43885
G1 X169.374 Y122.069 E32.50278
G1 X169.379 Y122.453 F6000.000
G1 F1200
G1 X167.883 Y122.690 E32.57879
G1 X82.117 Y122.690 E36.88309
G1 X80.621 Y122.453 E36.95909
G1 X79.286 Y121.773 E37.03426
G1 X78.227 Y120.714 E37.10944
G1 X77.547 Y119.379 E37.18460
G1 X77.310 Y117.883 E37.26061
G1 X77.310 Y55.117 E40.41063
G1 X77.547 Y53.621 E40.48664
G1 X78.220 Y52.299 E40.56106
G1 X79.286 Y51.227 E40.63696
G1 X80.621 Y50.547 E40.71211
G1 X82.117 Y50.310 E40.78812
G1 X167.898 Y50.312 E45.09317
G1 X169.379 Y50.547 E45.16841
G1 X170.714 Y51.227 E45.24358
G1 X171.773 Y52.286 E45.31875
G1 X172.453 Y53.621 E45.39392
G1 X172.690 Y55.117 E45.46993
G1 X172.690 Y117.883 E48.61995
G1 X172.453 Y119.379 E48.69596
G1 X171.773 Y120.714 E48.77113
G1 X170.714 Y121.773 E48.84630
G1 X169.433 Y122.426 E48.91846
G1 X169.082 Y122.185 F6000.000
G92 E0
G1 X158.567 Y106.377
G1 F1200
G1 X171.475 Y119.285 E0.91834
G1 X171.310 Y119.609 E0.93663
G1 X159.157 Y107.456 E1.80128
G1 X159.249 Y108.037 E1.83087
G1 X171.145 Y119.933 E2.67723
G1 X171.024 Y120.170 E2.69060
G1 X170.959 Y120.236 E2.69528
G1 X159.336 Y108.613 E3.52218
G1 X159.269 Y109.035 E3.54367
G1 X170.714 Y120.480 E4.35794
G1 X170.470 Y120.725 E4.37533
G1 X159.202 Y109.457 E5.17696
G1 X159.135 Y109.879 E5.19845
G1 X170.225 Y120.969 E5.98745
G1 X170.170 Y121.024 E5.99139
G1 X169.920 Y121.152 E6.00553
G1 X159.028 Y110.260 E6.78042
G1 X158.863 Y110.584 E6.79870
G1 X169.596 Y121.317 E7.56229
G1 X169.272 Y121.482 E7.58057
G1 X158.698 Y110.908 E8.33285
G1 X158.533 Y111.232 E8.35114
G1 X168.904 Y121.603 E9.08898
G1 X168.482 Y121.670 E9.11048
G1 X158.355 Y111.543 E9.83096
G1 X158.110 Y111.787 E9.84835
G1 X168.060 Y121.737 E10.55620
G1 X167.812 Y121.776 E10.56883
G1 X167.610 Y121.776 E10.57897
G1 X157.866 Y112.032 E11.27222
G1 X157.621 Y112.276 E11.28962
G1 X167.121 Y121.776 E11.96547
G1 X166.632 Y121.776 E11.99007
G1 X157.377 Y112.521 E12.64854
G1 X157.302 Y112.595 E12.65382
G1 X157.077 Y112.710 E12.66655
G1 X166.143 Y121.776 E13.31156
G1 X165.654 Y121.776 E13.33616
G1 X156.753 Y112.875 E13.96943
G1 X156.429 Y113.040 E13.98771
G1 X165.165 Y121.776 E14.60924
G1 X164.676 Y121.776 E14.63384
G1 X156.105 Y113.205 E15.24363
G1 X155.926 Y113.296 E15.25375
G1 X155.738 Y113.326 E15.26335
G1 X164.187 Y121.776 E15.86451
G1 X163.699 Y121.776 E15.88911
G1 X155.315 Y113.393 E16.48552
G1 X154.893 Y113.460 E16.50702
G1 X163.210 Y121.776 E17.09867
G1 X162.721 Y121.776 E17.12327
G1 X154.471 Y113.527 E17.71016
G1 X154.400 Y113.538 E17.71380
G1 X153.917 Y113.461 E17.73838
G1 X162.232 Y121.776 E18.32992
G1 X161.743 Y121.776 E18.35451
G1 X153.336 Y113.369 E18.95260
G1 X152.874 Y113.296 E18.97614
G1 X152.670 Y113.192 E18.98764
G1 X161.254 Y121.776 E19.59831
G1 X160.765 Y121.776 E19.62291
G1 X135.513 Y96.524 E21.41945
G1 X135.024 Y96.524 E21.44404
G1 X160.276 Y121.776 E23.24058
G1 X159.787 Y121.776 E23.26518
G1 X134.535 Y96.524 E25.06172
G1 X134.046 Y96.524 E25.08632
G1 X159.298 Y121.776 E26.88286
G1 X158.809 Y121.776 E26.90745
G1 X133.557 Y96.524 E28.70399
G1 X133.068 Y96.524 E28.72859
G1 X158.320 Y121.776 E30.52513
G1 X157.832 Y121.776 E30.54973
G1 X132.579 Y96.524 E32.34627
G1 X132.090 Y96.524 E32.37086
G1 X157.343 Y121.776 E34.16740
G1 X156.854 Y121.776 E34.19200
G1 X131.602 Y96.524 E35.98854
G1 X131.113 Y96.524 E36.01314
G1 X156.365 Y121.776 E37.80968
G1 X155.876 Y121.776 E37.83427
G1 X130.624 Y96.524 E39.63081
G1 X130.135 Y96.524 E39.65541
G1 X155.387 Y121.776 E41.45195
G1 X154.898 Y121.776 E41.47654
G1 X129.646 Y96.524 E43.27309
G1 X129.157 Y96.524 E43.29768
G1 X154.409 Y121.776 E45.09422
