; generated by PrusaSlicer 2.0.0+ on 2019-08-06 at 21:48:50

; 

; external perimeters extrusion width = 0.45mm
; perimeters extrusion width = 0.45mm
; infill extrusion width = 0.45mm
; solid infill extrusion width = 0.45mm
; top infill extrusion width = 0.40mm
; first layer extrusion width = 0.42mm

M107
M190 S50 ; set bed temperature and wait for it to be reached
M104 S210 ; set temperature
G28 X0
G28 Y0
G28 Z0; home all axes
G1 Z10 F5000 ; lift nozzle
; Filament gcode
M109 S210 ; set temperature and wait for it to be reached
G21 ; set units to millimeters
G90 ; use absolute coordinates
M82 ; use absolute distances for extrusion
G92 E0
G1 Z0.350 F7800.000
G1 X73.353 Y43.582
G1 F1800
G1 X74.517 Y41.641 E0.11360
G1 X76.119 Y39.878 E0.23315
G1 X77.636 Y38.712 E0.32919
G1 X79.514 Y37.727 E0.43559
G1 X81.480 Y37.104 E0.53908
G1 X83.614 Y36.828 E0.64710
G1 X169.646 Y36.824 E4.96466
G1 X171.589 Y36.946 E5.06239
G1 X173.687 Y37.453 E5.17073
G1 X175.597 Y38.298 E5.27552
G1 X177.463 Y39.576 E5.38902
G1 X178.892 Y40.989 E5.48988
G1 X180.172 Y42.816 E5.60182
G1 X181.053 Y44.751 E5.70856
G1 X181.464 Y46.221 E5.78516
G1 X181.614 Y47.147 E5.83221
G1 X181.725 Y48.663 E5.90848
G1 X181.715 Y111.870 E9.08058
G1 X181.585 Y113.278 E9.15159
G1 X181.411 Y114.154 E9.19638
G1 X180.970 Y115.649 E9.27460
G1 X180.324 Y117.053 E9.35218
G1 X179.860 Y117.860 E9.39891
G1 X178.967 Y119.083 E9.47487
G1 X177.474 Y120.577 E9.58089
G1 X175.616 Y121.855 E9.69407
G1 X173.744 Y122.689 E9.79689
G1 X171.655 Y123.206 E9.90493
G1 X169.844 Y123.336 E9.99603
G1 X83.729 Y123.338 E14.31779
G1 X81.368 Y123.033 E14.43729
G1 X79.843 Y122.560 E14.51741
G1 X79.044 Y122.224 E14.56090
G1 X77.804 Y121.554 E14.63163
G1 X77.068 Y121.049 E14.67642
G1 X75.867 Y120.056 E14.75464
G1 X74.832 Y118.914 E14.83196
G1 X74.138 Y117.956 E14.89133
G1 X73.508 Y116.889 E14.95353
G1 X73.160 Y116.131 E14.99540
G1 X72.568 Y114.399 E15.08728
G1 X72.226 Y112.185 E15.19971
G1 X72.222 Y48.123 E18.41468
G1 X72.296 Y47.221 E18.46012
G1 X72.586 Y45.689 E18.53834
G1 X73.333 Y43.639 E18.64786
G1 X73.656 Y43.757 F7800.000
G1 F1800
G1 X74.796 Y41.844 E18.75965
G1 X76.353 Y40.131 E18.87578
G1 X77.820 Y39.003 E18.96867
G1 X79.643 Y38.047 E19.07197
G1 X81.557 Y37.440 E19.17276
G1 X83.630 Y37.173 E19.27764
G1 X169.645 Y37.169 E23.59440
G1 X171.529 Y37.286 E23.68913
G1 X173.567 Y37.777 E23.79433
G1 X175.422 Y38.595 E23.89606
G1 X177.235 Y39.835 E24.00629
G1 X178.624 Y41.205 E24.10420
G1 X179.867 Y42.978 E24.21291
G1 X180.725 Y44.857 E24.31653
G1 X181.127 Y46.294 E24.39143
G1 X181.272 Y47.190 E24.43697
G1 X181.380 Y48.666 E24.51123
G1 X181.371 Y111.841 E27.68173
G1 X181.244 Y113.228 E27.75162
G1 X181.078 Y114.062 E27.79432
G1 X180.648 Y115.524 E27.87080
G1 X180.013 Y116.903 E27.94696
G1 X179.570 Y117.673 E27.99155
G1 X178.693 Y118.873 E28.06614
G1 X177.237 Y120.326 E28.16940
G1 X175.436 Y121.560 E28.27899
G1 X173.612 Y122.370 E28.37913
G1 X171.588 Y122.868 E28.48371
G1 X169.825 Y122.991 E28.57243
G1 X83.732 Y122.993 E32.89309
G1 X81.437 Y122.695 E33.00922
G1 X79.953 Y122.233 E33.08723
G1 X79.186 Y121.910 E33.12899
G1 X77.979 Y121.257 E33.19784
G1 X77.278 Y120.776 E33.24054
G1 X76.103 Y119.805 E33.31702
G1 X75.084 Y118.678 E33.39324
G1 X74.430 Y117.772 E33.44934
G1 X73.478 Y115.997 E33.55044
G1 X72.903 Y114.317 E33.63957
G1 X72.570 Y112.160 E33.74908
G1 X72.567 Y48.126 E36.96268
G1 X72.638 Y47.266 E37.00601
G1 X72.921 Y45.768 E37.08248
G1 X73.635 Y43.813 E37.18694
G1 X73.958 Y43.931 F7800.000
G1 F1800
G1 X75.072 Y42.051 E37.29663
G1 X76.587 Y40.385 E37.40964
G1 X78.005 Y39.295 E37.49940
G1 X79.773 Y38.366 E37.59961
G1 X81.630 Y37.777 E37.69737
G1 X83.646 Y37.517 E37.79942
G1 X169.645 Y37.514 E42.11535
G1 X171.495 Y37.629 E42.20837
G1 X173.517 Y38.125 E42.31287
G1 X175.333 Y38.941 E42.41277
G1 X176.553 Y39.739 E42.48593
G1 X177.195 Y40.262 E42.52748
G1 X178.460 Y41.551 E42.61812
G1 X179.290 Y42.691 E42.68887
G1 X179.710 Y43.425 E42.73134
G1 X180.321 Y44.749 E42.80452
G1 X180.732 Y46.142 E42.87738
G1 X180.894 Y46.923 E42.91740
G1 X181.011 Y48.130 E42.97827
G1 X181.026 Y111.825 E46.17487
G1 X180.903 Y113.177 E46.24302
G1 X180.744 Y113.977 E46.28396
G1 X180.324 Y115.406 E46.35868
G1 X179.703 Y116.752 E46.43308
G1 X179.281 Y117.486 E46.47556
G1 X178.420 Y118.662 E46.54874
G1 X177.000 Y120.075 E46.64923
G1 X175.256 Y121.266 E46.75524
G1 X173.486 Y122.049 E46.85237
G1 X171.528 Y122.528 E46.95352
G1 X169.812 Y122.646 E47.03984
G1 X83.741 Y122.648 E51.35941
G1 X81.519 Y122.360 E51.47187
G1 X80.063 Y121.906 E51.54839
G1 X79.334 Y121.598 E51.58810
G1 X78.155 Y120.960 E51.65541
G1 X77.483 Y120.498 E51.69634
G1 X76.339 Y119.554 E51.77075
G1 X75.337 Y118.443 E51.84583
G1 X74.260 Y116.817 E51.94374
G1 X73.796 Y115.863 E51.99696
G1 X73.239 Y114.240 E52.08306
G1 X72.915 Y112.141 E52.18963
G1 X72.912 Y48.135 E55.40185
G1 X72.980 Y47.316 E55.44310
G1 X73.256 Y45.853 E55.51781
G1 X73.937 Y43.987 E55.61750
G92 E0
G1 X102.097 Y100.930 F7800.000
G1 F1800
G1 X102.248 Y101.760 E0.04232
G1 X102.248 Y102.603 E0.08463
G1 X102.097 Y103.433 E0.12695
G1 X101.801 Y104.222 E0.16927
G1 X101.368 Y104.946 E0.21159
G1 X100.814 Y105.581 E0.25391
G1 X100.154 Y106.107 E0.29622
G1 X99.412 Y106.506 E0.33854
G1 X98.610 Y106.767 E0.38085
G1 X97.774 Y106.880 E0.42317
G1 X96.932 Y106.842 E0.46549
G1 X96.110 Y106.655 E0.50781
G1 X95.335 Y106.323 E0.55013
G1 X94.631 Y105.859 E0.59245
G1 X94.021 Y105.276 E0.63477
G1 X93.526 Y104.594 E0.67709
G1 X93.160 Y103.834 E0.71940
G1 X92.936 Y103.021 E0.76172
G1 X92.860 Y102.181 E0.80404
G1 X92.936 Y101.342 E0.84635
G1 X93.160 Y100.529 E0.88867
G1 X93.526 Y99.769 E0.93099
G1 X94.021 Y99.087 E0.97331
G1 X94.631 Y98.504 E1.01563
G1 X95.335 Y98.040 E1.05795
G1 X96.110 Y97.708 E1.10026
G1 X96.932 Y97.521 E1.14258
G1 X97.709 Y97.486 E1.18162
G1 X98.604 Y97.594 E1.22685
G1 X99.412 Y97.857 E1.26949
G1 X100.154 Y98.256 E1.31181
G1 X100.814 Y98.782 E1.35412
G1 X101.368 Y99.417 E1.39644
G1 X101.801 Y100.141 E1.43876
G1 X102.076 Y100.874 E1.47807
G1 X101.763 Y101.022 F7800.000
G1 F1800
G1 X101.903 Y101.791 E1.51727
G1 X101.903 Y102.572 E1.55647
G1 X101.763 Y103.341 E1.59567
G1 X101.489 Y104.072 E1.63488
G1 X101.088 Y104.743 E1.67408
G1 X100.574 Y105.331 E1.71329
G1 X99.964 Y105.818 E1.75249
G1 X99.276 Y106.188 E1.79169
G1 X98.533 Y106.429 E1.83089
G1 X97.759 Y106.534 E1.87009
G1 X96.978 Y106.499 E1.90930
G1 X96.217 Y106.325 E1.94850
G1 X95.499 Y106.018 E1.98770
G1 X94.847 Y105.588 E2.02690
G1 X94.282 Y105.048 E2.06611
G1 X93.823 Y104.416 E2.10531
G1 X93.484 Y103.712 E2.14451
G1 X93.276 Y102.959 E2.18371
G1 X93.206 Y102.181 E2.22291
G1 X93.276 Y101.403 E2.26212
G1 X93.484 Y100.650 E2.30132
G1 X93.823 Y99.947 E2.34052
G1 X94.282 Y99.315 E2.37972
G1 X94.847 Y98.775 E2.41893
G1 X95.499 Y98.345 E2.45813
G1 X96.217 Y98.038 E2.49733
G1 X96.978 Y97.864 E2.53653
G1 X97.696 Y97.832 E2.57258
G1 X98.529 Y97.932 E2.61470
G1 X99.276 Y98.175 E2.65410
G1 X99.964 Y98.545 E2.69330
G1 X100.574 Y99.032 E2.73250
G1 X101.088 Y99.620 E2.77170
G1 X101.489 Y100.291 E2.81090
G1 X101.742 Y100.966 E2.84710
G1 X101.430 Y101.114 F7800.000
G1 F1800
G1 X101.558 Y101.822 E2.88319
G1 X101.558 Y102.541 E2.91927
G1 X101.430 Y103.248 E2.95535
G1 X101.177 Y103.922 E2.99145
G1 X100.808 Y104.539 E3.02753
G1 X100.335 Y105.080 E3.06362
G1 X99.773 Y105.529 E3.09971
G1 X99.140 Y105.870 E3.13579
G1 X98.456 Y106.092 E3.17188
G1 X97.743 Y106.188 E3.20796
G1 X97.025 Y106.156 E3.24405
G1 X96.324 Y105.996 E3.28014
G1 X95.663 Y105.713 E3.31622
G1 X95.063 Y105.317 E3.35231
G1 X94.543 Y104.820 E3.38840
G1 X94.120 Y104.239 E3.42449
G1 X93.808 Y103.591 E3.46057
G1 X93.617 Y102.898 E3.49666
G1 X93.552 Y102.181 E3.53275
G1 X93.617 Y101.465 E3.56883
G1 X93.808 Y100.772 E3.60492
G1 X94.120 Y100.124 E3.64100
G1 X94.543 Y99.543 E3.67709
G1 X95.063 Y99.046 E3.71318
G1 X95.663 Y98.649 E3.74927
G1 X96.324 Y98.367 E3.78535
G1 X97.025 Y98.207 E3.82144
G1 X97.683 Y98.177 E3.85450
G1 X98.454 Y98.271 E3.89349
G1 X99.140 Y98.493 E3.92966
G1 X99.773 Y98.834 E3.96574
G1 X100.335 Y99.282 E4.00183
G1 X100.808 Y99.824 E4.03791
G1 X101.177 Y100.441 E4.07400
G1 X101.409 Y101.058 E4.10708
G1 X101.817 Y101.215 F7800.000
G92 E0
G1 X89.750 Y89.737
G1 F1800
G1 X88.743 Y89.410 E0.05311
G1 X87.811 Y88.908 E0.10622
G1 X86.984 Y88.248 E0.15934
G1 X86.287 Y87.451 E0.21246
G1 X85.745 Y86.543 E0.26557
G1 X85.373 Y85.552 E0.31868
G1 X85.184 Y84.511 E0.37180
G1 X85.184 Y54.652 E1.87027
G1 X85.373 Y53.611 E1.92338
G1 X85.745 Y52.620 E1.97650
G1 X86.287 Y51.712 E2.02961
G1 X86.984 Y50.915 E2.08273
G1 X87.811 Y50.255 E2.13584
G1 X88.743 Y49.753 E2.18896
G1 X89.750 Y49.426 E2.24207
G1 X90.778 Y49.287 E2.29417
G1 X162.659 Y49.287 E5.90157
G1 X163.656 Y49.331 E5.95164
G1 X164.688 Y49.567 E6.00475
G1 X165.661 Y49.983 E6.05786
G1 X166.544 Y50.566 E6.11098
G1 X167.309 Y51.297 E6.16410
G1 X167.931 Y52.154 E6.21721
G1 X168.390 Y53.107 E6.27032
G1 X168.672 Y54.127 E6.32344
G1 X168.763 Y55.141 E6.37452
G1 X168.763 Y84.022 E7.82393
G1 X168.672 Y85.036 E7.87500
G1 X168.390 Y86.056 E7.92812
G1 X167.931 Y87.009 E7.98124
G1 X167.309 Y87.866 E8.03435
G1 X166.544 Y88.597 E8.08747
G1 X165.661 Y89.180 E8.14058
G1 X164.688 Y89.596 E8.19369
G1 X163.656 Y89.831 E8.24681
G1 X162.659 Y89.876 E8.29687
G1 X90.778 Y89.876 E11.90428
G1 X89.809 Y89.745 E11.95336
G1 X89.827 Y89.399 F7800.000
G1 F1800
G1 X88.879 Y89.091 E12.00336
G1 X88.002 Y88.619 E12.05336
G1 X87.223 Y87.998 E12.10336
G1 X86.568 Y87.248 E12.15336
G1 X86.057 Y86.393 E12.20336
G1 X85.706 Y85.460 E12.25335
G1 X85.529 Y84.480 E12.30335
G1 X85.529 Y54.683 E13.79871
G1 X85.706 Y53.703 E13.84871
G1 X86.057 Y52.770 E13.89871
G1 X86.568 Y51.915 E13.94871
G1 X87.223 Y51.165 E13.99870
G1 X88.002 Y50.544 E14.04870
G1 X88.879 Y50.072 E14.09870
G1 X89.827 Y49.764 E14.14870
G1 X90.802 Y49.632 E14.19807
G1 X162.651 Y49.632 E17.80392
G1 X163.609 Y49.675 E17.85204
G1 X164.581 Y49.896 E17.90204
G1 X165.497 Y50.288 E17.95204
G1 X166.328 Y50.837 E18.00203
G1 X167.048 Y51.525 E18.05204
G1 X167.634 Y52.331 E18.10203
G1 X168.066 Y53.229 E18.15203
G1 X168.331 Y54.189 E18.20203
G1 X168.418 Y55.157 E18.25078
G1 X168.418 Y84.006 E19.69863
G1 X168.331 Y84.974 E19.74738
G1 X168.066 Y85.934 E19.79738
G1 X167.634 Y86.832 E19.84737
G1 X167.048 Y87.638 E19.89737
G1 X166.328 Y88.326 E19.94738
G1 X165.497 Y88.875 E19.99737
G1 X164.581 Y89.267 E20.04737
G1 X163.609 Y89.488 E20.09737
G1 X162.652 Y89.531 E20.14548
G1 X90.802 Y89.531 E23.75134
G1 X89.886 Y89.407 E23.79770
G1 X89.904 Y89.062 F7800.000
G1 F1800
G1 X89.015 Y88.773 E23.84458
G1 X88.193 Y88.330 E23.89146
G1 X87.462 Y87.748 E23.93835
G1 X86.848 Y87.044 E23.98523
G1 X86.369 Y86.242 E24.03211
G1 X86.040 Y85.368 E24.07900
G1 X85.873 Y84.449 E24.12588
G1 X85.873 Y54.714 E25.61812
G1 X86.040 Y53.795 E25.66500
G1 X86.369 Y52.921 E25.71188
G1 X86.848 Y52.119 E25.75877
G1 X87.462 Y51.415 E25.80565
G1 X88.193 Y50.833 E25.85253
G1 X89.015 Y50.390 E25.89942
G1 X89.904 Y50.101 E25.94630
G1 X90.825 Y49.977 E25.99295
G1 X162.644 Y49.977 E29.59724
G1 X163.563 Y50.018 E29.64341
G1 X164.474 Y50.226 E29.69030
G1 X165.333 Y50.593 E29.73718
G1 X166.112 Y51.107 E29.78406
G1 X166.788 Y51.753 E29.83095
G1 X167.337 Y52.509 E29.87783
G1 X167.742 Y53.350 E29.92471
G1 X167.990 Y54.251 E29.97160
G1 X168.073 Y55.172 E30.01801
G1 X168.073 Y83.991 E31.46431
G1 X167.990 Y84.912 E31.51071
G1 X167.742 Y85.812 E31.55760
G1 X167.337 Y86.654 E31.60448
G1 X166.788 Y87.410 E31.65136
G1 X166.112 Y88.056 E31.69825
G1 X165.333 Y88.570 E31.74513
G1 X164.474 Y88.937 E31.79202
G1 X163.563 Y89.145 E31.83890
G1 X162.644 Y89.186 E31.88507
G1 X90.825 Y89.186 E35.48937
G1 X89.963 Y89.070 E35.53300
G1 X89.636 Y89.359 F7800.000
G92 E0
G1 X151.736 Y101.342
G1 F1800
G1 X151.960 Y100.529 E0.04232
G1 X152.326 Y99.769 E0.08463
G1 X152.821 Y99.087 E0.12695
G1 X153.431 Y98.504 E0.16927
G1 X154.135 Y98.040 E0.21159
G1 X154.910 Y97.708 E0.25391
G1 X155.732 Y97.521 E0.29622
G1 X156.509 Y97.486 E0.33527
G1 X157.404 Y97.594 E0.38050
G1 X158.212 Y97.857 E0.42314
G1 X158.954 Y98.256 E0.46546
G1 X159.614 Y98.782 E0.50777
G1 X160.168 Y99.417 E0.55009
G1 X160.601 Y100.141 E0.59241
G1 X160.897 Y100.930 E0.63473
G1 X161.048 Y101.760 E0.67705
G1 X161.048 Y102.603 E0.71936
G1 X160.897 Y103.433 E0.76168
G1 X160.601 Y104.222 E0.80400
G1 X160.168 Y104.946 E0.84632
G1 X159.614 Y105.581 E0.88864
G1 X158.954 Y106.107 E0.93095
G1 X158.212 Y106.506 E0.97327
G1 X157.410 Y106.767 E1.01559
G1 X156.574 Y106.880 E1.05790
G1 X155.732 Y106.842 E1.10023
G1 X154.910 Y106.655 E1.14254
G1 X154.135 Y106.323 E1.18486
G1 X153.431 Y105.859 E1.22718
G1 X152.821 Y105.276 E1.26950
G1 X152.326 Y104.594 E1.31182
G1 X151.960 Y103.834 E1.35413
G1 X151.736 Y103.021 E1.39645
G1 X151.660 Y102.181 E1.43877
G1 X151.730 Y101.401 E1.47807
G1 X152.076 Y101.403 F7800.000
G1 F1800
G1 X152.284 Y100.651 E1.51727
G1 X152.623 Y99.947 E1.55648
G1 X153.082 Y99.315 E1.59568
G1 X153.647 Y98.775 E1.63488
G1 X154.299 Y98.345 E1.67409
G1 X155.017 Y98.038 E1.71329
G1 X155.778 Y97.864 E1.75249
G1 X156.496 Y97.832 E1.78854
G1 X157.329 Y97.932 E1.83065
G1 X158.076 Y98.175 E1.87005
G1 X158.764 Y98.545 E1.90926
G1 X159.374 Y99.032 E1.94846
G1 X159.888 Y99.620 E1.98766
G1 X160.289 Y100.291 E2.02686
G1 X160.563 Y101.022 E2.06607
G1 X160.703 Y101.791 E2.10527
G1 X160.703 Y102.572 E2.14447
G1 X160.563 Y103.341 E2.18367
G1 X160.289 Y104.072 E2.22288
G1 X159.888 Y104.743 E2.26208
G1 X159.374 Y105.331 E2.30128
G1 X158.764 Y105.818 E2.34048
G1 X158.076 Y106.188 E2.37968
G1 X157.333 Y106.429 E2.41888
G1 X156.559 Y106.534 E2.45809
G1 X155.778 Y106.499 E2.49729
G1 X155.017 Y106.325 E2.53649
G1 X154.299 Y106.018 E2.57569
G1 X153.647 Y105.588 E2.61490
G1 X153.082 Y105.048 E2.65410
G1 X152.623 Y104.416 E2.69330
G1 X152.284 Y103.712 E2.73251
G1 X152.076 Y102.959 E2.77171
G1 X152.006 Y102.181 E2.81091
G1 X152.071 Y101.463 E2.84710
G1 X152.417 Y101.465 F7800.000
G1 F1800
G1 X152.608 Y100.772 E2.88319
G1 X152.920 Y100.124 E2.91927
G1 X153.343 Y99.543 E2.95536
G1 X153.863 Y99.046 E2.99145
G1 X154.463 Y98.649 E3.02754
G1 X155.124 Y98.367 E3.06362
G1 X155.825 Y98.207 E3.09971
G1 X156.483 Y98.177 E3.13276
G1 X157.254 Y98.271 E3.17176
G1 X157.940 Y98.493 E3.20792
G1 X158.573 Y98.834 E3.24401
G1 X159.135 Y99.282 E3.28010
G1 X159.608 Y99.824 E3.31618
G1 X159.977 Y100.441 E3.35227
G1 X160.230 Y101.114 E3.38836
G1 X160.358 Y101.822 E3.42445
G1 X160.358 Y102.541 E3.46053
G1 X160.230 Y103.248 E3.49662
G1 X159.977 Y103.922 E3.53271
G1 X159.608 Y104.539 E3.56879
G1 X159.135 Y105.080 E3.60488
G1 X158.573 Y105.529 E3.64097
G1 X157.940 Y105.870 E3.67705
G1 X157.256 Y106.092 E3.71314
G1 X156.543 Y106.188 E3.74922
G1 X155.825 Y106.156 E3.78531
G1 X155.124 Y105.996 E3.82140
G1 X154.463 Y105.713 E3.85748
G1 X153.863 Y105.317 E3.89357
G1 X153.343 Y104.820 E3.92966
G1 X152.920 Y104.239 E3.96575
G1 X152.608 Y103.591 E4.00183
G1 X152.417 Y102.898 E4.03792
G1 X152.352 Y102.181 E4.07401
G1 X152.412 Y101.525 E4.10708
G1 X152.112 Y101.207 F7800.000
G92 E0
G1 X170.413 Y115.541
G1 F1800
G1 X169.619 Y115.577 E0.03991
G1 X83.900 Y115.577 E4.34180
G1 X83.152 Y115.475 E4.37968
G1 X82.453 Y115.248 E4.41654
G1 X81.807 Y114.900 E4.45340
G1 X81.232 Y114.442 E4.49025
G1 X80.749 Y113.889 E4.52711
G1 X80.372 Y113.259 E4.56397
G1 X80.116 Y112.575 E4.60060
G1 X79.983 Y111.848 E4.63770
G1 X79.983 Y48.314 E7.82622
G1 X80.114 Y47.592 E7.86307
G1 X80.372 Y46.904 E7.89993
G1 X80.749 Y46.274 E7.93679
G1 X81.232 Y45.720 E7.97365
G1 X81.807 Y45.263 E8.01051
G1 X82.453 Y44.915 E8.04736
G1 X83.152 Y44.688 E8.08422
G1 X83.900 Y44.586 E8.12210
G1 X169.624 Y44.586 E12.42424
G1 X170.413 Y44.622 E12.46390
G1 X171.129 Y44.785 E12.50076
G1 X171.805 Y45.074 E12.53762
G1 X172.417 Y45.479 E12.57448
G1 X172.948 Y45.986 E12.61134
G1 X173.380 Y46.580 E12.64819
G1 X173.699 Y47.242 E12.68505
G1 X173.894 Y47.950 E12.72191
G1 X173.964 Y48.722 E12.76080
G1 X173.964 Y111.441 E15.90842
G1 X173.894 Y112.213 E15.94732
G1 X173.699 Y112.921 E15.98417
G1 X173.380 Y113.583 E16.02104
G1 X172.948 Y114.177 E16.05789
G1 X172.417 Y114.684 E16.09475
G1 X171.805 Y115.089 E16.13161
G1 X171.129 Y115.378 E16.16846
G1 X170.472 Y115.528 E16.20231
