; generated by PrusaSlicer 2.0.0+ on 2019-08-03 at 13:12:06

; 

; external perimeters extrusion width = 0.45mm
; perimeters extrusion width = 0.45mm
; infill extrusion width = 0.45mm
; solid infill extrusion width = 0.45mm
; top infill extrusion width = 0.40mm
; first layer extrusion width = 0.42mm

M107
M190 S60 ; set bed temperature and wait for it to be reached
M104 S210 ; set temperature
G28 X0
G28 Y0
G28 Z0; home all axes
G1 Z10 F5000 ; lift nozzle
; Filament gcode
M109 S210 ; set temperature and wait for it to be reached
G21 ; set units to millimeters
G90 ; use absolute coordinates
M82 ; use absolute distances for extrusion
G92 E0
G1 Z0.350 F7800.000
G1 E-0.50000 F2400.00000
G92 E0
G1 Z0.850 F7800.000
G1 X75.064 Y60.311
G1 Z0.350
G1 E0.50000 F2400.00000
G1 F1800
G1 X75.637 Y59.678 E0.54284
G1 X76.288 Y59.116 E0.58601
G1 X77.000 Y58.644 E0.62886
G1 X77.788 Y58.253 E0.67300
G1 X78.619 Y57.967 E0.71714
G1 X79.481 Y57.790 E0.76128
G1 X80.364 Y57.724 E0.80575
G1 X168.439 Y57.723 E5.22587
G1 X169.726 Y57.846 E5.29073
G1 X170.966 Y58.208 E5.35559
G1 X172.117 Y58.796 E5.42045
G1 X173.137 Y59.590 E5.48531
G1 X173.994 Y60.566 E5.55050
G1 X174.650 Y61.680 E5.61536
G1 X175.084 Y62.897 E5.68022
G1 X175.283 Y64.174 E5.74508
G1 X175.279 Y109.051 E7.99727
G1 X175.172 Y109.879 E8.03914
G1 X174.963 Y110.693 E8.08133
G1 X174.657 Y111.476 E8.12353
G1 X174.256 Y112.215 E8.16573
G1 X173.769 Y112.900 E8.20792
G1 X173.206 Y113.516 E8.24980
G1 X172.567 Y114.063 E8.29199
G1 X171.866 Y114.527 E8.33419
G1 X171.078 Y114.917 E8.37833
G1 X170.246 Y115.204 E8.42247
G1 X169.385 Y115.381 E8.46661
G1 X168.501 Y115.447 E8.51108
G1 X80.258 Y115.445 E12.93964
G1 X79.388 Y115.368 E12.98346
G1 X78.529 Y115.178 E13.02760
G1 X77.708 Y114.883 E13.07141
G1 X76.925 Y114.483 E13.11556
G1 X76.204 Y113.990 E13.15937
G1 X75.552 Y113.409 E13.20319
G1 X74.979 Y112.750 E13.24701
G1 X74.491 Y112.019 E13.29115
G1 X74.106 Y111.242 E13.33464
G1 X73.821 Y110.424 E13.37814
G1 X73.642 Y109.576 E13.42163
G1 X73.572 Y108.719 E13.46480
G1 X73.578 Y64.262 E15.69589
G1 X73.671 Y63.413 E15.73874
G1 X73.871 Y62.577 E15.78190
G1 X74.174 Y61.772 E15.82507
G1 X74.572 Y61.016 E15.86792
G1 X75.030 Y60.360 E15.90808
G1 X75.312 Y60.558 F7800.000
G1 F1800
G1 X75.889 Y59.913 E15.95148
G1 X76.511 Y59.380 E15.99261
G1 X77.190 Y58.932 E16.03341
G1 X77.936 Y58.565 E16.07516
G1 X78.724 Y58.296 E16.11692
G1 X79.539 Y58.130 E16.15867
G1 X80.369 Y58.068 E16.20042
G1 X168.439 Y58.068 E20.62032
G1 X169.662 Y58.185 E20.68195
G1 X170.840 Y58.529 E20.74358
G1 X171.934 Y59.088 E20.80521
G1 X172.907 Y59.847 E20.86716
G1 X173.717 Y60.770 E20.92879
G1 X174.341 Y61.835 E20.99073
G1 X174.754 Y62.999 E21.05268
G1 X174.939 Y64.212 E21.11431
G1 X174.936 Y109.008 E23.36240
G1 X174.636 Y110.584 E23.44291
G1 X173.964 Y112.033 E23.52311
G1 X172.954 Y113.280 E23.60361
G1 X171.676 Y114.239 E23.68381
G1 X170.929 Y114.606 E23.72556
G1 X170.142 Y114.875 E23.76731
G1 X169.327 Y115.041 E23.80907
G1 X168.497 Y115.102 E23.85082
G1 X80.269 Y115.101 E28.27863
G1 X79.434 Y115.026 E28.32070
G1 X78.622 Y114.846 E28.36245
G1 X77.839 Y114.564 E28.40420
G1 X77.093 Y114.182 E28.44627
G1 X76.407 Y113.711 E28.48802
G1 X75.787 Y113.156 E28.52978
G1 X75.239 Y112.522 E28.57185
G1 X74.779 Y111.828 E28.61360
G1 X74.417 Y111.093 E28.65472
G1 X74.150 Y110.319 E28.69584
G1 X73.982 Y109.517 E28.73696
G1 X73.916 Y108.700 E28.77808
G1 X73.922 Y64.289 E31.00689
G1 X74.011 Y63.475 E31.04801
G1 X74.199 Y62.684 E31.08881
G1 X74.487 Y61.916 E31.12993
G1 X74.869 Y61.192 E31.17105
G1 X75.278 Y60.607 E31.20686
G1 X75.167 Y61.365 F7800.000
G1 F1800
G1 X76.139 Y60.151 E31.28489
G1 X77.378 Y59.222 E31.36262
G1 X78.827 Y58.626 E31.44126
G1 X80.380 Y58.413 E31.51991
G1 X168.439 Y58.413 E35.93924
G1 X169.598 Y58.524 E35.99768
G1 X170.721 Y58.853 E36.05643
G1 X171.763 Y59.388 E36.11517
G1 X172.679 Y60.106 E36.17361
G1 X173.445 Y60.983 E36.23205
G1 X174.035 Y61.994 E36.29080
G1 X174.423 Y63.099 E36.34954
G1 X174.596 Y64.250 E36.40798
G1 X174.593 Y108.972 E38.65238
G1 X174.310 Y110.470 E38.72889
G1 X173.669 Y111.853 E38.80539
G1 X172.709 Y113.037 E38.88190
G1 X171.488 Y113.949 E38.95840
G1 X170.038 Y114.545 E39.03704
G1 X168.486 Y114.758 E39.11569
G1 X80.285 Y114.756 E43.54210
G1 X79.491 Y114.686 E43.58212
G1 X78.719 Y114.515 E43.62183
G1 X77.974 Y114.247 E43.66154
G1 X77.265 Y113.883 E43.70156
G1 X76.613 Y113.434 E43.74126
G1 X76.020 Y112.901 E43.78128
G1 X75.504 Y112.301 E43.82099
G1 X75.069 Y111.640 E43.86070
G1 X74.479 Y110.215 E43.93812
G1 X74.261 Y108.688 E44.01554
G1 X74.266 Y64.315 E46.24240
G1 X74.529 Y62.783 E46.32043
G1 X75.142 Y61.420 E46.39545
G1 E45.89545 F2400.00000
G92 E0
G1 Z0.850 F7800.000
G1 X88.128 Y66.281
G1 Z0.350
G1 E0.50000 F2400.00000
G1 F1800
G1 X124.238 Y66.281 E2.31220
G1 X124.238 Y72.890 E2.64392
G1 X116.813 Y72.890 E3.01655
G1 X118.625 Y74.702 E3.14516
G1 X118.625 Y75.668 E3.19362
G1 X118.764 Y75.716 E3.20104
G1 X118.927 Y75.506 E3.21437
G1 X120.928 Y75.506 E3.31476
G1 X121.931 Y76.844 E3.39867
G1 X121.931 Y85.449 E3.83054
G1 X120.892 Y86.749 E3.91404
G1 X121.931 Y88.134 E4.00097
G1 X121.931 Y96.740 E4.43284
G1 X120.675 Y98.310 E4.53374
G1 X118.927 Y98.310 E4.62145
G1 X118.764 Y98.100 E4.63478
G1 X118.625 Y98.148 E4.64220
G1 X118.625 Y99.170 E4.69347
G1 X117.072 Y100.981 E4.81317
G1 X132.451 Y100.981 E5.58495
G1 X130.781 Y99.182 E5.70810
G1 X130.781 Y97.889 E5.77301
G1 X130.641 Y97.841 E5.78043
G1 X130.277 Y98.310 E5.81023
G1 X128.529 Y98.310 E5.89794
G1 X127.273 Y96.740 E5.99884
G1 X127.273 Y88.089 E6.43296
G1 X128.446 Y86.916 E6.51624
G1 X127.273 Y85.449 E6.61050
G1 X127.273 Y76.799 E7.04462
G1 X128.566 Y75.506 E7.13637
G1 X130.257 Y75.506 E7.22125
G1 X130.781 Y76.105 E7.26118
G1 X130.781 Y74.689 E7.33224
G1 X132.730 Y72.890 E7.46534
G1 X125.128 Y72.890 E7.84686
G1 X125.128 Y66.281 E8.17857
G1 X161.238 Y66.281 E9.99078
G1 X161.238 Y72.890 E10.32249
G1 X156.167 Y72.890 E10.57695
G1 X157.979 Y74.702 E10.70556
G1 X157.979 Y75.668 E10.75401
G1 X158.119 Y75.716 E10.76143
G1 X158.282 Y75.506 E10.77475
G1 X160.283 Y75.506 E10.87514
G1 X161.286 Y76.844 E10.95905
G1 X161.286 Y85.449 E11.39092
G1 X160.247 Y86.749 E11.47442
G1 X161.286 Y88.134 E11.56135
G1 X161.286 Y96.740 E11.99322
G1 X160.030 Y98.310 E12.09412
G1 X158.282 Y98.310 E12.18183
G1 X158.119 Y98.100 E12.19515
G1 X157.979 Y98.148 E12.20257
G1 X157.979 Y99.170 E12.25384
G1 X156.427 Y100.981 E12.37354
G1 X161.238 Y100.981 E12.61495
G1 X161.238 Y106.840 E12.90903
G1 X137.128 Y106.840 E14.11900
G1 X137.128 Y101.213 E14.40142
G1 X136.738 Y101.213 E14.42100
G1 X136.738 Y106.840 E14.70342
G1 X112.628 Y106.840 E15.91340
G1 X112.628 Y101.213 E16.19582
G1 X112.238 Y101.213 E16.21540
G1 X112.238 Y106.840 E16.49782
G1 X88.128 Y106.840 E17.70779
G1 X88.128 Y100.981 E18.00187
G1 X93.096 Y100.981 E18.25121
G1 X91.426 Y99.182 E18.37436
G1 X91.426 Y97.889 E18.43928
G1 X91.286 Y97.841 E18.44669
G1 X90.922 Y98.310 E18.47650
G1 X89.174 Y98.310 E18.56421
G1 X87.876 Y96.687 E18.66849
G1 X87.738 Y96.736 E18.67586
G1 X87.738 Y102.390 E18.95964
G1 X81.628 Y102.390 E19.26627
G1 X81.628 Y87.281 E20.02457
G1 X87.738 Y87.281 E20.33119
G1 X87.738 Y88.270 E20.38084
G1 X89.092 Y86.916 E20.47693
G1 X87.876 Y85.397 E20.57458
G1 X87.738 Y85.445 E20.58194
G1 X87.738 Y86.390 E20.62937
G1 X81.628 Y86.390 E20.93599
G1 X81.628 Y71.281 E21.69429
G1 X87.738 Y71.281 E22.00092
G1 X87.738 Y76.980 E22.28693
G1 X89.211 Y75.506 E22.39150
G1 X90.902 Y75.506 E22.47638
G1 X91.426 Y76.105 E22.51631
G1 X91.426 Y74.689 E22.58737
G1 X93.375 Y72.890 E22.72047
G1 X88.128 Y72.890 E22.98381
G1 X88.128 Y66.341 E23.31252
G1 E22.81252 F2400.00000
G92 E0
G1 Z0.850 F7800.000
G1 X137.473 Y101.325
G1 Z0.350
G1 E0.50000 F2400.00000
G1 F1800
G1 X160.893 Y101.325 E1.67535
G1 X160.893 Y106.495 E1.93482
G1 X137.473 Y106.495 E3.11017
G1 X137.473 Y101.385 E3.36662
G1 X137.298 Y100.965 F7800.000
G1 X138.328 Y100.868
G1 F1800
G1 X132.817 Y100.868 E3.64318
G1 X131.126 Y99.047 E3.76790
G1 X131.126 Y97.421 E3.84950
G1 X132.826 Y95.851 E3.96564
G1 X138.318 Y95.851 E4.24125
G1 X139.893 Y97.426 E4.35300
G1 X139.893 Y99.042 E4.43412
G1 X138.367 Y100.822 E4.55179
G1 X138.271 Y101.264 F7800.000
G1 E4.05179 F2400.00000
G92 E0
G1 Z0.850 F7800.000
G1 X138.328 Y95.295
G1 Z0.350
G1 E0.50000 F2400.00000
G1 F1800
G1 X132.723 Y95.295 E0.78129
G1 X132.723 Y89.875 E1.05329
G1 X138.393 Y89.875 E1.33785
G1 X138.388 Y95.295 E1.60986
G1 X138.433 Y95.681 F7800.000
G1 E1.10986 F2400.00000
G92 E0
G1 Z0.850 F7800.000
G1 X131.909 Y95.649
G1 Z0.350
G1 E0.50000 F2400.00000
G1 F1800
G1 X130.108 Y97.965 E0.64721
G1 X128.695 Y97.965 E0.71814
G1 X127.618 Y96.619 E0.80464
G1 X127.618 Y88.232 E1.22552
G1 X128.709 Y87.142 E1.30294
G1 X130.101 Y87.142 E1.37279
G1 X131.909 Y89.208 E1.51060
G1 X131.909 Y95.589 E1.83085
G1 X132.159 Y95.961 F7800.000
G1 E1.33085 F2400.00000
G92 E0
G1 Z0.850 F7800.000
G1 X132.817 Y89.578
G1 Z0.350
G1 E0.50000 F2400.00000
G1 F1800
G1 X131.126 Y87.757 E0.62472
G1 X131.126 Y86.131 E0.70632
G1 X132.826 Y84.561 E0.82246
G1 X138.318 Y84.561 E1.09807
G1 X139.893 Y86.136 E1.20982
G1 X139.893 Y87.752 E1.29094
G1 X138.328 Y89.578 E1.41162
G1 X132.877 Y89.578 E1.68517
G1 X132.483 Y89.798 F7800.000
G1 E1.18517 F2400.00000
G92 E0
G1 Z0.850 F7800.000
G1 X132.817 Y84.045
G1 Z0.350
G1 E0.50000 F2400.00000
G1 F1800
G1 X132.723 Y84.045 E0.50472
G1 X132.723 Y78.625 E0.77673
G1 X138.393 Y78.625 E1.06129
G1 X138.393 Y84.045 E1.33329
G1 X132.877 Y84.045 E1.61011
G1 X132.792 Y84.136 F7800.000
G1 X131.909 Y84.359
G1 F1800
G1 X130.108 Y86.674 E1.75732
G1 X128.695 Y86.674 E1.82825
G1 X127.618 Y85.328 E1.91475
G1 X127.618 Y76.942 E2.33564
G1 X128.709 Y75.851 E2.41305
G1 X130.101 Y75.851 E2.48291
G1 X131.909 Y77.918 E2.62072
G1 X131.909 Y84.299 E2.94096
G1 X132.159 Y84.671 F7800.000
G1 E2.44096 F2400.00000
G92 E0
G1 Z0.850 F7800.000
G1 X132.817 Y78.287
G1 Z0.350
G1 E0.50000 F2400.00000
G1 F1800
G1 X131.126 Y76.466 E0.62472
G1 X131.126 Y74.840 E0.70632
G1 X132.826 Y73.271 E0.82246
G1 X138.318 Y73.271 E1.09807
G1 X139.893 Y74.845 E1.20982
G1 X139.893 Y76.462 E1.29094
G1 X138.328 Y78.287 E1.41162
G1 X132.877 Y78.287 E1.68517
G1 X132.483 Y78.508 F7800.000
G1 E1.18517 F2400.00000
G92 E0
G1 Z0.850 F7800.000
G1 X138.908 Y78.287
G1 Z0.350
G1 E0.50000 F2400.00000
G1 F1800
G1 X138.908 Y78.167 E0.50606
G1 X140.709 Y75.851 E0.65327
G1 X142.368 Y75.851 E0.73654
G1 X143.199 Y76.959 E0.80603
G1 X143.199 Y85.328 E1.22606
G1 X142.122 Y86.674 E1.31256
G1 X140.709 Y86.674 E1.38349
G1 X138.908 Y84.359 E1.53070
G1 X138.908 Y78.347 E1.83241
G1 X138.800 Y78.235 F7800.000
G1 E1.33241 F2400.00000
G92 E0
G1 Z0.850 F7800.000
G1 X146.450 Y75.851
G1 Z0.350
G1 E0.50000 F2400.00000
G1 F1800
G1 X147.842 Y75.851 E0.56986
G1 X149.651 Y77.918 E0.70767
G1 X149.651 Y84.359 E1.03093
G1 X147.850 Y86.674 E1.17813
G1 X146.437 Y86.674 E1.24906
G1 X145.360 Y85.328 E1.33557
G1 X145.360 Y76.942 E1.75645
G1 X146.408 Y75.894 E1.83085
G1 X146.466 Y75.452 F7800.000
G1 E1.33085 F2400.00000
G92 E0
G1 Z0.850 F7800.000
G1 X150.559 Y78.287
G1 Z0.350
G1 E0.50000 F2400.00000
G1 F1800
G1 X148.868 Y76.466 E0.62472
G1 X148.868 Y74.840 E0.70632
G1 X150.568 Y73.271 E0.82246
G1 X156.060 Y73.271 E1.09807
G1 X157.635 Y74.845 E1.20982
G1 X157.635 Y76.462 E1.29094
G1 X156.070 Y78.287 E1.41162
G1 X150.619 Y78.287 E1.68517
G1 X150.225 Y78.508 F7800.000
G1 X150.559 Y78.625
G1 F1800
G1 X156.143 Y78.625 E1.96541
G1 X156.143 Y84.045 E2.23742
G1 X150.473 Y84.045 E2.52197
G1 X150.473 Y78.625 E2.79398
G1 X150.499 Y78.625 E2.79529
G1 X150.561 Y78.225 F7800.000
G1 E2.29529 F2400.00000
G92 E0
G1 Z0.850 F7800.000
G1 X150.568 Y84.561
G1 Z0.350
G1 E0.50000 F2400.00000
G1 F1800
G1 X156.060 Y84.561 E0.77561
G1 X157.635 Y86.136 E0.88736
G1 X157.635 Y87.752 E0.96848
G1 X156.070 Y89.578 E1.08916
G1 X150.559 Y89.578 E1.36572
G1 X148.868 Y87.757 E1.49044
G1 X148.868 Y86.131 E1.57204
G1 X150.524 Y84.602 E1.68517
G1 X150.633 Y84.166 F7800.000
G1 E1.18517 F2400.00000
G92 E0
G1 Z0.850 F7800.000
G1 X147.842 Y87.142
G1 Z0.350
G1 E0.50000 F2400.00000
G1 F1800
G1 X149.651 Y89.208 E0.63781
G1 X149.651 Y95.649 E0.96107
G1 X147.850 Y97.965 E1.10828
G1 X146.437 Y97.965 E1.17921
G1 X145.360 Y96.619 E1.26571
G1 X145.360 Y88.232 E1.68659
G1 X146.450 Y87.142 E1.76401
G1 X147.782 Y87.142 E1.83085
G1 X148.169 Y86.910 F7800.000
G1 E1.33085 F2400.00000
G92 E0
G1 Z0.850 F7800.000
G1 X150.473 Y89.875
G1 Z0.350
G1 E0.50000 F2400.00000
G1 F1800
G1 X156.143 Y89.875 E0.78455
G1 X156.143 Y95.295 E1.05656
G1 X150.473 Y95.295 E1.34112
G1 X150.473 Y89.935 E1.61011
G1 X150.366 Y89.490 F7800.000
G1 E1.11011 F2400.00000
G92 E0
G1 Z0.850 F7800.000
G1 X150.568 Y95.851
G1 Z0.350
G1 E0.50000 F2400.00000
G1 F1800
G1 X156.060 Y95.851 E0.77561
G1 X157.635 Y97.426 E0.88736
G1 X157.635 Y99.042 E0.96848
G1 X156.070 Y100.868 E1.08916
G1 X150.559 Y100.868 E1.36572
G1 X148.868 Y99.047 E1.49044
G1 X148.868 Y97.421 E1.57204
G1 X150.524 Y95.892 E1.68517
G1 X150.633 Y95.457 F7800.000
G1 E1.18517 F2400.00000
G92 E0
G1 Z0.850 F7800.000
G1 X156.650 Y95.649
G1 Z0.350
G1 E0.50000 F2400.00000
G1 F1800
G1 X156.650 Y89.457 E0.81078
G1 X158.451 Y87.142 E0.95798
G1 X160.110 Y87.142 E1.04126
G1 X160.941 Y88.249 E1.11075
G1 X160.941 Y96.619 E1.53077
G1 X159.864 Y97.965 E1.61728
G1 X158.451 Y97.965 E1.68821
G1 X156.687 Y95.697 E1.83241
G1 X156.259 Y95.567 F7800.000
G1 E1.33241 F2400.00000
G92 E0
G1 Z0.850 F7800.000
G1 X158.451 Y86.674
G1 Z0.350
G1 E0.50000 F2400.00000
G1 F1800
G1 X156.650 Y84.359 E0.64721
G1 X156.650 Y78.167 E0.95798
G1 X158.451 Y75.851 E1.10519
G1 X160.110 Y75.851 E1.18846
G1 X160.941 Y76.959 E1.25795
G1 X160.941 Y85.328 E1.67798
G1 X159.864 Y86.674 E1.76449
G1 X158.511 Y86.674 E1.83241
G1 X158.122 Y86.902 F7800.000
G1 E1.33241 F2400.00000
G92 E0
G1 Z0.850 F7800.000
G1 X143.199 Y88.249
G1 Z0.350
G1 E0.50000 F2400.00000
G1 F1800
G1 X143.199 Y96.619 E0.92003
G1 X142.122 Y97.965 E1.00654
G1 X140.709 Y97.965 E1.07747
G1 X138.908 Y95.649 E1.22467
G1 X138.908 Y89.457 E1.53545
G1 X140.709 Y87.142 E1.68265
G1 X142.368 Y87.142 E1.76593
G1 X143.163 Y88.201 E1.83241
G1 X143.595 Y88.305 F7800.000
G1 E1.33241 F2400.00000
G92 E0
G1 Z0.850 F7800.000
G1 X121.586 Y88.249
G1 Z0.350
G1 E0.50000 F2400.00000
G1 F1800
G1 X121.586 Y96.619 E0.92003
G1 X120.509 Y97.965 E1.00654
G1 X119.096 Y97.965 E1.07746
G1 X117.295 Y95.649 E1.22467
G1 X117.295 Y89.457 E1.53545
G1 X119.096 Y87.142 E1.68266
G1 X120.755 Y87.142 E1.76593
G1 X121.550 Y88.201 E1.83241
G1 X121.982 Y88.305 F7800.000
G1 E1.33241 F2400.00000
G92 E0
G1 Z0.850 F7800.000
G1 X118.280 Y87.752
G1 Z0.350
G1 E0.50000 F2400.00000
G1 F1800
G1 X116.715 Y89.578 E0.62069
G1 X111.204 Y89.578 E0.89724
G1 X109.513 Y87.757 E1.02196
G1 X109.513 Y86.131 E1.10356
G1 X111.214 Y84.561 E1.21970
G1 X116.705 Y84.561 E1.49530
G1 X118.280 Y86.136 E1.60706
G1 X118.280 Y87.692 E1.68516
G1 X118.546 Y88.051 F7800.000
G1 E1.18516 F2400.00000
G92 E0
G1 Z0.850 F7800.000
G1 X110.296 Y89.208
G1 Z0.350
G1 E0.50000 F2400.00000
G1 F1800
G1 X110.296 Y95.649 E0.82326
G1 X108.495 Y97.965 E0.97047
G1 X107.082 Y97.965 E1.04139
G1 X106.005 Y96.619 E1.12790
G1 X106.005 Y88.232 E1.54879
G1 X107.096 Y87.142 E1.62620
G1 X108.488 Y87.142 E1.69605
G1 X110.256 Y89.163 E1.83085
G1 X110.689 Y89.284 F7800.000
G1 X110.973 Y89.875
G1 F1800
G1 X116.643 Y89.875 E2.11541
G1 X116.643 Y95.295 E2.38742
G1 X110.973 Y95.295 E2.67197
G1 X110.973 Y89.935 E2.94097
G1 X110.866 Y89.490 F7800.000
G1 E2.44097 F2400.00000
G92 E0
G1 Z0.850 F7800.000
G1 X111.214 Y95.851
G1 Z0.350
G1 E0.50000 F2400.00000
G1 F1800
G1 X116.705 Y95.851 E0.77560
G1 X118.280 Y97.426 E0.88736
G1 X118.280 Y99.042 E0.96847
G1 X116.715 Y100.868 E1.08916
G1 X111.204 Y100.868 E1.36571
G1 X109.513 Y99.047 E1.49043
G1 X109.513 Y97.421 E1.57203
G1 X111.169 Y95.892 E1.68516
G1 X111.278 Y95.457 F7800.000
G1 E1.18516 F2400.00000
G92 E0
G1 Z0.850 F7800.000
G1 X112.973 Y101.325
G1 Z0.350
G1 E0.50000 F2400.00000
G1 F1800
G1 X136.393 Y101.325 E1.67535
G1 X136.393 Y106.495 E1.93482
G1 X112.973 Y106.495 E3.11017
G1 X112.973 Y101.385 E3.36662
G1 X112.798 Y100.965 F7800.000
G1 E2.86662 F2400.00000
G92 E0
G1 Z0.850 F7800.000
G1 X103.844 Y96.619
G1 Z0.350
