; generated by PrusaSlicer 2.0.0+ on 2019-08-25 at 01:39:26

; 

; external perimeters extrusion width = 0.45mm
; perimeters extrusion width = 0.45mm
; infill extrusion width = 0.45mm
; solid infill extrusion width = 0.45mm
; top infill extrusion width = 0.40mm
; first layer extrusion width = 0.42mm

M107
M190 S50 ; set bed temperature and wait for it to be reached
M104 S210 ; set temperature
G28 X0
G28 Y0
G28 Z0; home all axes
G1 Z10 F5000 ; lift nozzle
; Filament gcode
M109 S210 ; set temperature and wait for it to be reached
G21 ; set units to millimeters
G90 ; use absolute coordinates
M82 ; use absolute distances for extrusion
G92 E0
G1 Z0.350 F7800.000
G1 X40.077 Y31.794
G1 F1800
G1 X41.099 Y30.576 E0.07982
G1 X41.757 Y29.926 E0.12623
G1 X42.956 Y28.974 E0.20306
G1 X44.592 Y28.032 E0.29779
G1 X45.606 Y27.609 E0.35294
G1 X47.275 Y27.120 E0.44020
G1 X49.387 Y26.873 E0.54692
G1 X200.062 Y26.873 E8.10872
G1 X202.038 Y27.000 E8.20805
G1 X204.195 Y27.535 E8.31961
G1 X206.126 Y28.411 E8.42602
G1 X207.396 Y29.244 E8.50227
G1 X208.114 Y29.837 E8.54901
G1 X209.207 Y30.919 E8.62619
G1 X210.120 Y32.127 E8.70219
G1 X210.591 Y32.871 E8.74633
G1 X211.158 Y34.026 E8.81090
G1 X211.493 Y34.874 E8.85667
G1 X211.890 Y36.310 E8.93148
G1 X212.128 Y38.293 E9.03169
G1 X212.135 Y134.580 E13.86396
G1 X212.004 Y136.053 E13.93817
G1 X211.823 Y136.954 E13.98426
G1 X211.373 Y138.471 E14.06367
G1 X210.668 Y139.986 E14.14756
G1 X210.207 Y140.751 E14.19235
G1 X209.226 Y142.060 E14.27446
G1 X208.059 Y143.215 E14.35686
G1 X207.387 Y143.762 E14.40035
G1 X205.816 Y144.761 E14.49376
G1 X203.958 Y145.547 E14.59505
G1 X201.986 Y146.009 E14.69667
G1 X200.155 Y146.126 E14.78873
G1 X49.372 Y146.126 E22.35593
G1 X46.951 Y145.809 E22.47850
G1 X45.406 Y145.323 E22.55975
G1 X44.525 Y144.933 E22.60810
G1 X43.143 Y144.155 E22.68772
G1 X41.836 Y143.143 E22.77068
G1 X41.164 Y142.497 E22.81742
G1 X40.077 Y141.205 E22.90219
G1 X39.064 Y139.521 E23.00080
G1 X38.404 Y137.870 E23.09001
G1 X37.969 Y135.949 E23.18890
G1 X37.860 Y134.868 E23.24341
G1 X37.860 Y38.107 E28.09944
G1 X37.944 Y37.199 E28.14520
G1 X38.262 Y35.586 E28.22770
G1 X38.815 Y34.033 E28.31043
G1 X39.201 Y33.221 E28.35554
G1 X40.046 Y31.846 E28.43657
G1 X40.339 Y32.026 F7800.000
G1 F1800
G1 X41.363 Y30.799 E28.51676
G1 X41.991 Y30.179 E28.56104
G1 X43.164 Y29.249 E28.63617
G1 X44.752 Y28.337 E28.72809
G1 X45.712 Y27.937 E28.78026
G1 X47.336 Y27.459 E28.86523
G1 X49.393 Y27.218 E28.96915
G1 X200.062 Y27.218 E36.53064
G1 X201.977 Y27.339 E36.62693
G1 X204.073 Y27.857 E36.73526
G1 X205.948 Y28.706 E36.83858
G1 X207.190 Y29.521 E36.91314
G1 X207.881 Y30.091 E36.95805
G1 X208.950 Y31.148 E37.03351
G1 X209.841 Y32.330 E37.10782
G1 X210.292 Y33.044 E37.15020
G1 X210.850 Y34.180 E37.21370
G1 X211.168 Y34.989 E37.25735
G1 X211.557 Y36.401 E37.33082
G1 X211.785 Y38.326 E37.42809
G1 X211.791 Y134.554 E42.25738
G1 X211.664 Y135.997 E42.33008
G1 X211.491 Y136.862 E42.37436
G1 X211.052 Y138.345 E42.45200
G1 X210.362 Y139.826 E42.53400
G1 X209.919 Y140.560 E42.57701
G1 X208.964 Y141.835 E42.65695
G1 X207.823 Y142.964 E42.73751
G1 X207.177 Y143.488 E42.77926
G1 X205.658 Y144.454 E42.86959
G1 X203.848 Y145.220 E42.96823
G1 X201.928 Y145.669 E43.06719
G1 X200.151 Y145.782 E43.15652
G1 X49.375 Y145.782 E50.72339
G1 X47.027 Y145.473 E50.84221
G1 X45.524 Y144.999 E50.92132
G1 X44.683 Y144.626 E50.96749
G1 X43.336 Y143.870 E51.04501
G1 X42.059 Y142.880 E51.12611
G1 X41.414 Y142.259 E51.17102
G1 X40.351 Y140.996 E51.25387
G1 X39.370 Y139.361 E51.34960
G1 X38.729 Y137.753 E51.43646
G1 X38.307 Y135.881 E51.53277
G1 X38.205 Y134.859 E51.58431
G1 X38.205 Y38.118 E56.43933
G1 X38.285 Y37.252 E56.48298
G1 X38.596 Y35.675 E56.56362
G1 X39.137 Y34.158 E56.64450
G1 X39.505 Y33.384 E56.68752
G1 X40.308 Y32.077 E56.76447
G1 X40.601 Y32.257 F7800.000
G1 F1800
G1 X41.622 Y31.026 E56.84470
G1 X42.220 Y30.437 E56.88687
G1 X43.372 Y29.525 E56.96059
G1 X44.913 Y28.643 E57.04971
G1 X45.824 Y28.263 E57.09925
G1 X47.404 Y27.797 E57.18193
G1 X49.400 Y27.563 E57.28274
G1 X200.062 Y27.563 E64.84388
G1 X201.918 Y27.679 E64.93719
G1 X203.951 Y28.180 E65.04229
G1 X205.771 Y29.002 E65.14251
G1 X206.990 Y29.802 E65.21566
G1 X207.647 Y30.345 E65.25845
G1 X208.692 Y31.378 E65.33218
G1 X209.566 Y32.538 E65.40508
G1 X209.994 Y33.218 E65.44541
G1 X210.538 Y34.329 E65.50750
G1 X210.843 Y35.105 E65.54936
G1 X211.222 Y36.485 E65.62116
G1 X211.441 Y38.358 E65.71580
G1 X211.447 Y134.534 E70.54247
G1 X211.322 Y135.947 E70.61366
G1 X211.158 Y136.771 E70.65583
G1 X210.730 Y138.220 E70.73168
G1 X210.059 Y139.661 E70.81146
G1 X209.638 Y140.360 E70.85240
G1 X208.702 Y141.611 E70.93080
G1 X207.586 Y142.712 E71.00948
G1 X206.972 Y143.211 E71.04919
G1 X205.500 Y144.148 E71.13677
G1 X203.738 Y144.893 E71.23275
G1 X201.876 Y145.328 E71.32874
G1 X200.141 Y145.437 E71.41595
G1 X49.384 Y145.437 E78.98187
G1 X47.116 Y145.140 E79.09664
G1 X45.642 Y144.675 E79.17423
G1 X44.840 Y144.319 E79.21824
G1 X43.524 Y143.580 E79.29396
G1 X42.277 Y142.613 E79.37318
G1 X41.668 Y142.025 E79.41566
G1 X40.626 Y140.787 E79.49688
G1 X39.675 Y139.200 E79.58972
G1 X39.055 Y137.641 E79.67393
G1 X38.647 Y135.819 E79.76763
G1 X38.550 Y134.849 E79.81656
G1 X38.550 Y38.128 E84.67057
G1 X38.626 Y37.304 E84.71212
G1 X38.927 Y35.770 E84.79058
G1 X39.457 Y34.287 E84.86958
G1 X39.810 Y33.545 E84.91083
G1 X40.570 Y32.308 E84.98370
G92 E0
G1 X69.240 Y120.183 F7800.000
G1 F1800
G1 X70.048 Y120.445 E0.04264
G1 X70.791 Y120.845 E0.08496
G1 X71.450 Y121.370 E0.12727
G1 X72.005 Y122.005 E0.16959
G1 X72.438 Y122.729 E0.21191
G1 X72.734 Y123.519 E0.25423
G1 X72.884 Y124.348 E0.29655
G1 X72.884 Y125.192 E0.33886
G1 X72.734 Y126.021 E0.38118
G1 X72.438 Y126.811 E0.42350
G1 X72.005 Y127.535 E0.46582
G1 X71.450 Y128.170 E0.50814
G1 X70.791 Y128.695 E0.55045
G1 X70.048 Y129.095 E0.59277
G1 X69.247 Y129.355 E0.63509
G1 X68.411 Y129.469 E0.67741
G1 X67.569 Y129.431 E0.71973
G1 X66.746 Y129.243 E0.76205
G1 X65.971 Y128.912 E0.80436
G1 X65.267 Y128.447 E0.84668
G1 X64.658 Y127.865 E0.88900
G1 X64.162 Y127.182 E0.93132
G1 X63.796 Y126.423 E0.97364
G1 X63.572 Y125.610 E1.01595
G1 X63.497 Y124.770 E1.05827
G1 X63.572 Y123.930 E1.10059
G1 X63.796 Y123.117 E1.14290
G1 X64.162 Y122.358 E1.18522
G1 X64.658 Y121.675 E1.22754
G1 X65.267 Y121.093 E1.26986
G1 X65.971 Y120.628 E1.31218
G1 X66.746 Y120.297 E1.35449
G1 X67.569 Y120.109 E1.39681
G1 X68.346 Y120.074 E1.43585
G1 X69.181 Y120.175 E1.47807
G1 X69.166 Y120.521 F7800.000
G1 F1800
G1 X69.912 Y120.763 E1.51747
G1 X70.600 Y121.134 E1.55667
G1 X71.211 Y121.621 E1.59588
G1 X71.725 Y122.209 E1.63508
G1 X72.126 Y122.879 E1.67428
G1 X72.400 Y123.611 E1.71349
G1 X72.540 Y124.379 E1.75269
G1 X72.540 Y125.161 E1.79189
G1 X72.400 Y125.929 E1.83109
G1 X72.126 Y126.661 E1.87030
G1 X71.725 Y127.331 E1.90950
G1 X71.211 Y127.919 E1.94870
G1 X70.600 Y128.406 E1.98790
G1 X69.912 Y128.776 E2.02710
G1 X69.170 Y129.018 E2.06630
G1 X68.395 Y129.123 E2.10551
G1 X67.615 Y129.088 E2.14471
G1 X66.853 Y128.914 E2.18391
G1 X66.135 Y128.607 E2.22311
G1 X65.483 Y128.177 E2.26232
G1 X64.919 Y127.637 E2.30152
G1 X64.460 Y127.005 E2.34072
G1 X64.121 Y126.301 E2.37993
G1 X63.913 Y125.548 E2.41913
G1 X63.843 Y124.770 E2.45833
G1 X63.913 Y123.992 E2.49753
G1 X64.121 Y123.239 E2.53673
G1 X64.460 Y122.535 E2.57593
G1 X64.919 Y121.903 E2.61514
G1 X65.483 Y121.363 E2.65434
G1 X66.135 Y120.933 E2.69354
G1 X66.853 Y120.626 E2.73274
G1 X67.615 Y120.452 E2.77195
G1 X68.333 Y120.420 E2.80800
G1 X69.106 Y120.514 E2.84710
G1 X69.091 Y120.859 F7800.000
G1 F1800
G1 X69.776 Y121.082 E2.88326
G1 X70.409 Y121.423 E2.91935
G1 X70.972 Y121.871 E2.95543
G1 X71.445 Y122.412 E2.99152
G1 X71.814 Y123.030 E3.02761
G1 X72.066 Y123.703 E3.06370
G1 X72.195 Y124.410 E3.09978
G1 X72.195 Y125.129 E3.13587
G1 X72.066 Y125.837 E3.17195
G1 X71.814 Y126.510 E3.20804
G1 X71.445 Y127.128 E3.24413
G1 X70.972 Y127.669 E3.28022
G1 X70.409 Y128.117 E3.31630
G1 X69.776 Y128.458 E3.35239
G1 X69.092 Y128.680 E3.38847
G1 X68.380 Y128.777 E3.42456
G1 X67.662 Y128.745 E3.46065
G1 X66.960 Y128.585 E3.49674
G1 X66.299 Y128.302 E3.53282
G1 X65.699 Y127.906 E3.56891
G1 X65.179 Y127.409 E3.60500
G1 X64.757 Y126.827 E3.64108
G1 X64.445 Y126.179 E3.67717
G1 X64.254 Y125.486 E3.71326
G1 X64.189 Y124.770 E3.74934
G1 X64.254 Y124.054 E3.78543
G1 X64.445 Y123.361 E3.82151
G1 X64.757 Y122.713 E3.85760
G1 X65.179 Y122.131 E3.89369
G1 X65.699 Y121.634 E3.92977
G1 X66.299 Y121.238 E3.96586
G1 X66.960 Y120.955 E4.00195
G1 X67.662 Y120.795 E4.03803
G1 X68.320 Y120.766 E4.07109
G1 X69.031 Y120.852 E4.10708
G1 X69.363 Y120.566 F7800.000
G92 E0
G1 X55.386 Y112.525
G1 F1800
G1 X54.380 Y112.198 E0.05311
G1 X53.448 Y111.697 E0.10622
G1 X52.620 Y111.037 E0.15934
G1 X51.924 Y110.240 E0.21246
G1 X51.381 Y109.331 E0.26557
G1 X51.009 Y108.341 E0.31868
G1 X50.820 Y107.299 E0.37180
G1 X50.820 Y44.701 E3.51336
G1 X51.009 Y43.659 E3.56647
G1 X51.381 Y42.669 E3.61958
G1 X51.924 Y41.760 E3.67270
G1 X52.620 Y40.963 E3.72581
G1 X53.448 Y40.303 E3.77893
G1 X54.380 Y39.802 E3.83204
G1 X55.386 Y39.475 E3.88516
G1 X56.415 Y39.335 E3.93725
G1 X193.076 Y39.335 E10.79572
G1 X194.072 Y39.380 E10.84576
G1 X195.104 Y39.616 E10.89888
G1 X196.077 Y40.031 E10.95198
G1 X196.960 Y40.615 E11.00509
G1 X197.725 Y41.346 E11.05820
G1 X198.347 Y42.202 E11.11132
G1 X198.807 Y43.155 E11.16443
G1 X199.089 Y44.176 E11.21756
G1 X199.180 Y45.190 E11.26865
G1 X199.180 Y106.810 E14.36113
G1 X199.089 Y107.824 E14.41222
G1 X198.807 Y108.845 E14.46535
G1 X198.347 Y109.798 E14.51846
G1 X197.725 Y110.654 E14.57157
G1 X196.960 Y111.385 E14.62469
G1 X196.077 Y111.968 E14.67779
G1 X195.104 Y112.384 E14.73090
G1 X194.072 Y112.620 E14.78402
G1 X193.076 Y112.665 E14.83406
G1 X56.415 Y112.665 E21.69253
G1 X55.446 Y112.533 E21.74161
G1 X55.463 Y112.188 F7800.000
G1 F1800
G1 X54.516 Y111.880 E21.79161
G1 X53.639 Y111.408 E21.84161
G1 X52.860 Y110.787 E21.89161
G1 X52.204 Y110.036 E21.94161
G1 X51.693 Y109.181 E21.99160
G1 X51.343 Y108.248 E22.04160
G1 X51.165 Y107.268 E22.09160
G1 X51.165 Y44.732 E25.23004
G1 X51.343 Y43.752 E25.28004
G1 X51.693 Y42.819 E25.33004
G1 X52.204 Y41.964 E25.38004
G1 X52.860 Y41.213 E25.43004
G1 X53.639 Y40.592 E25.48004
G1 X54.516 Y40.120 E25.53004
G1 X55.463 Y39.812 E25.58004
G1 X56.438 Y39.680 E25.62941
G1 X193.068 Y39.680 E32.48632
G1 X194.026 Y39.723 E32.53441
G1 X194.997 Y39.945 E32.58441
G1 X195.913 Y40.336 E32.63440
G1 X196.744 Y40.885 E32.68439
G1 X197.464 Y41.574 E32.73439
G1 X198.050 Y42.380 E32.78440
G1 X198.482 Y43.277 E32.83439
G1 X198.748 Y44.238 E32.88440
G1 X198.835 Y45.205 E32.93315
G1 X198.835 Y106.795 E36.02408
G1 X198.748 Y107.762 E36.07283
G1 X198.482 Y108.723 E36.12285
G1 X198.050 Y109.620 E36.17284
G1 X197.464 Y110.426 E36.22284
G1 X196.744 Y111.115 E36.27284
G1 X195.913 Y111.664 E36.32284
G1 X194.997 Y112.055 E36.37282
G1 X194.026 Y112.277 E36.42283
G1 X193.068 Y112.320 E36.47092
G1 X56.438 Y112.320 E43.32783
G1 X55.523 Y112.196 E43.37419
G1 X55.540 Y111.850 F7800.000
G1 F1800
G1 X54.652 Y111.561 E43.42108
G1 X53.829 Y111.119 E43.46796
G1 X53.099 Y110.536 E43.51484
G1 X52.484 Y109.833 E43.56173
G1 X52.005 Y109.031 E43.60861
G1 X51.677 Y108.156 E43.65549
G1 X51.510 Y107.237 E43.70237
G1 X51.510 Y44.763 E46.83770
G1 X51.677 Y43.844 E46.88458
G1 X52.005 Y42.969 E46.93147
G1 X52.484 Y42.167 E46.97835
G1 X53.099 Y41.464 E47.02523
G1 X53.829 Y40.881 E47.07212
G1 X54.652 Y40.438 E47.11900
G1 X55.540 Y40.150 E47.16588
G1 X56.461 Y40.025 E47.21253
G1 X193.061 Y40.025 E54.06788
G1 X193.979 Y40.066 E54.11403
G1 X194.890 Y40.274 E54.16092
G1 X195.749 Y40.641 E54.20779
G1 X196.528 Y41.156 E54.25467
G1 X197.204 Y41.802 E54.30155
G1 X197.753 Y42.557 E54.34844
G1 X198.158 Y43.399 E54.39532
G1 X198.407 Y44.300 E54.44222
G1 X198.490 Y45.221 E54.48863
G1 X198.490 Y106.779 E57.57801
G1 X198.407 Y107.700 E57.62442
G1 X198.158 Y108.601 E57.67131
G1 X197.753 Y109.443 E57.71819
G1 X197.204 Y110.198 E57.76508
G1 X196.528 Y110.844 E57.81197
G1 X195.749 Y111.359 E57.85885
G1 X194.890 Y111.726 E57.90572
G1 X193.979 Y111.934 E57.95260
G1 X193.061 Y111.975 E57.99875
G1 X56.461 Y111.975 E64.85411
G1 X55.600 Y111.858 E64.89774
G1 X55.273 Y112.147 F7800.000
G92 E0
G1 X177.152 Y123.930
G1 F1800
G1 X177.376 Y123.117 E0.04233
G1 X177.742 Y122.358 E0.08465
G1 X178.238 Y121.675 E0.12696
G1 X178.848 Y121.093 E0.16930
G1 X179.551 Y120.628 E0.21159
G1 X180.327 Y120.297 E0.25394
G1 X181.149 Y120.109 E0.29624
G1 X181.925 Y120.074 E0.33525
G1 X182.821 Y120.183 E0.38053
G1 X183.629 Y120.445 E0.42319
G1 X184.371 Y120.845 E0.46546
G1 X185.030 Y121.370 E0.50778
G1 X185.585 Y122.005 E0.55008
G1 X186.018 Y122.729 E0.59242
G1 X186.314 Y123.519 E0.63474
G1 X186.465 Y124.348 E0.67705
G1 X186.465 Y125.192 E0.71939
G1 X186.314 Y126.021 E0.76170
G1 X186.018 Y126.811 E0.80402
G1 X185.585 Y127.535 E0.84636
G1 X185.030 Y128.170 E0.88866
G1 X184.371 Y128.695 E0.93098
G1 X183.629 Y129.095 E0.97325
G1 X182.827 Y129.355 E1.01559
G1 X181.990 Y129.469 E1.05795
G1 X181.149 Y129.431 E1.10024
G1 X180.327 Y129.243 E1.14254
G1 X179.551 Y128.912 E1.18489
G1 X178.848 Y128.447 E1.22718
G1 X178.238 Y127.865 E1.26952
G1 X177.742 Y127.182 E1.31183
G1 X177.376 Y126.423 E1.35415
G1 X177.152 Y125.610 E1.39648
G1 X177.077 Y124.770 E1.43879
G1 X177.147 Y123.990 E1.47808
G1 X177.493 Y123.992 F7800.000
G1 F1800
G1 X177.700 Y123.239 E1.51729
G1 X178.040 Y122.535 E1.55650
G1 X178.498 Y121.903 E1.59569
G1 X179.064 Y121.363 E1.63492
G1 X179.715 Y120.933 E1.67409
G1 X180.434 Y120.626 E1.71333
G1 X181.195 Y120.452 E1.75251
G1 X181.912 Y120.420 E1.78854
G1 X182.746 Y120.521 E1.83069
G1 X183.493 Y120.764 E1.87011
G1 X184.180 Y121.134 E1.90927
G1 X184.791 Y121.621 E1.94848
G1 X185.305 Y122.209 E1.98767
G1 X185.706 Y122.879 E2.02689
G1 X185.980 Y123.611 E2.06609
G1 X186.120 Y124.379 E2.10529
G1 X186.120 Y125.161 E2.14450
G1 X185.980 Y125.929 E2.18370
G1 X185.706 Y126.661 E2.22290
G1 X185.305 Y127.331 E2.26212
G1 X184.791 Y127.919 E2.30131
G1 X184.180 Y128.406 E2.34052
G1 X183.493 Y128.776 E2.37968
G1 X182.750 Y129.018 E2.41889
G1 X181.975 Y129.123 E2.45814
G1 X181.195 Y129.088 E2.49731
G1 X180.434 Y128.914 E2.53650
G1 X179.715 Y128.607 E2.57573
G1 X179.064 Y128.177 E2.61491
G1 X178.498 Y127.637 E2.65414
G1 X178.040 Y127.005 E2.69333
G1 X177.700 Y126.301 E2.73254
G1 X177.493 Y125.548 E2.77174
G1 X177.423 Y124.770 E2.81094
G1 X177.487 Y124.052 E2.84712
G1 X177.833 Y124.054 F7800.000
G1 F1800
G1 X178.025 Y123.361 E2.88321
G1 X178.337 Y122.713 E2.91930
G1 X178.759 Y122.131 E2.95538
G1 X179.279 Y121.634 E2.99149
G1 X179.879 Y121.238 E3.02755
G1 X180.541 Y120.955 E3.06367
G1 X181.242 Y120.795 E3.09974
G1 X181.899 Y120.766 E3.13277
G1 X182.671 Y120.859 E3.17181
G1 X183.357 Y121.082 E3.20798
G1 X183.989 Y121.423 E3.24403
G1 X184.552 Y121.871 E3.28013
G1 X185.024 Y122.412 E3.31620
G1 X185.394 Y123.030 E3.35230
G1 X185.646 Y123.703 E3.38839
G1 X185.775 Y124.410 E3.42448
G1 X185.775 Y125.130 E3.46057
G1 X185.646 Y125.837 E3.49665
G1 X185.394 Y126.510 E3.53274
G1 X185.024 Y127.128 E3.56884
G1 X184.552 Y127.669 E3.60491
G1 X183.989 Y128.117 E3.64101
G1 X183.357 Y128.458 E3.67706
G1 X182.673 Y128.680 E3.71315
G1 X181.959 Y128.777 E3.74929
G1 X181.242 Y128.745 E3.78534
G1 X180.541 Y128.585 E3.82142
G1 X179.879 Y128.302 E3.85753
G1 X179.279 Y127.906 E3.89359
G1 X178.759 Y127.409 E3.92970
G1 X178.337 Y126.827 E3.96578
G1 X178.025 Y126.179 E4.00187
G1 X177.833 Y125.486 E4.03796
G1 X177.769 Y124.770 E4.07404
G1 X177.828 Y124.114 E4.10712
G1 X177.528 Y123.795 F7800.000
G92 E0
G1 X200.830 Y138.330
G1 F1800
G1 X200.036 Y138.365 E0.03987
G1 X49.536 Y138.365 E7.59284
G1 X48.788 Y138.264 E7.63071
G1 X48.090 Y138.037 E7.66756
G1 X47.443 Y137.689 E7.70442
G1 X46.869 Y137.231 E7.74129
G1 X46.386 Y136.678 E7.77815
G1 X46.009 Y136.047 E7.81500
G1 X45.753 Y135.364 E7.85164
G1 X45.620 Y134.637 E7.88874
G1 X45.620 Y38.363 E12.72034
G1 X45.751 Y37.640 E12.75719
G1 X46.009 Y36.953 E12.79405
G1 X46.383 Y36.326 E12.83069
G1 X46.869 Y35.769 E12.86779
G1 X47.443 Y35.311 E12.90460
G1 X48.094 Y34.962 E12.94170
G1 X48.788 Y34.736 E12.97833
G1 X49.536 Y34.635 E13.01621
